N00000 (.../pcb-gcode-3.6.2.4/pcb-gcode.ulp)
N00010 (Copyright 2005 - 2012 by John Johnson)
N00020 (See readme.txt for licensing terms.)
N00030 (This file generated from the board:)
N00040 (.../Q-Berry2/BreakOut/12 pin sop.brd)
N00050 (Current profile is .../pcb-gcode-3.6.2.4/profiles/mach.pp  )
N00060 (This file generated 4/12/2015 5:20:42 PM)
N00070 (Settings from pcb-machine.h)
N00080 (spindle on time = 3.0000)
N00090 (  Tool Size)
N00100 (0.1778  )
N00110 (spindle speed = 30000.0000)
N00120 (tool change at 0.0000  0.0000  25.4000 )
N00130 (feed rate xy = F508   )
N00140 (feed rate z  = F254   )
N00150 (Z Axis Settings)
N00160 (  High     Up        Down     Drill)
N00170 (12.0000 	3.0000  	-0.0800 	-2.5000 )
N00180 (Settings from pcb-defaults.h)
N00190 (isolate min = 0.0254)
N00200 (isolate max = 0.5080)
N00210 (isolate step = 0.1270)
N00220 (Generated top outlines, top drill, bottom outlines, bottom drill, )
N00230 (Unit of measure: mm)
N00240 (Metric Mode)
N00250 G21
N00260 (Absolute Coordinates)
N00270 G90
N00280 S30000
N00290 G00 Z12.0000 
N00300 G00 X0.0000  Y0.0000  
N00310 M03
N00320 G04 P3.000000
N00330 G00 Z3.0000  
N00340 G00 X4.4783  Y5.1958  
N00350 G01 Z-0.0800 F254   
N00360 G01 X4.3935  Y5.3226  F508   
N00370 G01 X4.3351  Y5.4636  
N00380 G01 X4.3053  Y5.6133  
N00390 G01 X4.3053  Y7.0867  
N00400 G01 X4.3351  Y7.2364  
N00410 G01 X4.3935  Y7.3774  
N00420 G01 X4.4783  Y7.5042  
N00430 G01 X4.5862  Y7.6121  
N00440 G01 X4.7130  Y7.6969  
N00450 G01 X4.8540  Y7.7553  
N00460 G01 X5.0037  Y7.7851  
N00470 G01 X5.1563  Y7.7851  
N00480 G01 X5.3060  Y7.7553  
N00490 G01 X5.4470  Y7.6969  
N00500 G01 X5.5738  Y7.6121  
N00510 G01 X5.6817  Y7.5042  
N00520 G01 X5.7665  Y7.3774  
N00530 G01 X5.8249  Y7.2364  
N00540 G01 X5.8547  Y7.0867  
N00550 G01 X5.8547  Y5.6133  
N00560 G01 X5.8249  Y5.4636  
N00570 G01 X5.7665  Y5.3226  
N00580 G01 X5.6817  Y5.1958  
N00590 G01 X5.5738  Y5.0879  
N00600 G01 X5.4470  Y5.0031  
N00610 G01 X5.3060  Y4.9447  
N00620 G01 X5.1563  Y4.9149  
N00630 G01 X5.0037  Y4.9149  
N00640 G01 X4.8540  Y4.9447  
N00650 G01 X4.7130  Y5.0031  
N00660 G01 X4.5862  Y5.0879  
N00670 G01 X4.4783  Y5.1958  
N00680 G00 Z3.0000  
N00690 G00 X7.0183  Y5.1958  
N00700 G01 Z-0.0800 F254   
N00710 G01 X6.9335  Y5.3226  F508   
N00720 G01 X6.8751  Y5.4636  
N00730 G01 X6.8453  Y5.6133  
N00740 G01 X6.8453  Y7.0867  
N00750 G01 X6.8751  Y7.2364  
N00760 G01 X6.9335  Y7.3774  
N00770 G01 X7.0183  Y7.5042  
N00780 G01 X7.1262  Y7.6121  
N00790 G01 X7.2530  Y7.6969  
N00800 G01 X7.3940  Y7.7553  
N00810 G01 X7.5437  Y7.7851  
N00820 G01 X7.6963  Y7.7851  
N00830 G01 X7.8460  Y7.7553  
N00840 G01 X7.9870  Y7.6969  
N00850 G01 X8.1138  Y7.6121  
N00860 G01 X8.2217  Y7.5042  
N00870 G01 X8.3065  Y7.3774  
N00880 G01 X8.3649  Y7.2364  
N00890 G01 X8.3947  Y7.0867  
N00900 G01 X8.3947  Y5.6133  
N00910 G01 X8.3649  Y5.4636  
N00920 G01 X8.3065  Y5.3226  
N00930 G01 X8.2217  Y5.1958  
N00940 G01 X8.1138  Y5.0879  
N00950 G01 X7.9870  Y5.0031  
N00960 G01 X7.8460  Y4.9447  
N00970 G01 X7.6963  Y4.9149  
N00980 G01 X7.5437  Y4.9149  
N00990 G01 X7.3940  Y4.9447  
N01000 G01 X7.2530  Y5.0031  
N01010 G01 X7.1262  Y5.0879  
N01020 G01 X7.0183  Y5.1958  
N01030 G00 Z3.0000  
N01040 G00 X9.5582  Y5.1958  
N01050 G01 Z-0.0800 F254   
N01060 G01 X9.4735  Y5.3226  F508   
N01070 G01 X9.4151  Y5.4636  
N01080 G01 X9.3853  Y5.6133  
N01090 G01 X9.3853  Y7.0867  
N01100 G01 X9.4151  Y7.2364  
N01110 G01 X9.4735  Y7.3774  
N01120 G01 X9.5582  Y7.5042  
N01130 G01 X9.6662  Y7.6121  
N01140 G01 X9.7930  Y7.6969  
N01150 G01 X9.9340  Y7.7553  
N01160 G01 X10.0837 Y7.7851  
N01170 G01 X10.2363 Y7.7851  
N01180 G01 X10.3860 Y7.7553  
N01190 G01 X10.5270 Y7.6969  
N01200 G01 X10.6538 Y7.6121  
N01210 G01 X10.7617 Y7.5042  
N01220 G01 X10.8465 Y7.3774  
N01230 G01 X10.9049 Y7.2364  
N01240 G01 X10.9347 Y7.0867  
N01250 G01 X10.9347 Y5.6133  
N01260 G01 X10.9049 Y5.4636  
N01270 G01 X10.8465 Y5.3226  
N01280 G01 X10.7617 Y5.1958  
N01290 G01 X10.6538 Y5.0879  
N01300 G01 X10.5270 Y5.0031  
N01310 G01 X10.3860 Y4.9447  
N01320 G01 X10.2363 Y4.9149  
N01330 G01 X10.0837 Y4.9149  
N01340 G01 X9.9340  Y4.9447  
N01350 G01 X9.7930  Y5.0031  
N01360 G01 X9.6662  Y5.0879  
N01370 G01 X9.5582  Y5.1958  
N00000 G00 Z3.0000  
N00010 G00 X4.3796  Y5.1148  
N00020 G01 Z-0.0800 F254   
N00030 G01 X4.2809  Y5.2625  F508   
N00040 G01 X4.2130  Y5.4266  
N00050 G01 X4.1783  Y5.6008  
N00060 G01 X4.1783  Y7.0992  
N00070 G01 X4.2130  Y7.2734  
N00080 G01 X4.2809  Y7.4375  
N00090 G01 X4.3796  Y7.5852  
N00100 G01 X4.5052  Y7.7108  
N00110 G01 X4.6529  Y7.8095  
N00120 G01 X4.8170  Y7.8774  
N00130 G01 X4.9912  Y7.9121  
N00140 G01 X5.1688  Y7.9121  
N00150 G01 X5.3430  Y7.8774  
N00160 G01 X5.5071  Y7.8095  
N00170 G01 X5.6548  Y7.7108  
N00180 G01 X5.7804  Y7.5852  
N00190 G01 X5.8791  Y7.4375  
N00200 G01 X5.9470  Y7.2734  
N00210 G01 X5.9817  Y7.0992  
N00220 G01 X5.9817  Y5.6008  
N00230 G01 X5.9470  Y5.4266  
N00240 G01 X5.8791  Y5.2625  
N00250 G01 X5.7804  Y5.1148  
N00260 G01 X5.6548  Y4.9892  
N00270 G01 X5.5071  Y4.8905  
N00280 G01 X5.3430  Y4.8226  
N00290 G01 X5.1688  Y4.7879  
N00300 G01 X4.9912  Y4.7879  
N00310 G01 X4.8170  Y4.8226  
N00320 G01 X4.6529  Y4.8905  
N00330 G01 X4.5052  Y4.9892  
N00340 G01 X4.3796  Y5.1148  
N00350 G00 Z3.0000  
N00360 G00 X6.9196  Y5.1148  
N00370 G01 Z-0.0800 F254   
N00380 G01 X6.8209  Y5.2625  F508   
N00390 G01 X6.7530  Y5.4266  
N00400 G01 X6.7183  Y5.6008  
N00410 G01 X6.7183  Y7.0992  
N00420 G01 X6.7530  Y7.2734  
N00430 G01 X6.8209  Y7.4375  
N00440 G01 X6.9196  Y7.5852  
N00450 G01 X7.0452  Y7.7108  
N00460 G01 X7.1929  Y7.8095  
N00470 G01 X7.3570  Y7.8774  
N00480 G01 X7.5312  Y7.9121  
N00490 G01 X7.7088  Y7.9121  
N00500 G01 X7.8830  Y7.8774  
N00510 G01 X8.0471  Y7.8095  
N00520 G01 X8.1948  Y7.7108  
N00530 G01 X8.3204  Y7.5852  
N00540 G01 X8.4191  Y7.4375  
N00550 G01 X8.4870  Y7.2734  
N00560 G01 X8.5217  Y7.0992  
N00570 G01 X8.5217  Y5.6008  
N00580 G01 X8.4870  Y5.4266  
N00590 G01 X8.4191  Y5.2625  
N00600 G01 X8.3204  Y5.1148  
N00610 G01 X8.1948  Y4.9892  
N00620 G01 X8.0471  Y4.8905  
N00630 G01 X7.8830  Y4.8226  
N00640 G01 X7.7088  Y4.7879  
N00650 G01 X7.5312  Y4.7879  
N00660 G01 X7.3570  Y4.8226  
N00670 G01 X7.1929  Y4.8905  
N00680 G01 X7.0452  Y4.9892  
N00690 G01 X6.9196  Y5.1148  
N00700 G00 Z3.0000  
N00710 G00 X9.4596  Y5.1148  
N00720 G01 Z-0.0800 F254   
N00730 G01 X9.3609  Y5.2625  F508   
N00740 G01 X9.2930  Y5.4266  
N00750 G01 X9.2583  Y5.6008  
N00760 G01 X9.2583  Y7.0992  
N00770 G01 X9.2930  Y7.2734  
N00780 G01 X9.3609  Y7.4375  
N00790 G01 X9.4596  Y7.5852  
N00800 G01 X9.5852  Y7.7108  
N00810 G01 X9.7329  Y7.8095  
N00820 G01 X9.8970  Y7.8774  
N00830 G01 X10.0712 Y7.9121  
N00840 G01 X10.2488 Y7.9121  
N00850 G01 X10.4230 Y7.8774  
N00860 G01 X10.5871 Y7.8095  
N00870 G01 X10.7348 Y7.7108  
N00880 G01 X10.8604 Y7.5852  
N00890 G01 X10.9591 Y7.4375  
N00900 G01 X11.0270 Y7.2734  
N00910 G01 X11.0617 Y7.0992  
N00920 G01 X11.0617 Y5.6008  
N00930 G01 X11.0270 Y5.4266  
N00940 G01 X10.9591 Y5.2625  
N00950 G01 X10.8604 Y5.1148  
N00960 G01 X10.7348 Y4.9892  
N00970 G01 X10.5871 Y4.8905  
N00980 G01 X10.4230 Y4.8226  
N00990 G01 X10.2488 Y4.7879  
N01000 G01 X10.0712 Y4.7879  
N01010 G01 X9.8970  Y4.8226  
N01020 G01 X9.7329  Y4.8905  
N01030 G01 X9.5852  Y4.9892  
N01040 G01 X9.4596  Y5.1148  
N00000 G00 Z3.0000  
N00010 G00 X4.2810  Y5.0338  
N00020 G01 Z-0.0800 F254   
N00030 G01 X4.1684  Y5.2023  F508   
N00040 G01 X4.0908  Y5.3895  
N00050 G01 X4.0513  Y5.5883  
N00060 G01 X4.0513  Y7.1117  
N00070 G01 X4.0908  Y7.3105  
N00080 G01 X4.1684  Y7.4977  
N00090 G01 X4.2810  Y7.6662  
N00100 G01 X4.4242  Y7.8094  
N00110 G01 X4.5927  Y7.9220  
N00120 G01 X4.7799  Y7.9996  
N00130 G01 X4.9787  Y8.0391  
N00140 G01 X5.1813  Y8.0391  
N00150 G01 X5.3801  Y7.9996  
N00160 G01 X5.5673  Y7.9220  
N00170 G01 X5.7358  Y7.8094  
N00180 G01 X5.8790  Y7.6662  
N00190 G01 X5.9916  Y7.4977  
N00200 G01 X6.0692  Y7.3105  
N00210 G01 X6.1087  Y7.1117  
N00220 G01 X6.1087  Y5.5883  
N00230 G01 X6.0692  Y5.3895  
N00240 G01 X5.9916  Y5.2023  
N00250 G01 X5.8790  Y5.0338  
N00260 G01 X5.7358  Y4.8906  
N00270 G01 X5.5673  Y4.7780  
N00280 G01 X5.3801  Y4.7004  
N00290 G01 X5.1813  Y4.6609  
N00300 G01 X4.9787  Y4.6609  
N00310 G01 X4.7799  Y4.7004  
N00320 G01 X4.5927  Y4.7780  
N00330 G01 X4.4242  Y4.8906  
N00340 G01 X4.2810  Y5.0338  
N00350 G00 Z3.0000  
N00360 G00 X6.8210  Y5.0338  
N00370 G01 Z-0.0800 F254   
N00380 G01 X6.7084  Y5.2023  F508   
N00390 G01 X6.6308  Y5.3895  
N00400 G01 X6.5913  Y5.5883  
N00410 G01 X6.5913  Y7.1117  
N00420 G01 X6.6308  Y7.3105  
N00430 G01 X6.7084  Y7.4977  
N00440 G01 X6.8210  Y7.6662  
N00450 G01 X6.9642  Y7.8094  
N00460 G01 X7.1327  Y7.9220  
N00470 G01 X7.3199  Y7.9996  
N00480 G01 X7.5187  Y8.0391  
N00490 G01 X7.7213  Y8.0391  
N00500 G01 X7.9201  Y7.9996  
N00510 G01 X8.1073  Y7.9220  
N00520 G01 X8.2758  Y7.8094  
N00530 G01 X8.4190  Y7.6662  
N00540 G01 X8.5316  Y7.4977  
N00550 G01 X8.6092  Y7.3105  
N00560 G01 X8.6487  Y7.1117  
N00570 G01 X8.6487  Y5.5883  
N00580 G01 X8.6092  Y5.3895  
N00590 G01 X8.5316  Y5.2023  
N00600 G01 X8.4190  Y5.0338  
N00610 G01 X8.2758  Y4.8906  
N00620 G01 X8.1073  Y4.7780  
N00630 G01 X7.9201  Y4.7004  
N00640 G01 X7.7213  Y4.6609  
N00650 G01 X7.5187  Y4.6609  
N00660 G01 X7.3199  Y4.7004  
N00670 G01 X7.1327  Y4.7780  
N00680 G01 X6.9642  Y4.8906  
N00690 G01 X6.8210  Y5.0338  
N00700 G00 Z3.0000  
N00710 G00 X9.3610  Y5.0338  
N00720 G01 Z-0.0800 F254   
N00730 G01 X9.2484  Y5.2023  F508   
N00740 G01 X9.1708  Y5.3895  
N00750 G01 X9.1313  Y5.5883  
N00760 G01 X9.1313  Y7.1117  
N00770 G01 X9.1708  Y7.3105  
N00780 G01 X9.2484  Y7.4977  
N00790 G01 X9.3610  Y7.6662  
N00800 G01 X9.5042  Y7.8094  
N00810 G01 X9.6727  Y7.9220  
N00820 G01 X9.8599  Y7.9996  
N00830 G01 X10.0587 Y8.0391  
N00840 G01 X10.2613 Y8.0391  
N00850 G01 X10.4601 Y7.9996  
N00860 G01 X10.6473 Y7.9220  
N00870 G01 X10.8158 Y7.8094  
N00880 G01 X10.9590 Y7.6662  
N00890 G01 X11.0716 Y7.4977  
N00900 G01 X11.1492 Y7.3105  
N00910 G01 X11.1887 Y7.1117  
N00920 G01 X11.1887 Y5.5883  
N00930 G01 X11.1492 Y5.3895  
N00940 G01 X11.0716 Y5.2023  
N00950 G01 X10.9590 Y5.0338  
N00960 G01 X10.8158 Y4.8906  
N00970 G01 X10.6473 Y4.7780  
N00980 G01 X10.4601 Y4.7004  
N00990 G01 X10.2613 Y4.6609  
N01000 G01 X10.0587 Y4.6609  
N01010 G01 X9.8599  Y4.7004  
N01020 G01 X9.6727  Y4.7780  
N01030 G01 X9.5042  Y4.8906  
N01040 G01 X9.3610  Y5.0338  
N00000 G00 Z3.0000  
N00010 G00 X4.1985  Y4.9367  
N00020 G01 Z-0.0800 F254   
N00030 G01 X4.0916  Y5.0839  F508   
N00040 G01 X4.0090  Y5.2460  
N00050 G01 X3.9528  Y5.4190  
N00060 G01 X3.9243  Y5.5986  
N00070 G01 X3.9243  Y7.1014  
N00080 G01 X3.9528  Y7.2810  
N00090 G01 X4.0090  Y7.4540  
N00100 G01 X4.0916  Y7.6161  
N00110 G01 X4.1985  Y7.7633  
N00120 G01 X4.3271  Y7.8919  
N00130 G01 X4.4743  Y7.9988  
N00140 G01 X4.6364  Y8.0814  
N00150 G01 X4.8094  Y8.1376  
N00160 G01 X4.9890  Y8.1661  
N00170 G01 X5.1710  Y8.1661  
N00180 G01 X5.3506  Y8.1376  
N00190 G01 X5.5236  Y8.0814  
N00200 G01 X5.6857  Y7.9988  
N00210 G01 X5.8329  Y7.8919  
N00220 G01 X5.9615  Y7.7633  
N00230 G01 X6.0684  Y7.6161  
N00240 G01 X6.1510  Y7.4540  
N00250 G01 X6.2072  Y7.2810  
N00260 G01 X6.2357  Y7.1014  
N00270 G01 X6.2357  Y5.5986  
N00280 G01 X6.2072  Y5.4190  
N00290 G01 X6.1510  Y5.2460  
N00300 G01 X6.0684  Y5.0839  
N00310 G01 X5.9615  Y4.9367  
N00320 G01 X5.8329  Y4.8081  
N00330 G01 X5.6857  Y4.7012  
N00340 G01 X5.5236  Y4.6186  
N00350 G01 X5.3506  Y4.5624  
N00360 G01 X5.1710  Y4.5339  
N00370 G01 X4.9890  Y4.5339  
N00380 G01 X4.8094  Y4.5624  
N00390 G01 X4.6364  Y4.6186  
N00400 G01 X4.4743  Y4.7012  
N00410 G01 X4.3271  Y4.8081  
N00420 G01 X4.1985  Y4.9367  
N00430 G00 Z3.0000  
N00440 G00 X6.7385  Y4.9367  
N00450 G01 Z-0.0800 F254   
N00460 G01 X6.6316  Y5.0839  F508   
N00470 G01 X6.5490  Y5.2460  
N00480 G01 X6.4928  Y5.4190  
N00490 G01 X6.4643  Y5.5986  
N00500 G01 X6.4643  Y7.1014  
N00510 G01 X6.4928  Y7.2810  
N00520 G01 X6.5490  Y7.4540  
N00530 G01 X6.6316  Y7.6161  
N00540 G01 X6.7385  Y7.7633  
N00550 G01 X6.8671  Y7.8919  
N00560 G01 X7.0143  Y7.9988  
N00570 G01 X7.1764  Y8.0814  
N00580 G01 X7.3494  Y8.1376  
N00590 G01 X7.5290  Y8.1661  
N00600 G01 X7.7110  Y8.1661  
N00610 G01 X7.8906  Y8.1376  
N00620 G01 X8.0636  Y8.0814  
N00630 G01 X8.2257  Y7.9988  
N00640 G01 X8.3729  Y7.8919  
N00650 G01 X8.5015  Y7.7633  
N00660 G01 X8.6084  Y7.6161  
N00670 G01 X8.6910  Y7.4540  
N00680 G01 X8.7472  Y7.2810  
N00690 G01 X8.7757  Y7.1014  
N00700 G01 X8.7757  Y5.5986  
N00710 G01 X8.7472  Y5.4190  
N00720 G01 X8.6910  Y5.2460  
N00730 G01 X8.6084  Y5.0839  
N00740 G01 X8.5015  Y4.9367  
N00750 G01 X8.3729  Y4.8081  
N00760 G01 X8.2257  Y4.7012  
N00770 G01 X8.0636  Y4.6186  
N00780 G01 X7.8906  Y4.5624  
N00790 G01 X7.7110  Y4.5339  
N00800 G01 X7.5290  Y4.5339  
N00810 G01 X7.3494  Y4.5624  
N00820 G01 X7.1764  Y4.6186  
N00830 G01 X7.0143  Y4.7012  
N00840 G01 X6.8671  Y4.8081  
N00850 G01 X6.7385  Y4.9367  
N00860 G00 Z3.0000  
N00870 G00 X9.2785  Y4.9367  
N00880 G01 Z-0.0800 F254   
N00890 G01 X9.1716  Y5.0839  F508   
N00900 G01 X9.0890  Y5.2460  
N00910 G01 X9.0328  Y5.4190  
N00920 G01 X9.0043  Y5.5986  
N00930 G01 X9.0043  Y7.1014  
N00940 G01 X9.0328  Y7.2810  
N00950 G01 X9.0890  Y7.4540  
N00960 G01 X9.1716  Y7.6161  
N00970 G01 X9.2785  Y7.7633  
N00980 G01 X9.4071  Y7.8919  
N00990 G01 X9.5543  Y7.9988  
N01000 G01 X9.7164  Y8.0814  
N01010 G01 X9.8894  Y8.1376  
N01020 G01 X10.0690 Y8.1661  
N01030 G01 X10.2510 Y8.1661  
N01040 G01 X10.4306 Y8.1376  
N01050 G01 X10.6036 Y8.0814  
N01060 G01 X10.7657 Y7.9988  
N01070 G01 X10.9129 Y7.8919  
N01080 G01 X11.0415 Y7.7633  
N01090 G01 X11.1484 Y7.6161  
N01100 G01 X11.2310 Y7.4540  
N01110 G01 X11.2872 Y7.2810  
N01120 G01 X11.3157 Y7.1014  
N01130 G01 X11.3157 Y5.5986  
N01140 G01 X11.2872 Y5.4190  
N01150 G01 X11.2310 Y5.2460  
N01160 G01 X11.1484 Y5.0839  
N01170 G01 X11.0415 Y4.9367  
N01180 G01 X10.9129 Y4.8081  
N01190 G01 X10.7657 Y4.7012  
N01200 G01 X10.6036 Y4.6186  
N01210 G01 X10.4306 Y4.5624  
N01220 G01 X10.2510 Y4.5339  
N01230 G01 X10.0690 Y4.5339  
N01240 G01 X9.8894  Y4.5624  
N01250 G01 X9.7164  Y4.6186  
N01260 G01 X9.5543  Y4.7012  
N01270 G01 X9.4071  Y4.8081  
N01280 G01 X9.2785  Y4.9367  
N00000 G00 Z3.0000  
N00010 G00 X4.1016  Y4.8540  
N00020 G01 Z-0.0800 F254   
N00030 G01 X3.9829  Y5.0173  F508   
N00040 G01 X3.8913  Y5.1972  
N00050 G01 X3.8289  Y5.3892  
N00060 G01 X3.7973  Y5.5886  
N00070 G01 X3.7973  Y7.1113  
N00080 G01 X3.8289  Y7.3108  
N00090 G01 X3.8913  Y7.5028  
N00100 G01 X3.9829  Y7.6827  
N00110 G01 X4.1016  Y7.8460  
N00120 G01 X4.2444  Y7.9888  
N00130 G01 X4.4077  Y8.1075  
N00140 G01 X4.5876  Y8.1991  
N00150 G01 X4.7796  Y8.2615  
N00160 G01 X4.9790  Y8.2931  
N00170 G01 X5.1810  Y8.2931  
N00180 G01 X5.3804  Y8.2615  
N00190 G01 X5.5724  Y8.1991  
N00200 G01 X5.7523  Y8.1075  
N00210 G01 X5.9156  Y7.9888  
N00220 G01 X6.0584  Y7.8460  
N00230 G01 X6.1771  Y7.6827  
N00240 G01 X6.2687  Y7.5028  
N00250 G01 X6.3311  Y7.3108  
N00260 G01 X6.3500  Y7.1915  
N00270 G01 X6.3689  Y7.3108  
N00280 G01 X6.4313  Y7.5028  
N00290 G01 X6.5229  Y7.6827  
N00300 G01 X6.6416  Y7.8460  
N00310 G01 X6.7844  Y7.9888  
N00320 G01 X6.9477  Y8.1075  
N00330 G01 X7.1276  Y8.1991  
N00340 G01 X7.3196  Y8.2615  
N00350 G01 X7.5190  Y8.2931  
N00360 G01 X7.7210  Y8.2931  
N00370 G01 X7.9204  Y8.2615  
N00380 G01 X8.1124  Y8.1991  
N00390 G01 X8.2923  Y8.1075  
N00400 G01 X8.4556  Y7.9888  
N00410 G01 X8.5984  Y7.8460  
N00420 G01 X8.7171  Y7.6827  
N00430 G01 X8.8087  Y7.5028  
N00440 G01 X8.8711  Y7.3108  
N00450 G01 X8.8900  Y7.1915  
N00460 G01 X8.9089  Y7.3108  
N00470 G01 X8.9713  Y7.5028  
N00480 G01 X9.0629  Y7.6827  
N00490 G01 X9.1816  Y7.8460  
N00500 G01 X9.3244  Y7.9888  
N00510 G01 X9.4877  Y8.1075  
N00520 G01 X9.6676  Y8.1991  
N00530 G01 X9.8596  Y8.2615  
N00540 G01 X10.0590 Y8.2931  
N00550 G01 X10.2609 Y8.2931  
N00560 G01 X10.4604 Y8.2615  
N00570 G01 X10.6524 Y8.1991  
N00580 G01 X10.8323 Y8.1075  
N00590 G01 X10.9956 Y7.9888  
N00600 G01 X11.1384 Y7.8460  
N00610 G01 X11.2571 Y7.6827  
N00620 G01 X11.3487 Y7.5028  
N00630 G01 X11.4111 Y7.3108  
N00640 G01 X11.4427 Y7.1113  
N00650 G01 X11.4427 Y5.5886  
N00660 G01 X11.4111 Y5.3892  
N00670 G01 X11.3487 Y5.1972  
N00680 G01 X11.2571 Y5.0173  
N00690 G01 X11.1384 Y4.8540  
N00700 G01 X10.9956 Y4.7112  
N00710 G01 X10.8323 Y4.5925  
N00720 G01 X10.6524 Y4.5009  
N00730 G01 X10.4604 Y4.4385  
N00740 G01 X10.2609 Y4.4069  
N00750 G01 X10.0590 Y4.4069  
N00760 G01 X9.8596  Y4.4385  
N00770 G01 X9.6676  Y4.5009  
N00780 G01 X9.4877  Y4.5925  
N00790 G01 X9.3244  Y4.7112  
N00800 G01 X9.1816  Y4.8540  
N00810 G01 X9.0629  Y5.0173  
N00820 G01 X8.9713  Y5.1972  
N00830 G01 X8.9089  Y5.3892  
N00840 G01 X8.8900  Y5.5085  
N00850 G01 X8.8711  Y5.3892  
N00860 G01 X8.8087  Y5.1972  
N00870 G01 X8.7171  Y5.0173  
N00880 G01 X8.5984  Y4.8540  
N00890 G01 X8.4556  Y4.7112  
N00900 G01 X8.2923  Y4.5925  
N00910 G01 X8.1124  Y4.5009  
N00920 G01 X7.9204  Y4.4385  
N00930 G01 X7.7210  Y4.4069  
N00940 G01 X7.5190  Y4.4069  
N00950 G01 X7.3196  Y4.4385  
N00960 G01 X7.1276  Y4.5009  
N00970 G01 X6.9477  Y4.5925  
N00980 G01 X6.7844  Y4.7112  
N00990 G01 X6.6416  Y4.8540  
N01000 G01 X6.5229  Y5.0173  
N01010 G01 X6.4313  Y5.1972  
N01020 G01 X6.3689  Y5.3892  
N01030 G01 X6.3500  Y5.5085  
N01040 G01 X6.3311  Y5.3892  
N01050 G01 X6.2687  Y5.1972  
N01060 G01 X6.1771  Y5.0173  
N01070 G01 X6.0584  Y4.8540  
N01080 G01 X5.9156  Y4.7112  
N01090 G01 X5.7523  Y4.5925  
N01100 G01 X5.5724  Y4.5009  
N01110 G01 X5.3804  Y4.4385  
N01120 G01 X5.1810  Y4.4069  
N01130 G01 X4.9790  Y4.4069  
N01140 G01 X4.7796  Y4.4385  
N01150 G01 X4.5876  Y4.5009  
N01160 G01 X4.4077  Y4.5925  
N01170 G01 X4.2444  Y4.7112  
N01180 G01 X4.1016  Y4.8540  
N01190 G00 Z3.0000  
N01200 G00 X7.6200  Y6.3500  
N01210 G01 Z-1.3970 F508   
N01220 G00 Z3.0000  
N01230 G00 X10.1600 Y6.3500  
N01240 G01 Z-1.3970 F508   
N01250 G00 Z3.0000  
N01260 G00 X5.0800  Y6.3500  
N01270 G01 Z-1.3970 F508   
N01280 G00 Z3.0000  
N01290 G00 Z12.0000 
N01300 M05
N01310 M02
