N00000 (.../pcb-gcode-3.6.2.4/pcb-gcode.ulp)
N00010 (Copyright 2005 - 2012 by John Johnson)
N00020 (See readme.txt for licensing terms.)
N00030 (This file generated from the board:)
N00040 (.../Q-Berry2/BreakOut/12 pin sop.brd)
N00050 (Current profile is .../pcb-gcode-3.6.2.4/profiles/mach.pp  )
N00060 (This file generated 4/12/2015 5:20:52 PM)
N00070 (Settings from pcb-machine.h)
N00080 (spindle on time = 3.0000)
N00090 (spindle speed = 20000.0000)
N00100 (tool change at 0.0000  0.0000  25.4000 )
N00110 (feed rate xy = F0     )
N00120 (feed rate z  = F508   )
N00130 (Z Axis Settings)
N00140 (  High     Up        Down     Drill)
N00150 (12.0000 	3.0000  	-0.0800 	-2.5000 )
N00160 (Settings from pcb-defaults.h)
N00170 (isolate min = 0.0254)
N00180 (isolate max = 0.5080)
N00190 (isolate step = 0.1270)
N00200 (Generated top outlines, top drill, bottom outlines, bottom drill, )
N00210 (Unit of measure: mm)
N00220 ( Tool|       Size       |  Min Sub |  Max Sub |   Count )
N00230 ( T01 | 0.813mm 0.0320in | 0.0000in | 0.0000in |       0 )
N00240 (Metric Mode)
N00250 G21
N00260 (Absolute Coordinates)
N00270 G90
N00280 S20000
N00290 G00 Z12.0000 
N00300 G00 X0.0000  Y0.0000  
N00310 M03
N00320 G04 P3.000000
N00330 M05
N00340 G00 Z25.4000 
N00350 M06 T01  ; 0.8128  
N00360 G01 Z0.0000  F508   
N00370 M06 
N00380 G00 Z3.0000  
N00390 M03
N00400 G04 P3.000000
N00410 G00 X5.0800  Y6.3500  
N00420 G01 Z-2.5000 F508   
N00430 G00 Z3.0000  
N00440 G00 X7.6200  Y6.3500  
N00450 G01 Z-2.5000 F508   
N00460 G00 Z3.0000  
N00470 G00 X10.1600 Y6.3500  
N00480 G01 Z-2.5000 F508   
N00490 G00 Z3.0000  
N00500 T01 
N00510 G00 Z12.0000 
N00520 M05
N00530 M02
