N00000 (.../pcb-gcode-3.6.2.4/pcb-gcode.ulp)
N00010 (Copyright 2005 - 2012 by John Johnson)
N00020 (See readme.txt for licensing terms.)
N00030 (This file generated from the board:)
N00040 (.../Q-Berry2/BreakOut/14 pin sop.brd)
N00050 (Current profile is .../pcb-gcode-3.6.2.4/profiles/mach.pp  )
N00060 (This file generated 4/12/2015 7:53:02 PM)
N00070 (Settings from pcb-machine.h)
N00080 (spindle on time = 3.0000)
N00090 (spindle speed = 20000.0000)
N00100 (tool change at 0.0000  0.0000  25.4000 )
N00110 (feed rate xy = F0     )
N00120 (feed rate z  = F508   )
N00130 (Z Axis Settings)
N00140 (  High     Up        Down     Drill)
N00150 (12.0000 	3.0000  	-0.0800 	-2.5400 )
N00160 (Settings from pcb-defaults.h)
N00170 (isolate min = 0.0254)
N00180 (isolate max = 0.5080)
N00190 (isolate step = 0.1270)
N00200 (Generated top outlines, top drill, bottom outlines, bottom drill, )
N00210 (Unit of measure: mm)
N00220 ( Tool|       Size       |  Min Sub |  Max Sub |   Count )
N00230 ( T01 | 0.813mm 0.0320in | 0.0000in | 0.0000in |       0 )
N00240 ( T02 | 1.000mm 0.0394in | 0.0000in | 0.0000in |       0 )
N00250 ( T03 | 3.200mm 0.1260in | 0.0000in | 0.0000in |       0 )
N00260 (Metric Mode)
N00270 G21
N00280 (Absolute Coordinates)
N00290 G90
N00300 S20000
N00310 G00 Z12.0000 
N00320 G00 X0.0000  Y0.0000  
N00330 M03
N00340 G04 P3.000000
N00350 M05
N00360 G00 Z25.4000 
N00370 M06 T01  ; 0.8128  
N00380 G01 Z0.0000  F508   
N00390 M06 
N00400 G00 Z3.0000  
N00410 M03
N00420 G04 P3.000000
N00430 G00 X58.4200 Y17.7800 
N00440 G01 Z-2.5400 F508   
N00450 G00 Z3.0000  
N00460 G00 X60.9600 Y17.7800 
N00470 G01 Z-2.5400 F508   
N00480 G00 Z3.0000  
N00490 G00 X60.9600 Y25.4000 
N00500 G01 Z-2.5400 F508   
N00510 G00 Z3.0000  
N00520 G00 X58.4200 Y25.4000 
N00530 G01 Z-2.5400 F508   
N00540 G00 Z3.0000  
N00550 G00 X59.6900 Y6.3500  
N00560 G01 Z-2.5400 F508   
N00570 G00 Z3.0000  
N00580 G00 X60.9600 Y4.4450  
N00590 G01 Z-2.5400 F508   
N00600 G00 Z3.0000  
N00610 G00 X62.2300 Y6.3500  
N00620 G01 Z-2.5400 F508   
N00630 G00 Z3.0000  
N00640 M05
N00650 G00 Z25.4000 
N00660 G00 X0.0000  Y0.0000  
N00670 M06 T02  ; 1.0000  
N00680 G01 Z0.0000  F508   
N00690 M06 
N00700 G00 Z3.0000  
N00710 M03
N00720 G04 P3.000000
N00730 G00 X7.6200  Y13.9700 
N00740 G01 Z-2.5400 F508   
N00750 G00 Z3.0000  
N00760 G00 X10.1600 Y13.9700 
N00770 G01 Z-2.5400 F508   
N00780 G00 Z3.0000  
N00790 G00 X12.7000 Y13.9700 
N00800 G01 Z-2.5400 F508   
N00810 G00 Z3.0000  
N00820 G00 X21.5900 Y6.3500  
N00830 G01 Z-2.5400 F508   
N00840 G00 Z3.0000  
N00850 G00 X24.1300 Y6.3500  
N00860 G01 Z-2.5400 F508   
N00870 G00 Z3.0000  
N00880 G00 X26.6700 Y6.3500  
N00890 G01 Z-2.5400 F508   
N00900 G00 Z3.0000  
N00910 G00 X29.2100 Y6.3500  
N00920 G01 Z-2.5400 F508   
N00930 G00 Z3.0000  
N00940 G00 X31.7500 Y6.3500  
N00950 G01 Z-2.5400 F508   
N00960 G00 Z3.0000  
N00970 G00 X34.2900 Y6.3500  
N00980 G01 Z-2.5400 F508   
N00990 G00 Z3.0000  
N01000 G00 X36.8300 Y6.3500  
N01010 G01 Z-2.5400 F508   
N01020 G00 Z3.0000  
N01030 G00 X52.0700 Y6.3500  
N01040 G01 Z-2.5400 F508   
N01050 G00 Z3.0000  
N01060 G00 X52.0700 Y8.8900  
N01070 G01 Z-2.5400 F508   
N01080 G00 Z3.0000  
N01090 G00 X52.0700 Y11.4300 
N01100 G01 Z-2.5400 F508   
N01110 G00 Z3.0000  
N01120 G00 X36.8300 Y26.6700 
N01130 G01 Z-2.5400 F508   
N01140 G00 Z3.0000  
N01150 G00 X34.2900 Y26.6700 
N01160 G01 Z-2.5400 F508   
N01170 G00 Z3.0000  
N01180 G00 X31.7500 Y26.6700 
N01190 G01 Z-2.5400 F508   
N01200 G00 Z3.0000  
N01210 G00 X29.2100 Y26.6700 
N01220 G01 Z-2.5400 F508   
N01230 G00 Z3.0000  
N01240 G00 X26.6700 Y26.6700 
N01250 G01 Z-2.5400 F508   
N01260 G00 Z3.0000  
N01270 G00 X24.1300 Y26.6700 
N01280 G01 Z-2.5400 F508   
N01290 G00 Z3.0000  
N01300 G00 X21.5900 Y26.6700 
N01310 G01 Z-2.5400 F508   
N01320 G00 Z3.0000  
N01330 M05
N01340 G00 Z25.4000 
N01350 G00 X0.0000  Y0.0000  
N01360 M06 T03  ; 3.2000  
N01370 G01 Z0.0000  F508   
N01380 M06 
N01390 G00 Z3.0000  
N01400 M03
N01410 G04 P3.000000
N01420 G00 X20.3200 Y16.5100 
N01430 G01 Z-2.5400 F508   
N01440 G00 Z3.0000  
N01450 G00 X36.8300 Y16.5100 
N01460 G01 Z-2.5400 F508   
N01470 G00 Z3.0000  
N01480 G00 X52.0700 Y26.6700 
N01490 G01 Z-2.5400 F508   
N01500 G00 Z3.0000  
N01510 G00 X67.3100 Y6.3500  
N01520 G01 Z-2.5400 F508   
N01530 G00 Z3.0000  
N01540 T01 
N01550 G00 Z12.0000 
N01560 M05
N01570 M02
