N00000 (.../pcb-gcode-3.6.2.4/pcb-gcode.ulp)
N00010 (Copyright 2005 - 2012 by John Johnson)
N00020 (See readme.txt for licensing terms.)
N00030 (This file generated from the board:)
N00040 (.../Q-Berry2/BreakOut/14 pin sop.brd)
N00050 (Current profile is .../pcb-gcode-3.6.2.4/profiles/mach.pp  )
N00060 (This file generated 4/12/2015 7:52:55 PM)
N00070 (Settings from pcb-machine.h)
N00080 (spindle on time = 3.0000)
N00090 (  Tool Size)
N00100 (0.1778  )
N00110 (spindle speed = 30000.0000)
N00120 (tool change at 0.0000  0.0000  25.4000 )
N00130 (feed rate xy = F508   )
N00140 (feed rate z  = F254   )
N00150 (Z Axis Settings)
N00160 (  High     Up        Down     Drill)
N00170 (12.0000 	3.0000  	-0.0800 	-2.5400 )
N00180 (Settings from pcb-defaults.h)
N00190 (isolate min = 0.0254)
N00200 (isolate max = 0.5080)
N00210 (isolate step = 0.1270)
N00220 (Generated top outlines, top drill, bottom outlines, bottom drill, )
N00230 (Unit of measure: mm)
N00240 (Metric Mode)
N00250 G21
N00260 (Absolute Coordinates)
N00270 G90
N00280 S30000
N00290 G00 Z12.0000 
N00300 G00 X0.0000  Y0.0000  
N00310 M03
N00320 G04 P3.000000
N00330 G00 Z3.0000  
N00340 G00 X-7.1137 Y12.4584 
N00350 G01 Z-0.0800 F254   
N00360 G01 X-6.8624 Y12.7097 F508   
N00370 G01 X-6.7263 Y13.0382 
N00380 G01 X-6.7263 Y14.9018 
N00390 G01 X-6.8624 Y15.2302 
N00400 G01 X-7.1137 Y15.4816 
N00410 G01 X-7.4422 Y15.6177 
N00420 G01 X-7.7978 Y15.6177 
N00430 G01 X-8.1262 Y15.4816 
N00440 G01 X-8.3776 Y15.2302 
N00450 G01 X-8.5137 Y14.9018 
N00460 G01 X-8.5137 Y13.0382 
N00470 G01 X-8.3776 Y12.7097 
N00480 G01 X-8.1262 Y12.4584 
N00490 G01 X-7.7978 Y12.3223 
N00500 G01 X-7.4422 Y12.3223 
N00510 G01 X-7.1137 Y12.4584 
N00520 G00 Z3.0000  
N00530 G00 X-7.2087 Y12.4465 
N00540 G01 Z-0.0800 F254   
N00550 G01 X-7.3667 Y12.3811 F508   
N00560 G01 X-7.5345 Y12.3477 
N00570 G01 X-7.7055 Y12.3477 
N00580 G01 X-7.8733 Y12.3811 
N00590 G01 X-8.0313 Y12.4465 
N00600 G01 X-8.1735 Y12.5415 
N00610 G01 X-8.2944 Y12.6625 
N00620 G01 X-8.3895 Y12.8047 
N00630 G01 X-8.4549 Y12.9627 
N00640 G01 X-8.4883 Y13.1305 
N00650 G01 X-8.4883 Y14.8095 
N00660 G01 X-8.4549 Y14.9773 
N00670 G01 X-8.3895 Y15.1353 
N00680 G01 X-8.2944 Y15.2775 
N00690 G01 X-8.1735 Y15.3985 
N00700 G01 X-8.0313 Y15.4935 
N00710 G01 X-7.8733 Y15.5589 
N00720 G01 X-7.7055 Y15.5923 
N00730 G01 X-7.5345 Y15.5923 
N00740 G01 X-7.3667 Y15.5589 
N00750 G01 X-7.2087 Y15.4935 
N00760 G01 X-7.0665 Y15.3985 
N00770 G01 X-6.9455 Y15.2775 
N00780 G01 X-6.8505 Y15.1353 
N00790 G01 X-6.7851 Y14.9773 
N00800 G01 X-6.7517 Y14.8095 
N00810 G01 X-6.7517 Y13.1305 
N00820 G01 X-6.7851 Y12.9627 
N00830 G01 X-6.8505 Y12.8047 
N00840 G01 X-6.9455 Y12.6625 
N00850 G01 X-7.0665 Y12.5415 
N00860 G01 X-7.2087 Y12.4465 
N00870 G00 Z3.0000  
N00880 G00 X-9.6538 Y12.4584 
N00890 G01 Z-0.0800 F254   
N00900 G01 X-9.4024 Y12.7097 F508   
N00910 G01 X-9.2663 Y13.0382 
N00920 G01 X-9.2663 Y14.9018 
N00930 G01 X-9.4024 Y15.2302 
N00940 G01 X-9.6538 Y15.4816 
N00950 G01 X-9.9822 Y15.6177 
N00960 G01 X-10.3378 Y15.6177 
N00970 G01 X-10.6662 Y15.4816 
N00980 G01 X-10.9176 Y15.2302 
N00990 G01 X-11.0537 Y14.9018 
N01000 G01 X-11.0537 Y13.0382 
N01010 G01 X-10.9176 Y12.7097 
N01020 G01 X-10.6662 Y12.4584 
N01030 G01 X-10.3378 Y12.3223 
N01040 G01 X-9.9822 Y12.3223 
N01050 G01 X-9.6538 Y12.4584 
N01060 G00 Z3.0000  
N01070 G00 X-9.7487 Y12.4465 
N01080 G01 Z-0.0800 F254   
N01090 G01 X-9.9067 Y12.3811 F508   
N01100 G01 X-10.0745 Y12.3477 
N01110 G01 X-10.2455 Y12.3477 
N01120 G01 X-10.4133 Y12.3811 
N01130 G01 X-10.5713 Y12.4465 
N01140 G01 X-10.7135 Y12.5415 
N01150 G01 X-10.8345 Y12.6625 
N01160 G01 X-10.9295 Y12.8047 
N01170 G01 X-10.9949 Y12.9627 
N01180 G01 X-11.0283 Y13.1305 
N01190 G01 X-11.0283 Y14.8095 
N01200 G01 X-10.9949 Y14.9773 
N01210 G01 X-10.9295 Y15.1353 
N01220 G01 X-10.8345 Y15.2775 
N01230 G01 X-10.7135 Y15.3985 
N01240 G01 X-10.5713 Y15.4935 
N01250 G01 X-10.4133 Y15.5589 
N01260 G01 X-10.2455 Y15.5923 
N01270 G01 X-10.0745 Y15.5923 
N01280 G01 X-9.9067 Y15.5589 
N01290 G01 X-9.7487 Y15.4935 
N01300 G01 X-9.6065 Y15.3985 
N01310 G01 X-9.4855 Y15.2775 
N01320 G01 X-9.3905 Y15.1353 
N01330 G01 X-9.3251 Y14.9773 
N01340 G01 X-9.2917 Y14.8095 
N01350 G01 X-9.2917 Y13.1305 
N01360 G01 X-9.3251 Y12.9627 
N01370 G01 X-9.3905 Y12.8047 
N01380 G01 X-9.4855 Y12.6625 
N01390 G01 X-9.6065 Y12.5415 
N01400 G01 X-9.7487 Y12.4465 
N01410 G00 Z3.0000  
N01420 G00 X-12.1937 Y12.4584 
N01430 G01 Z-0.0800 F254   
N01440 G01 X-11.9424 Y12.7097 F508   
N01450 G01 X-11.8063 Y13.0382 
N01460 G01 X-11.8063 Y14.9018 
N01470 G01 X-11.9424 Y15.2302 
N01480 G01 X-12.1937 Y15.4816 
N01490 G01 X-12.5222 Y15.6177 
N01500 G01 X-12.8778 Y15.6177 
N01510 G01 X-13.2062 Y15.4816 
N01520 G01 X-13.4576 Y15.2302 
N01530 G01 X-13.5937 Y14.9018 
N01540 G01 X-13.5937 Y13.0382 
N01550 G01 X-13.4576 Y12.7097 
N01560 G01 X-13.2062 Y12.4584 
N01570 G01 X-12.8778 Y12.3223 
N01580 G01 X-12.5222 Y12.3223 
N01590 G01 X-12.1937 Y12.4584 
N01600 G00 Z3.0000  
N01610 G00 X-12.2887 Y12.4465 
N01620 G01 Z-0.0800 F254   
N01630 G01 X-12.4467 Y12.3811 F508   
N01640 G01 X-12.6145 Y12.3477 
N01650 G01 X-12.7855 Y12.3477 
N01660 G01 X-12.9533 Y12.3811 
N01670 G01 X-13.1113 Y12.4465 
N01680 G01 X-13.2535 Y12.5415 
N01690 G01 X-13.3744 Y12.6625 
N01700 G01 X-13.4695 Y12.8047 
N01710 G01 X-13.5349 Y12.9627 
N01720 G01 X-13.5683 Y13.1305 
N01730 G01 X-13.5683 Y14.8095 
N01740 G01 X-13.5349 Y14.9773 
N01750 G01 X-13.4695 Y15.1353 
N01760 G01 X-13.3744 Y15.2775 
N01770 G01 X-13.2535 Y15.3985 
N01780 G01 X-13.1113 Y15.4935 
N01790 G01 X-12.9533 Y15.5589 
N01800 G01 X-12.7855 Y15.5923 
N01810 G01 X-12.6145 Y15.5923 
N01820 G01 X-12.4467 Y15.5589 
N01830 G01 X-12.2887 Y15.4935 
N01840 G01 X-12.1465 Y15.3985 
N01850 G01 X-12.0255 Y15.2775 
N01860 G01 X-11.9305 Y15.1353 
N01870 G01 X-11.8651 Y14.9773 
N01880 G01 X-11.8317 Y14.8095 
N01890 G01 X-11.8317 Y13.1305 
N01900 G01 X-11.8651 Y12.9627 
N01910 G01 X-11.9305 Y12.8047 
N01920 G01 X-12.0255 Y12.6625 
N01930 G01 X-12.1465 Y12.5415 
N01940 G01 X-12.2887 Y12.4465 
N01950 G00 Z3.0000  
N01960 G00 X-18.7839 Y14.5081 
N01970 G01 Z-0.0800 F254   
N01980 G01 X-18.3181 Y14.9739 F508   
N01990 G01 X-17.9888 Y15.5444 
N02000 G01 X-17.8183 Y16.1806 
N02010 G01 X-17.8183 Y16.8394 
N02020 G01 X-17.9888 Y17.4756 
N02030 G01 X-18.3181 Y18.0461 
N02040 G01 X-18.7839 Y18.5119 
N02050 G01 X-19.3544 Y18.8412 
N02060 G01 X-19.9906 Y19.0117 
N02070 G01 X-20.6494 Y19.0117 
N02080 G01 X-21.2856 Y18.8412 
N02090 G01 X-21.8561 Y18.5119 
N02100 G01 X-22.3219 Y18.0461 
N02110 G01 X-22.6512 Y17.4756 
N02120 G01 X-22.8217 Y16.8394 
N02130 G01 X-22.8217 Y16.1806 
N02140 G01 X-22.6512 Y15.5444 
N02150 G01 X-22.3219 Y14.9739 
N02160 G01 X-21.8561 Y14.5081 
N02170 G01 X-21.2856 Y14.1788 
N02180 G01 X-20.6494 Y14.0083 
N02190 G01 X-19.9906 Y14.0083 
N02200 G01 X-19.3544 Y14.1788 
N02210 G01 X-18.7839 Y14.5081 
N02220 G00 Z3.0000  
N02230 G00 X-21.0837 Y7.8616  
N02240 G01 Z-0.0800 F254   
N02250 G01 X-21.4122 Y7.9977  F508   
N02260 G01 X-21.7678 Y7.9977  
N02270 G01 X-22.0962 Y7.8616  
N02280 G01 X-22.3476 Y7.6102  
N02290 G01 X-22.4837 Y7.2818  
N02300 G01 X-22.4837 Y5.4182  
N02310 G01 X-22.3476 Y5.0898  
N02320 G01 X-22.0962 Y4.8384  
N02330 G01 X-21.7678 Y4.7023  
N02340 G01 X-21.4122 Y4.7023  
N02350 G01 X-21.0837 Y4.8384  
N02360 G01 X-20.8324 Y5.0897  
N02370 G01 X-20.6963 Y5.4182  
N02380 G01 X-20.6963 Y7.2818  
N02390 G01 X-20.8324 Y7.6102  
N02400 G01 X-21.0837 Y7.8616  
N02410 G00 Z3.0000  
N02420 G00 X-21.1787 Y7.8735  
N02430 G01 Z-0.0800 F254   
N02440 G01 X-21.0365 Y7.7785  F508   
N02450 G01 X-20.9155 Y7.6575  
N02460 G01 X-20.8205 Y7.5153  
N02470 G01 X-20.7551 Y7.3573  
N02480 G01 X-20.7217 Y7.1895  
N02490 G01 X-20.7217 Y5.5105  
N02500 G01 X-20.7551 Y5.3427  
N02510 G01 X-20.8205 Y5.1847  
N02520 G01 X-20.9155 Y5.0425  
N02530 G01 X-21.0365 Y4.9215  
N02540 G01 X-21.1787 Y4.8265  
N02550 G01 X-21.3367 Y4.7611  
N02560 G01 X-21.5045 Y4.7277  
N02570 G01 X-21.6755 Y4.7277  
N02580 G01 X-21.8433 Y4.7611  
N02590 G01 X-22.0013 Y4.8265  
N02600 G01 X-22.1435 Y4.9215  
N02610 G01 X-22.2645 Y5.0425  
N02620 G01 X-22.3595 Y5.1847  
N02630 G01 X-22.4249 Y5.3427  
N02640 G01 X-22.4583 Y5.5105  
N02650 G01 X-22.4583 Y7.1895  
N02660 G01 X-22.4249 Y7.3573  
N02670 G01 X-22.3595 Y7.5153  
N02680 G01 X-22.2645 Y7.6575  
N02690 G01 X-22.1435 Y7.7785  
N02700 G01 X-22.0013 Y7.8735  
N02710 G01 X-21.8433 Y7.9389  
N02720 G01 X-21.6755 Y7.9723  
N02730 G01 X-21.5045 Y7.9723  
N02740 G01 X-21.3367 Y7.9389  
N02750 G01 X-21.1787 Y7.8735  
N02760 G00 Z3.0000  
N02770 G00 X-23.3724 Y7.6102  
N02780 G01 Z-0.0800 F254   
N02790 G01 X-23.6238 Y7.8616  F508   
N02800 G01 X-23.9522 Y7.9977  
N02810 G01 X-24.3078 Y7.9977  
N02820 G01 X-24.6362 Y7.8616  
N02830 G01 X-24.8876 Y7.6102  
N02840 G01 X-25.0237 Y7.2818  
N02850 G01 X-25.0237 Y5.4182  
N02860 G01 X-24.8876 Y5.0898  
N02870 G01 X-24.6362 Y4.8384  
N02880 G01 X-24.3078 Y4.7023  
N02890 G01 X-23.9522 Y4.7023  
N02900 G01 X-23.6238 Y4.8384  
N02910 G01 X-23.3724 Y5.0898  
N02920 G01 X-23.2363 Y5.4182  
N02930 G01 X-23.2363 Y7.2818  
N02940 G01 X-23.3724 Y7.6102  
N02950 G00 Z3.0000  
N02960 G00 X-23.3605 Y7.5153  
N02970 G01 Z-0.0800 F254   
N02980 G01 X-23.2951 Y7.3573  F508   
N02990 G01 X-23.2617 Y7.1895  
N03000 G01 X-23.2617 Y5.5105  
N03010 G01 X-23.2951 Y5.3427  
N03020 G01 X-23.3605 Y5.1847  
N03030 G01 X-23.4555 Y5.0425  
N03040 G01 X-23.5765 Y4.9215  
N03050 G01 X-23.7187 Y4.8265  
N03060 G01 X-23.8767 Y4.7611  
N03070 G01 X-24.0445 Y4.7277  
N03080 G01 X-24.2155 Y4.7277  
N03090 G01 X-24.3833 Y4.7611  
N03100 G01 X-24.5413 Y4.8265  
N03110 G01 X-24.6835 Y4.9215  
N03120 G01 X-24.8044 Y5.0425  
N03130 G01 X-24.8995 Y5.1847  
N03140 G01 X-24.9649 Y5.3427  
N03150 G01 X-24.9983 Y5.5105  
N03160 G01 X-24.9983 Y7.1895  
N03170 G01 X-24.9649 Y7.3573  
N03180 G01 X-24.8995 Y7.5153  
N03190 G01 X-24.8044 Y7.6575  
N03200 G01 X-24.6835 Y7.7785  
N03210 G01 X-24.5413 Y7.8735  
N03220 G01 X-24.3833 Y7.9389  
N03230 G01 X-24.2155 Y7.9723  
N03240 G01 X-24.0445 Y7.9723  
N03250 G01 X-23.8767 Y7.9389  
N03260 G01 X-23.7187 Y7.8735  
N03270 G01 X-23.5765 Y7.7785  
N03280 G01 X-23.4555 Y7.6575  
N03290 G01 X-23.3605 Y7.5153  
N03300 G00 Z3.0000  
N03310 G00 X-25.9005 Y7.5153  
N03320 G01 Z-0.0800 F254   
N03330 G01 X-25.8351 Y7.3573  F508   
N03340 G01 X-25.8017 Y7.1895  
N03350 G01 X-25.8017 Y5.5105  
N03360 G01 X-25.8351 Y5.3427  
N03370 G01 X-25.9005 Y5.1847  
N03380 G01 X-25.9955 Y5.0425  
N03390 G01 X-26.1165 Y4.9215  
N03400 G01 X-26.2587 Y4.8265  
N03410 G01 X-26.4167 Y4.7611  
N03420 G01 X-26.5845 Y4.7277  
N03430 G01 X-26.7555 Y4.7277  
N03440 G01 X-26.9233 Y4.7611  
N03450 G01 X-27.0813 Y4.8265  
N03460 G01 X-27.2235 Y4.9215  
N03470 G01 X-27.3444 Y5.0425  
N03480 G01 X-27.4395 Y5.1847  
N03490 G01 X-27.5049 Y5.3427  
N03500 G01 X-27.5383 Y5.5105  
N03510 G01 X-27.5383 Y7.1895  
N03520 G01 X-27.5049 Y7.3573  
N03530 G01 X-27.4395 Y7.5153  
N03540 G01 X-27.3444 Y7.6575  
N03550 G01 X-27.2235 Y7.7785  
N03560 G01 X-27.0813 Y7.8735  
N03570 G01 X-26.9233 Y7.9389  
N03580 G01 X-26.7555 Y7.9723  
N03590 G01 X-26.5845 Y7.9723  
N03600 G01 X-26.4167 Y7.9389  
N03610 G01 X-26.2587 Y7.8735  
N03620 G01 X-26.1165 Y7.7785  
N03630 G01 X-25.9955 Y7.6575  
N03640 G01 X-25.9005 Y7.5153  
N03650 G00 Z3.0000  
N03660 G00 X-25.9124 Y7.6102  
N03670 G01 Z-0.0800 F254   
N03680 G01 X-26.1638 Y7.8616  F508   
N03690 G01 X-26.4922 Y7.9977  
N03700 G01 X-26.8478 Y7.9977  
N03710 G01 X-27.1762 Y7.8616  
N03720 G01 X-27.4276 Y7.6102  
N03730 G01 X-27.5637 Y7.2818  
N03740 G01 X-27.5637 Y5.4182  
N03750 G01 X-27.4276 Y5.0898  
N03760 G01 X-27.1762 Y4.8384  
N03770 G01 X-26.8478 Y4.7023  
N03780 G01 X-26.4922 Y4.7023  
N03790 G01 X-26.1638 Y4.8384  
N03800 G01 X-25.9124 Y5.0898  
N03810 G01 X-25.7763 Y5.4182  
N03820 G01 X-25.7763 Y7.2818  
N03830 G01 X-25.9124 Y7.6102  
N03840 G00 Z3.0000  
N03850 G00 X-28.4524 Y7.6102  
N03860 G01 Z-0.0800 F254   
N03870 G01 X-28.7037 Y7.8616  F508   
N03880 G01 X-29.0322 Y7.9977  
N03890 G01 X-29.3878 Y7.9977  
N03900 G01 X-29.7162 Y7.8616  
N03910 G01 X-29.9676 Y7.6102  
N03920 G01 X-30.1037 Y7.2818  
N03930 G01 X-30.1037 Y5.4182  
N03940 G01 X-29.9676 Y5.0898  
N03950 G01 X-29.7162 Y4.8384  
N03960 G01 X-29.3878 Y4.7023  
N03970 G01 X-29.0322 Y4.7023  
N03980 G01 X-28.7037 Y4.8384  
N03990 G01 X-28.4524 Y5.0898  
N04000 G01 X-28.3163 Y5.4182  
N04010 G01 X-28.3163 Y7.2818  
N04020 G01 X-28.4524 Y7.6102  
N04030 G00 Z3.0000  
N04040 G00 X-28.4405 Y7.5153  
N04050 G01 Z-0.0800 F254   
N04060 G01 X-28.3751 Y7.3573  F508   
N04070 G01 X-28.3417 Y7.1895  
N04080 G01 X-28.3417 Y5.5105  
N04090 G01 X-28.3751 Y5.3427  
N04100 G01 X-28.4405 Y5.1847  
N04110 G01 X-28.5355 Y5.0425  
N04120 G01 X-28.6565 Y4.9215  
N04130 G01 X-28.7987 Y4.8265  
N04140 G01 X-28.9567 Y4.7611  
N04150 G01 X-29.1245 Y4.7277  
N04160 G01 X-29.2955 Y4.7277  
N04170 G01 X-29.4633 Y4.7611  
N04180 G01 X-29.6213 Y4.8265  
N04190 G01 X-29.7635 Y4.9215  
N04200 G01 X-29.8845 Y5.0425  
N04210 G01 X-29.9795 Y5.1847  
N04220 G01 X-30.0449 Y5.3427  
N04230 G01 X-30.0783 Y5.5105  
N04240 G01 X-30.0783 Y7.1895  
N04250 G01 X-30.0449 Y7.3573  
N04260 G01 X-29.9795 Y7.5153  
N04270 G01 X-29.8845 Y7.6575  
N04280 G01 X-29.7635 Y7.7785  
N04290 G01 X-29.6213 Y7.8735  
N04300 G01 X-29.4633 Y7.9389  
N04310 G01 X-29.2955 Y7.9723  
N04320 G01 X-29.1245 Y7.9723  
N04330 G01 X-28.9567 Y7.9389  
N04340 G01 X-28.7987 Y7.8735  
N04350 G01 X-28.6565 Y7.7785  
N04360 G01 X-28.5355 Y7.6575  
N04370 G01 X-28.4405 Y7.5153  
N04380 G00 Z3.0000  
N04390 G00 X-30.9805 Y7.5153  
N04400 G01 Z-0.0800 F254   
N04410 G01 X-30.9151 Y7.3573  F508   
N04420 G01 X-30.8817 Y7.1895  
N04430 G01 X-30.8817 Y5.5105  
N04440 G01 X-30.9151 Y5.3427  
N04450 G01 X-30.9805 Y5.1847  
N04460 G01 X-31.0755 Y5.0425  
N04470 G01 X-31.1965 Y4.9215  
N04480 G01 X-31.3387 Y4.8265  
N04490 G01 X-31.4967 Y4.7611  
N04500 G01 X-31.6645 Y4.7277  
N04510 G01 X-31.8355 Y4.7277  
N04520 G01 X-32.0033 Y4.7611  
N04530 G01 X-32.1613 Y4.8265  
N04540 G01 X-32.3035 Y4.9215  
N04550 G01 X-32.4245 Y5.0425  
N04560 G01 X-32.5195 Y5.1847  
N04570 G01 X-32.5849 Y5.3427  
N04580 G01 X-32.6183 Y5.5105  
N04590 G01 X-32.6183 Y7.1895  
N04600 G01 X-32.5849 Y7.3573  
N04610 G01 X-32.5195 Y7.5153  
N04620 G01 X-32.4245 Y7.6575  
N04630 G01 X-32.3035 Y7.7785  
N04640 G01 X-32.1613 Y7.8735  
N04650 G01 X-32.0033 Y7.9389  
N04660 G01 X-31.8355 Y7.9723  
N04670 G01 X-31.6645 Y7.9723  
N04680 G01 X-31.4967 Y7.9389  
N04690 G01 X-31.3387 Y7.8735  
N04700 G01 X-31.1965 Y7.7785  
N04710 G01 X-31.0755 Y7.6575  
N04720 G01 X-30.9805 Y7.5153  
N04730 G00 Z3.0000  
N04740 G00 X-30.9924 Y7.6102  
N04750 G01 Z-0.0800 F254   
N04760 G01 X-31.2437 Y7.8616  F508   
N04770 G01 X-31.5722 Y7.9977  
N04780 G01 X-31.9278 Y7.9977  
N04790 G01 X-32.2562 Y7.8616  
N04800 G01 X-32.5076 Y7.6102  
N04810 G01 X-32.6437 Y7.2818  
N04820 G01 X-32.6437 Y5.4182  
N04830 G01 X-32.5076 Y5.0898  
N04840 G01 X-32.2562 Y4.8384  
N04850 G01 X-31.9278 Y4.7023  
N04860 G01 X-31.5722 Y4.7023  
N04870 G01 X-31.2437 Y4.8384  
N04880 G01 X-30.9924 Y5.0898  
N04890 G01 X-30.8563 Y5.4182  
N04900 G01 X-30.8563 Y7.2818  
N04910 G01 X-30.9924 Y7.6102  
N04920 G00 Z3.0000  
N04930 G00 X-33.5324 Y7.6102  
N04940 G01 Z-0.0800 F254   
N04950 G01 X-33.7837 Y7.8616  F508   
N04960 G01 X-34.1122 Y7.9977  
N04970 G01 X-34.4678 Y7.9977  
N04980 G01 X-34.7962 Y7.8616  
N04990 G01 X-35.0476 Y7.6102  
N05000 G01 X-35.1837 Y7.2818  
N05010 G01 X-35.1837 Y5.4182  
N05020 G01 X-35.0476 Y5.0898  
N05030 G01 X-34.7962 Y4.8384  
N05040 G01 X-34.4678 Y4.7023  
N05050 G01 X-34.1122 Y4.7023  
N05060 G01 X-33.7837 Y4.8384  
N05070 G01 X-33.5324 Y5.0898  
N05080 G01 X-33.3963 Y5.4182  
N05090 G01 X-33.3963 Y7.2818  
N05100 G01 X-33.5324 Y7.6102  
N05110 G00 Z3.0000  
N05120 G00 X-33.5205 Y7.5153  
N05130 G01 Z-0.0800 F254   
N05140 G01 X-33.4551 Y7.3573  F508   
N05150 G01 X-33.4217 Y7.1895  
N05160 G01 X-33.4217 Y5.5105  
N05170 G01 X-33.4551 Y5.3427  
N05180 G01 X-33.5205 Y5.1847  
N05190 G01 X-33.6155 Y5.0425  
N05200 G01 X-33.7365 Y4.9215  
N05210 G01 X-33.8787 Y4.8265  
N05220 G01 X-34.0367 Y4.7611  
N05230 G01 X-34.2045 Y4.7277  
N05240 G01 X-34.3755 Y4.7277  
N05250 G01 X-34.5433 Y4.7611  
N05260 G01 X-34.7013 Y4.8265  
N05270 G01 X-34.8435 Y4.9215  
N05280 G01 X-34.9644 Y5.0425  
N05290 G01 X-35.0595 Y5.1847  
N05300 G01 X-35.1249 Y5.3427  
N05310 G01 X-35.1583 Y5.5105  
N05320 G01 X-35.1583 Y7.1895  
N05330 G01 X-35.1249 Y7.3573  
N05340 G01 X-35.0595 Y7.5153  
N05350 G01 X-34.9644 Y7.6575  
N05360 G01 X-34.8435 Y7.7785  
N05370 G01 X-34.7013 Y7.8735  
N05380 G01 X-34.5433 Y7.9389  
N05390 G01 X-34.3755 Y7.9723  
N05400 G01 X-34.2045 Y7.9723  
N05410 G01 X-34.0367 Y7.9389  
N05420 G01 X-33.8787 Y7.8735  
N05430 G01 X-33.7365 Y7.7785  
N05440 G01 X-33.6155 Y7.6575  
N05450 G01 X-33.5205 Y7.5153  
N05460 G00 Z3.0000  
N05470 G00 X-36.0605 Y7.5153  
N05480 G01 Z-0.0800 F254   
N05490 G01 X-35.9951 Y7.3573  F508   
N05500 G01 X-35.9617 Y7.1895  
N05510 G01 X-35.9617 Y6.7143  
N05520 G01 X-35.9363 Y6.7143  
N05530 G01 X-35.9363 Y7.1743  
N05540 G01 X-35.9583 Y7.3133  
N05550 G01 X-36.0018 Y7.4471  
N05560 G01 X-36.0656 Y7.5724  
N05570 G01 X-36.1483 Y7.6862  
N05580 G01 X-36.2478 Y7.7857  
N05590 G01 X-36.3616 Y7.8684  
N05600 G01 X-36.4657 Y7.9214  
N05610 G01 X-36.4657 Y7.8929  
N05620 G01 X-36.4187 Y7.8735  
N05630 G01 X-36.2765 Y7.7785  
N05640 G01 X-36.1555 Y7.6575  
N05650 G01 X-36.0605 Y7.5153  
N05660 G00 Z3.0000  
N05670 G00 X-37.1943 Y7.8929  
N05680 G01 Z-0.0800 F254   
N05690 G01 X-37.1943 Y7.9214  F508   
N05700 G01 X-37.2984 Y7.8684  
N05710 G01 X-37.4122 Y7.7857  
N05720 G01 X-37.5117 Y7.6862  
N05730 G01 X-37.5944 Y7.5724  
N05740 G01 X-37.6582 Y7.4471  
N05750 G01 X-37.7017 Y7.3133  
N05760 G01 X-37.7237 Y7.1743  
N05770 G01 X-37.7237 Y6.7143  
N05780 G01 X-37.6983 Y6.7143  
N05790 G01 X-37.6983 Y7.1895  
N05800 G01 X-37.6649 Y7.3573  
N05810 G01 X-37.5995 Y7.5153  
N05820 G01 X-37.5044 Y7.6575  
N05830 G01 X-37.3835 Y7.7785  
N05840 G01 X-37.2413 Y7.8735  
N05850 G01 X-37.1943 Y7.8929  
N05860 G00 Z3.0000  
N05870 G00 X-37.6983 Y5.9857  
N05880 G01 Z-0.0800 F254   
N05890 G01 X-37.7237 Y5.9857  F508   
N05900 G01 X-37.7237 Y5.5257  
N05910 G01 X-37.7017 Y5.3867  
N05920 G01 X-37.6582 Y5.2529  
N05930 G01 X-37.5944 Y5.1276  
N05940 G01 X-37.5117 Y5.0138  
N05950 G01 X-37.4122 Y4.9143  
N05960 G01 X-37.2984 Y4.8316  
N05970 G01 X-37.1943 Y4.7786  
N05980 G01 X-37.1943 Y4.8071  
N05990 G01 X-37.2413 Y4.8265  
N06000 G01 X-37.3835 Y4.9215  
N06010 G01 X-37.5044 Y5.0425  
N06020 G01 X-37.5995 Y5.1847  
N06030 G01 X-37.6649 Y5.3427  
N06040 G01 X-37.6983 Y5.5105  
N06050 G01 X-37.6983 Y5.9857  
N06060 G00 Z3.0000  
N06070 G00 X-35.9617 Y5.9857  
N06080 G01 Z-0.0800 F254   
N06090 G01 X-35.9617 Y5.5105  F508   
N06100 G01 X-35.9951 Y5.3427  
N06110 G01 X-36.0605 Y5.1847  
N06120 G01 X-36.1555 Y5.0425  
N06130 G01 X-36.2765 Y4.9215  
N06140 G01 X-36.4187 Y4.8265  
N06150 G01 X-36.4657 Y4.8071  
N06160 G01 X-36.4657 Y4.7786  
N06170 G01 X-36.3616 Y4.8316  
N06180 G01 X-36.2478 Y4.9143  
N06190 G01 X-36.1483 Y5.0138  
N06200 G01 X-36.0656 Y5.1276  
N06210 G01 X-36.0018 Y5.2529  
N06220 G01 X-35.9583 Y5.3867  
N06230 G01 X-35.9363 Y5.5257  
N06240 G01 X-35.9363 Y5.9857  
N06250 G01 X-35.9617 Y5.9857  
N06260 G00 Z3.0000  
N06270 G00 X-35.8644 Y14.1788 
N06280 G01 Z-0.0800 F254   
N06290 G01 X-35.2939 Y14.5081 F508   
N06300 G01 X-34.8281 Y14.9739 
N06310 G01 X-34.4988 Y15.5444 
N06320 G01 X-34.3283 Y16.1806 
N06330 G01 X-34.3283 Y16.8394 
N06340 G01 X-34.4988 Y17.4756 
N06350 G01 X-34.8281 Y18.0461 
N06360 G01 X-35.2939 Y18.5119 
N06370 G01 X-35.8644 Y18.8412 
N06380 G01 X-36.5006 Y19.0117 
N06390 G01 X-37.1594 Y19.0117 
N06400 G01 X-37.7956 Y18.8412 
N06410 G01 X-38.3661 Y18.5119 
N06420 G01 X-38.8319 Y18.0461 
N06430 G01 X-39.1612 Y17.4756 
N06440 G01 X-39.3317 Y16.8394 
N06450 G01 X-39.3317 Y16.1806 
N06460 G01 X-39.1612 Y15.5444 
N06470 G01 X-38.8319 Y14.9739 
N06480 G01 X-38.3661 Y14.5081 
N06490 G01 X-37.7956 Y14.1788 
N06500 G01 X-37.1594 Y14.0083 
N06510 G01 X-36.5006 Y14.0083 
N06520 G01 X-35.8644 Y14.1788 
N06530 G00 Z3.0000  
N06540 G00 X-36.3237 Y25.1584 
N06550 G01 Z-0.0800 F254   
N06560 G01 X-36.0724 Y25.4097 F508   
N06570 G01 X-35.9363 Y25.7382 
N06580 G01 X-35.9363 Y27.6018 
N06590 G01 X-36.0724 Y27.9302 
N06600 G01 X-36.3237 Y28.1816 
N06610 G01 X-36.6522 Y28.3177 
N06620 G01 X-37.0078 Y28.3177 
N06630 G01 X-37.3362 Y28.1816 
N06640 G01 X-37.5876 Y27.9302 
N06650 G01 X-37.7237 Y27.6018 
N06660 G01 X-37.7237 Y25.7382 
N06670 G01 X-37.5876 Y25.4097 
N06680 G01 X-37.3362 Y25.1584 
N06690 G01 X-37.0078 Y25.0223 
N06700 G01 X-36.6522 Y25.0223 
N06710 G01 X-36.3237 Y25.1584 
N06720 G00 Z3.0000  
N06730 G00 X-36.4187 Y25.1465 
N06740 G01 Z-0.0800 F254   
N06750 G01 X-36.5767 Y25.0811 F508   
N06760 G01 X-36.7445 Y25.0477 
N06770 G01 X-36.9155 Y25.0477 
N06780 G01 X-37.0833 Y25.0811 
N06790 G01 X-37.2413 Y25.1465 
N06800 G01 X-37.3835 Y25.2415 
N06810 G01 X-37.5044 Y25.3625 
N06820 G01 X-37.5995 Y25.5047 
N06830 G01 X-37.6649 Y25.6627 
N06840 G01 X-37.6983 Y25.8305 
N06850 G01 X-37.6983 Y27.5095 
N06860 G01 X-37.6649 Y27.6773 
N06870 G01 X-37.5995 Y27.8353 
N06880 G01 X-37.5044 Y27.9775 
N06890 G01 X-37.3835 Y28.0984 
N06900 G01 X-37.2413 Y28.1935 
N06910 G01 X-37.0833 Y28.2589 
N06920 G01 X-36.9155 Y28.2923 
N06930 G01 X-36.7445 Y28.2923 
N06940 G01 X-36.5767 Y28.2589 
N06950 G01 X-36.4187 Y28.1935 
N06960 G01 X-36.2765 Y28.0984 
N06970 G01 X-36.1555 Y27.9775 
N06980 G01 X-36.0605 Y27.8353 
N06990 G01 X-35.9951 Y27.6773 
N07000 G01 X-35.9617 Y27.5095 
N07010 G01 X-35.9617 Y25.8305 
N07020 G01 X-35.9951 Y25.6627 
N07030 G01 X-36.0605 Y25.5047 
N07040 G01 X-36.1555 Y25.3625 
N07050 G01 X-36.2765 Y25.2415 
N07060 G01 X-36.4187 Y25.1465 
N07070 G00 Z3.0000  
N07080 G00 X-35.0476 Y25.4097 
N07090 G01 Z-0.0800 F254   
N07100 G01 X-34.7962 Y25.1584 F508   
N07110 G01 X-34.4678 Y25.0223 
N07120 G01 X-34.1122 Y25.0223 
N07130 G01 X-33.7837 Y25.1584 
N07140 G01 X-33.5324 Y25.4097 
N07150 G01 X-33.3963 Y25.7382 
N07160 G01 X-33.3963 Y27.6018 
N07170 G01 X-33.5324 Y27.9302 
N07180 G01 X-33.7837 Y28.1816 
N07190 G01 X-34.1122 Y28.3177 
N07200 G01 X-34.4678 Y28.3177 
N07210 G01 X-34.7962 Y28.1816 
N07220 G01 X-35.0476 Y27.9302 
N07230 G01 X-35.1837 Y27.6018 
N07240 G01 X-35.1837 Y25.7382 
N07250 G01 X-35.0476 Y25.4097 
N07260 G00 Z3.0000  
N07270 G00 X-35.0595 Y25.5047 
N07280 G01 Z-0.0800 F254   
N07290 G01 X-35.1249 Y25.6627 F508   
N07300 G01 X-35.1583 Y25.8305 
N07310 G01 X-35.1583 Y27.5095 
N07320 G01 X-35.1249 Y27.6773 
N07330 G01 X-35.0595 Y27.8353 
N07340 G01 X-34.9644 Y27.9775 
N07350 G01 X-34.8435 Y28.0984 
N07360 G01 X-34.7013 Y28.1935 
N07370 G01 X-34.5433 Y28.2589 
N07380 G01 X-34.3755 Y28.2923 
N07390 G01 X-34.2045 Y28.2923 
N07400 G01 X-34.0367 Y28.2589 
N07410 G01 X-33.8787 Y28.1935 
N07420 G01 X-33.7365 Y28.0984 
N07430 G01 X-33.6155 Y27.9775 
N07440 G01 X-33.5205 Y27.8353 
N07450 G01 X-33.4551 Y27.6773 
N07460 G01 X-33.4217 Y27.5095 
N07470 G01 X-33.4217 Y25.8305 
N07480 G01 X-33.4551 Y25.6627 
N07490 G01 X-33.5205 Y25.5047 
N07500 G01 X-33.6155 Y25.3625 
N07510 G01 X-33.7365 Y25.2415 
N07520 G01 X-33.8787 Y25.1465 
N07530 G01 X-34.0367 Y25.0811 
N07540 G01 X-34.2045 Y25.0477 
N07550 G01 X-34.3755 Y25.0477 
N07560 G01 X-34.5433 Y25.0811 
N07570 G01 X-34.7013 Y25.1465 
N07580 G01 X-34.8435 Y25.2415 
N07590 G01 X-34.9644 Y25.3625 
N07600 G01 X-35.0595 Y25.5047 
N07610 G00 Z3.0000  
N07620 G00 X-32.5195 Y25.5047 
N07630 G01 Z-0.0800 F254   
N07640 G01 X-32.5849 Y25.6627 F508   
N07650 G01 X-32.6183 Y25.8305 
N07660 G01 X-32.6183 Y27.5095 
N07670 G01 X-32.5849 Y27.6773 
N07680 G01 X-32.5195 Y27.8353 
N07690 G01 X-32.4245 Y27.9775 
N07700 G01 X-32.3035 Y28.0984 
N07710 G01 X-32.1613 Y28.1935 
N07720 G01 X-32.0033 Y28.2589 
N07730 G01 X-31.8355 Y28.2923 
N07740 G01 X-31.6645 Y28.2923 
N07750 G01 X-31.4967 Y28.2589 
N07760 G01 X-31.3387 Y28.1935 
N07770 G01 X-31.1965 Y28.0984 
N07780 G01 X-31.0755 Y27.9775 
N07790 G01 X-30.9805 Y27.8353 
N07800 G01 X-30.9151 Y27.6773 
N07810 G01 X-30.8817 Y27.5095 
N07820 G01 X-30.8817 Y25.8305 
N07830 G01 X-30.9151 Y25.6627 
N07840 G01 X-30.9805 Y25.5047 
N07850 G01 X-31.0755 Y25.3625 
N07860 G01 X-31.1965 Y25.2415 
N07870 G01 X-31.3387 Y25.1465 
N07880 G01 X-31.4967 Y25.0811 
N07890 G01 X-31.6645 Y25.0477 
N07900 G01 X-31.8355 Y25.0477 
N07910 G01 X-32.0033 Y25.0811 
N07920 G01 X-32.1613 Y25.1465 
N07930 G01 X-32.3035 Y25.2415 
N07940 G01 X-32.4245 Y25.3625 
N07950 G01 X-32.5195 Y25.5047 
N07960 G00 Z3.0000  
N07970 G00 X-32.5076 Y25.4097 
N07980 G01 Z-0.0800 F254   
N07990 G01 X-32.2562 Y25.1584 F508   
N08000 G01 X-31.9278 Y25.0223 
N08010 G01 X-31.5722 Y25.0223 
N08020 G01 X-31.2437 Y25.1584 
N08030 G01 X-30.9924 Y25.4097 
N08040 G01 X-30.8563 Y25.7382 
N08050 G01 X-30.8563 Y27.6018 
N08060 G01 X-30.9924 Y27.9302 
N08070 G01 X-31.2437 Y28.1816 
N08080 G01 X-31.5722 Y28.3177 
N08090 G01 X-31.9278 Y28.3177 
N08100 G01 X-32.2562 Y28.1816 
N08110 G01 X-32.5076 Y27.9302 
N08120 G01 X-32.6437 Y27.6018 
N08130 G01 X-32.6437 Y25.7382 
N08140 G01 X-32.5076 Y25.4097 
N08150 G00 Z3.0000  
N08160 G00 X-29.9676 Y25.4097 
N08170 G01 Z-0.0800 F254   
N08180 G01 X-29.7162 Y25.1584 F508   
N08190 G01 X-29.3878 Y25.0223 
N08200 G01 X-29.0322 Y25.0223 
N08210 G01 X-28.7037 Y25.1584 
N08220 G01 X-28.4524 Y25.4097 
N08230 G01 X-28.3163 Y25.7382 
N08240 G01 X-28.3163 Y27.6018 
N08250 G01 X-28.4524 Y27.9302 
N08260 G01 X-28.7037 Y28.1816 
N08270 G01 X-29.0322 Y28.3177 
N08280 G01 X-29.3878 Y28.3177 
N08290 G01 X-29.7162 Y28.1816 
N08300 G01 X-29.9676 Y27.9302 
N08310 G01 X-30.1037 Y27.6018 
N08320 G01 X-30.1037 Y25.7382 
N08330 G01 X-29.9676 Y25.4097 
N08340 G00 Z3.0000  
N08350 G00 X-29.9795 Y25.5047 
N08360 G01 Z-0.0800 F254   
N08370 G01 X-30.0449 Y25.6627 F508   
N08380 G01 X-30.0783 Y25.8305 
N08390 G01 X-30.0783 Y27.5095 
N08400 G01 X-30.0449 Y27.6773 
N08410 G01 X-29.9795 Y27.8353 
N08420 G01 X-29.8845 Y27.9775 
N08430 G01 X-29.7635 Y28.0984 
N08440 G01 X-29.6213 Y28.1935 
N08450 G01 X-29.4633 Y28.2589 
N08460 G01 X-29.2955 Y28.2923 
N08470 G01 X-29.1245 Y28.2923 
N08480 G01 X-28.9567 Y28.2589 
N08490 G01 X-28.7987 Y28.1935 
N08500 G01 X-28.6565 Y28.0984 
N08510 G01 X-28.5355 Y27.9775 
N08520 G01 X-28.4405 Y27.8353 
N08530 G01 X-28.3751 Y27.6773 
N08540 G01 X-28.3417 Y27.5095 
N08550 G01 X-28.3417 Y25.8305 
N08560 G01 X-28.3751 Y25.6627 
N08570 G01 X-28.4405 Y25.5047 
N08580 G01 X-28.5355 Y25.3625 
N08590 G01 X-28.6565 Y25.2415 
N08600 G01 X-28.7987 Y25.1465 
N08610 G01 X-28.9567 Y25.0811 
N08620 G01 X-29.1245 Y25.0477 
N08630 G01 X-29.2955 Y25.0477 
N08640 G01 X-29.4633 Y25.0811 
N08650 G01 X-29.6213 Y25.1465 
N08660 G01 X-29.7635 Y25.2415 
N08670 G01 X-29.8845 Y25.3625 
N08680 G01 X-29.9795 Y25.5047 
N08690 G00 Z3.0000  
N08700 G00 X-27.4395 Y25.5047 
N08710 G01 Z-0.0800 F254   
N08720 G01 X-27.5049 Y25.6627 F508   
N08730 G01 X-27.5383 Y25.8305 
N08740 G01 X-27.5383 Y27.5095 
N08750 G01 X-27.5049 Y27.6773 
N08760 G01 X-27.4395 Y27.8353 
N08770 G01 X-27.3444 Y27.9775 
N08780 G01 X-27.2235 Y28.0984 
N08790 G01 X-27.0813 Y28.1935 
N08800 G01 X-26.9233 Y28.2589 
N08810 G01 X-26.7555 Y28.2923 
N08820 G01 X-26.5845 Y28.2923 
N08830 G01 X-26.4167 Y28.2589 
N08840 G01 X-26.2587 Y28.1935 
N08850 G01 X-26.1165 Y28.0984 
N08860 G01 X-25.9955 Y27.9775 
N08870 G01 X-25.9005 Y27.8353 
N08880 G01 X-25.8351 Y27.6773 
N08890 G01 X-25.8017 Y27.5095 
N08900 G01 X-25.8017 Y25.8305 
N08910 G01 X-25.8351 Y25.6627 
N08920 G01 X-25.9005 Y25.5047 
N08930 G01 X-25.9955 Y25.3625 
N08940 G01 X-26.1165 Y25.2415 
N08950 G01 X-26.2587 Y25.1465 
N08960 G01 X-26.4167 Y25.0811 
N08970 G01 X-26.5845 Y25.0477 
N08980 G01 X-26.7555 Y25.0477 
N08990 G01 X-26.9233 Y25.0811 
N09000 G01 X-27.0813 Y25.1465 
N09010 G01 X-27.2235 Y25.2415 
N09020 G01 X-27.3444 Y25.3625 
N09030 G01 X-27.4395 Y25.5047 
N09040 G00 Z3.0000  
N09050 G00 X-27.4276 Y25.4097 
N09060 G01 Z-0.0800 F254   
N09070 G01 X-27.1762 Y25.1584 F508   
N09080 G01 X-26.8478 Y25.0223 
N09090 G01 X-26.4922 Y25.0223 
N09100 G01 X-26.1638 Y25.1584 
N09110 G01 X-25.9124 Y25.4097 
N09120 G01 X-25.7763 Y25.7382 
N09130 G01 X-25.7763 Y27.6018 
N09140 G01 X-25.9124 Y27.9302 
N09150 G01 X-26.1638 Y28.1816 
N09160 G01 X-26.4922 Y28.3177 
N09170 G01 X-26.8478 Y28.3177 
N09180 G01 X-27.1762 Y28.1816 
N09190 G01 X-27.4276 Y27.9302 
N09200 G01 X-27.5637 Y27.6018 
N09210 G01 X-27.5637 Y25.7382 
N09220 G01 X-27.4276 Y25.4097 
N09230 G00 Z3.0000  
N09240 G00 X-24.8876 Y25.4097 
N09250 G01 Z-0.0800 F254   
N09260 G01 X-24.6362 Y25.1584 F508   
N09270 G01 X-24.3078 Y25.0223 
N09280 G01 X-23.9522 Y25.0223 
N09290 G01 X-23.6238 Y25.1584 
N09300 G01 X-23.3724 Y25.4097 
N09310 G01 X-23.2363 Y25.7382 
N09320 G01 X-23.2363 Y27.6018 
N09330 G01 X-23.3724 Y27.9302 
N09340 G01 X-23.6238 Y28.1816 
N09350 G01 X-23.9522 Y28.3177 
N09360 G01 X-24.3078 Y28.3177 
N09370 G01 X-24.6362 Y28.1816 
N09380 G01 X-24.8876 Y27.9302 
N09390 G01 X-25.0237 Y27.6018 
N09400 G01 X-25.0237 Y25.7382 
N09410 G01 X-24.8876 Y25.4097 
N09420 G00 Z3.0000  
N09430 G00 X-24.8995 Y25.5047 
N09440 G01 Z-0.0800 F254   
N09450 G01 X-24.9649 Y25.6627 F508   
N09460 G01 X-24.9983 Y25.8305 
N09470 G01 X-24.9983 Y27.5095 
N09480 G01 X-24.9649 Y27.6773 
N09490 G01 X-24.8995 Y27.8353 
N09500 G01 X-24.8044 Y27.9775 
N09510 G01 X-24.6835 Y28.0984 
N09520 G01 X-24.5413 Y28.1935 
N09530 G01 X-24.3833 Y28.2589 
N09540 G01 X-24.2155 Y28.2923 
N09550 G01 X-24.0445 Y28.2923 
N09560 G01 X-23.8767 Y28.2589 
N09570 G01 X-23.7187 Y28.1935 
N09580 G01 X-23.5765 Y28.0984 
N09590 G01 X-23.4555 Y27.9775 
N09600 G01 X-23.3605 Y27.8353 
N09610 G01 X-23.2951 Y27.6773 
N09620 G01 X-23.2617 Y27.5095 
N09630 G01 X-23.2617 Y25.8305 
N09640 G01 X-23.2951 Y25.6627 
N09650 G01 X-23.3605 Y25.5047 
N09660 G01 X-23.4555 Y25.3625 
N09670 G01 X-23.5765 Y25.2415 
N09680 G01 X-23.7187 Y25.1465 
N09690 G01 X-23.8767 Y25.0811 
N09700 G01 X-24.0445 Y25.0477 
N09710 G01 X-24.2155 Y25.0477 
N09720 G01 X-24.3833 Y25.0811 
N09730 G01 X-24.5413 Y25.1465 
N09740 G01 X-24.6835 Y25.2415 
N09750 G01 X-24.8044 Y25.3625 
N09760 G01 X-24.8995 Y25.5047 
N09770 G00 Z3.0000  
N09780 G00 X-22.3595 Y25.5047 
N09790 G01 Z-0.0800 F254   
N09800 G01 X-22.4249 Y25.6627 F508   
N09810 G01 X-22.4583 Y25.8305 
N09820 G01 X-22.4583 Y27.5095 
N09830 G01 X-22.4249 Y27.6773 
N09840 G01 X-22.3595 Y27.8353 
N09850 G01 X-22.2645 Y27.9775 
N09860 G01 X-22.1435 Y28.0984 
N09870 G01 X-22.0013 Y28.1935 
N09880 G01 X-21.8433 Y28.2589 
N09890 G01 X-21.6755 Y28.2923 
N09900 G01 X-21.5045 Y28.2923 
N09910 G01 X-21.3367 Y28.2589 
N09920 G01 X-21.1787 Y28.1935 
N09930 G01 X-21.0365 Y28.0984 
N09940 G01 X-20.9155 Y27.9775 
N09950 G01 X-20.8205 Y27.8353 
N09960 G01 X-20.7551 Y27.6773 
N09970 G01 X-20.7217 Y27.5095 
N09980 G01 X-20.7217 Y25.8305 
N09990 G01 X-20.7551 Y25.6627 
N10000 G01 X-20.8205 Y25.5047 
N10010 G01 X-20.9155 Y25.3625 
N10020 G01 X-21.0365 Y25.2415 
N10030 G01 X-21.1787 Y25.1465 
N10040 G01 X-21.3367 Y25.0811 
N10050 G01 X-21.5045 Y25.0477 
N10060 G01 X-21.6755 Y25.0477 
N10070 G01 X-21.8433 Y25.0811 
N10080 G01 X-22.0013 Y25.1465 
N10090 G01 X-22.1435 Y25.2415 
N10100 G01 X-22.2645 Y25.3625 
N10110 G01 X-22.3595 Y25.5047 
N10120 G00 Z3.0000  
N10130 G00 X-22.3476 Y25.4097 
N10140 G01 Z-0.0800 F254   
N10150 G01 X-22.0962 Y25.1584 F508   
N10160 G01 X-21.7678 Y25.0223 
N10170 G01 X-21.4122 Y25.0223 
N10180 G01 X-21.0837 Y25.1584 
N10190 G01 X-20.8324 Y25.4097 
N10200 G01 X-20.6963 Y25.7382 
N10210 G01 X-20.6963 Y27.6018 
N10220 G01 X-20.8324 Y27.9302 
N10230 G01 X-21.0837 Y28.1816 
N10240 G01 X-21.4122 Y28.3177 
N10250 G01 X-21.7678 Y28.3177 
N10260 G01 X-22.0962 Y28.1816 
N10270 G01 X-22.3476 Y27.9302 
N10280 G01 X-22.4837 Y27.6018 
N10290 G01 X-22.4837 Y25.7382 
N10300 G01 X-22.3476 Y25.4097 
N10310 G00 Z3.0000  
N10320 G00 X-49.7388 Y25.7044 
N10330 G01 Z-0.0800 F254   
N10340 G01 X-49.5683 Y26.3406 F508   
N10350 G01 X-49.5683 Y26.9994 
N10360 G01 X-49.7388 Y27.6356 
N10370 G01 X-50.0681 Y28.2061 
N10380 G01 X-50.5339 Y28.6719 
N10390 G01 X-51.1044 Y29.0012 
N10400 G01 X-51.7406 Y29.1717 
N10410 G01 X-52.3994 Y29.1717 
N10420 G01 X-53.0356 Y29.0012 
N10430 G01 X-53.6061 Y28.6719 
N10440 G01 X-54.0719 Y28.2061 
N10450 G01 X-54.4012 Y27.6356 
N10460 G01 X-54.5717 Y26.9994 
N10470 G01 X-54.5717 Y26.3406 
N10480 G01 X-54.4012 Y25.7044 
N10490 G01 X-54.0719 Y25.1339 
N10500 G01 X-53.6061 Y24.6681 
N10510 G01 X-53.0356 Y24.3388 
N10520 G01 X-52.3994 Y24.1683 
N10530 G01 X-51.7406 Y24.1683 
N10540 G01 X-51.1044 Y24.3388 
N10550 G01 X-50.5339 Y24.6681 
N10560 G01 X-50.0681 Y25.1339 
N10570 G01 X-49.7388 Y25.7044 
N10580 G00 Z3.0000  
N10590 G00 X-57.6199 Y25.7314 
N10600 G01 Z-0.0800 F254   
N10610 G01 X-58.0886 Y26.2001 F508   
N10620 G01 X-58.7514 Y26.2001 
N10630 G01 X-59.2201 Y25.7314 
N10640 G01 X-59.2201 Y25.0686 
N10650 G01 X-58.7514 Y24.5999 
N10660 G01 X-58.0886 Y24.5999 
N10670 G01 X-57.6199 Y25.0686 
N10680 G01 X-57.6199 Y25.7314 
N10690 G00 Z3.0000  
N10700 G00 X-57.6453 Y25.7209 
N10710 G01 Z-0.0800 F254   
N10720 G01 X-57.6453 Y25.0791 F508   
N10730 G01 X-58.0991 Y24.6253 
N10740 G01 X-58.7409 Y24.6253 
N10750 G01 X-59.1947 Y25.0791 
N10760 G01 X-59.1947 Y25.7209 
N10770 G01 X-58.7409 Y26.1747 
N10780 G01 X-58.0991 Y26.1747 
N10790 G01 X-57.6453 Y25.7209 
N10800 G00 Z3.0000  
N10810 G00 X-60.1599 Y25.7314 
N10820 G01 Z-0.0800 F254   
N10830 G01 X-60.6286 Y26.2001 F508   
N10840 G01 X-61.2914 Y26.2001 
N10850 G01 X-61.7601 Y25.7314 
N10860 G01 X-61.7601 Y25.0686 
N10870 G01 X-61.2914 Y24.5999 
N10880 G01 X-60.6286 Y24.5999 
N10890 G01 X-60.1599 Y25.0686 
N10900 G01 X-60.1599 Y25.7314 
N10910 G00 Z3.0000  
N10920 G00 X-60.1853 Y25.7209 
N10930 G01 Z-0.0800 F254   
N10940 G01 X-60.1853 Y25.0791 F508   
N10950 G01 X-60.6391 Y24.6253 
N10960 G01 X-61.2809 Y24.6253 
N10970 G01 X-61.7347 Y25.0791 
N10980 G01 X-61.7347 Y25.7209 
N10990 G01 X-61.2809 Y26.1747 
N11000 G01 X-60.6391 Y26.1747 
N11010 G01 X-60.1853 Y25.7209 
N11020 G00 Z3.0000  
N11030 G00 X-60.6286 Y18.5801 
N11040 G01 Z-0.0800 F254   
N11050 G01 X-61.2914 Y18.5801 F508   
N11060 G01 X-61.7601 Y18.1114 
N11070 G01 X-61.7601 Y17.4486 
N11080 G01 X-61.2914 Y16.9799 
N11090 G01 X-60.6286 Y16.9799 
N11100 G01 X-60.1599 Y17.4486 
N11110 G01 X-60.1599 Y18.1114 
N11120 G01 X-60.6286 Y18.5801 
N11130 G00 Z3.0000  
N11140 G00 X-60.6391 Y18.5547 
N11150 G01 Z-0.0800 F254   
N11160 G01 X-60.1853 Y18.1009 F508   
N11170 G01 X-60.1853 Y17.4591 
N11180 G01 X-60.6391 Y17.0053 
N11190 G01 X-61.2809 Y17.0053 
N11200 G01 X-61.7347 Y17.4591 
N11210 G01 X-61.7347 Y18.1009 
N11220 G01 X-61.2809 Y18.5547 
N11230 G01 X-60.6391 Y18.5547 
N11240 G00 Z3.0000  
N11250 G00 X-59.2201 Y18.1114 
N11260 G01 Z-0.0800 F254   
N11270 G01 X-59.2201 Y18.0975 F508   
N11280 G01 X-59.1947 Y18.0975 
N11290 G01 X-59.1947 Y18.1009 
N11300 G01 X-58.7409 Y18.5547 
N11310 G01 X-58.7375 Y18.5547 
N11320 G01 X-58.7375 Y18.5801 
N11330 G01 X-58.7514 Y18.5801 
N11340 G01 X-59.2201 Y18.1114 
N11350 G00 Z3.0000  
N11360 G00 X-59.2201 Y17.4625 
N11370 G01 Z-0.0800 F254   
N11380 G01 X-59.2201 Y17.4486 F508   
N11390 G01 X-58.7514 Y16.9799 
N11400 G01 X-58.7375 Y16.9799 
N11410 G01 X-58.7375 Y17.0053 
N11420 G01 X-58.7409 Y17.0053 
N11430 G01 X-59.1947 Y17.4591 
N11440 G01 X-59.1947 Y17.4625 
N11450 G01 X-59.2201 Y17.4625 
N11460 G00 Z3.0000  
N11470 G00 X-57.6453 Y17.4625 
N11480 G01 Z-0.0800 F254   
N11490 G01 X-57.6453 Y17.4591 F508   
N11500 G01 X-58.0991 Y17.0053 
N11510 G01 X-58.1025 Y17.0053 
N11520 G01 X-58.1025 Y16.9799 
N11530 G01 X-58.0886 Y16.9799 
N11540 G01 X-57.6199 Y17.4486 
N11550 G01 X-57.6199 Y17.4625 
N11560 G01 X-57.6453 Y17.4625 
N11570 G00 Z3.0000  
N11580 G00 X-57.6453 Y18.0975 
N11590 G01 Z-0.0800 F254   
N11600 G01 X-57.6199 Y18.0975 F508   
N11610 G01 X-57.6199 Y18.1114 
N11620 G01 X-58.0886 Y18.5801 
N11630 G01 X-58.1025 Y18.5801 
N11640 G01 X-58.1025 Y18.5547 
N11650 G01 X-58.0991 Y18.5547 
N11660 G01 X-57.6453 Y18.1009 
N11670 G01 X-57.6453 Y18.0975 
N11680 G00 Z3.0000  
N11690 G00 X-53.5816 Y11.9362 
N11700 G01 Z-0.0800 F254   
N11710 G01 X-53.7177 Y11.6078 F508   
N11720 G01 X-53.7177 Y11.2522 
N11730 G01 X-53.5816 Y10.9238 
N11740 G01 X-53.3302 Y10.6724 
N11750 G01 X-53.0018 Y10.5363 
N11760 G01 X-51.1382 Y10.5363 
N11770 G01 X-50.8098 Y10.6724 
N11780 G01 X-50.5584 Y10.9238 
N11790 G01 X-50.4223 Y11.2522 
N11800 G01 X-50.4223 Y11.6078 
N11810 G01 X-50.5584 Y11.9362 
N11820 G01 X-50.8098 Y12.1876 
N11830 G01 X-51.1382 Y12.3237 
N11840 G01 X-53.0018 Y12.3237 
N11850 G01 X-53.3302 Y12.1876 
N11860 G01 X-53.5816 Y11.9362 
N11870 G00 Z3.0000  
N11880 G00 X-53.5935 Y11.8413 
N11890 G01 Z-0.0800 F254   
N11900 G01 X-53.4984 Y11.9835 F508   
N11910 G01 X-53.3775 Y12.1044 
N11920 G01 X-53.2353 Y12.1995 
N11930 G01 X-53.0773 Y12.2649 
N11940 G01 X-52.9095 Y12.2983 
N11950 G01 X-51.2305 Y12.2983 
N11960 G01 X-51.0627 Y12.2649 
N11970 G01 X-50.9047 Y12.1995 
N11980 G01 X-50.7625 Y12.1044 
N11990 G01 X-50.6415 Y11.9835 
N12000 G01 X-50.5465 Y11.8413 
N12010 G01 X-50.4811 Y11.6833 
N12020 G01 X-50.4477 Y11.5155 
N12030 G01 X-50.4477 Y11.3445 
N12040 G01 X-50.4811 Y11.1767 
N12050 G01 X-50.5465 Y11.0187 
N12060 G01 X-50.6415 Y10.8765 
N12070 G01 X-50.7625 Y10.7555 
N12080 G01 X-50.9047 Y10.6605 
N12090 G01 X-51.0627 Y10.5951 
N12100 G01 X-51.2305 Y10.5617 
N12110 G01 X-52.9095 Y10.5617 
N12120 G01 X-53.0773 Y10.5951 
N12130 G01 X-53.2353 Y10.6605 
N12140 G01 X-53.3775 Y10.7555 
N12150 G01 X-53.4984 Y10.8765 
N12160 G01 X-53.5935 Y11.0187 
N12170 G01 X-53.6589 Y11.1767 
N12180 G01 X-53.6923 Y11.3445 
N12190 G01 X-53.6923 Y11.5155 
N12200 G01 X-53.6589 Y11.6833 
N12210 G01 X-53.5935 Y11.8413 
N12220 G00 Z3.0000  
N12230 G00 X-53.4062 Y9.5717  
N12240 G01 Z-0.0800 F254   
N12250 G01 X-53.5057 Y9.4722  F508   
N12260 G01 X-53.5884 Y9.3584  
N12270 G01 X-53.6414 Y9.2543  
N12280 G01 X-53.6129 Y9.2543  
N12290 G01 X-53.5935 Y9.3013  
N12300 G01 X-53.4984 Y9.4435  
N12310 G01 X-53.3775 Y9.5645  
N12320 G01 X-53.2353 Y9.6595  
N12330 G01 X-53.0773 Y9.7249  
N12340 G01 X-52.9095 Y9.7583  
N12350 G01 X-52.4343 Y9.7583  
N12360 G01 X-52.4343 Y9.7837  
N12370 G01 X-52.8943 Y9.7837  
N12380 G01 X-53.0333 Y9.7617  
N12390 G01 X-53.1671 Y9.7182  
N12400 G01 X-53.2924 Y9.6544  
N12410 G01 X-53.4062 Y9.5717  
N12420 G00 Z3.0000  
N12430 G00 X-53.6129 Y8.5257  
N12440 G01 Z-0.0800 F254   
N12450 G01 X-53.6414 Y8.5257  F508   
N12460 G01 X-53.5884 Y8.4216  
N12470 G01 X-53.5057 Y8.3078  
N12480 G01 X-53.4062 Y8.2083  
N12490 G01 X-53.2924 Y8.1256  
N12500 G01 X-53.1671 Y8.0618  
N12510 G01 X-53.0333 Y8.0183  
N12520 G01 X-52.8943 Y7.9963  
N12530 G01 X-52.4343 Y7.9963  
N12540 G01 X-52.4343 Y8.0217  
N12550 G01 X-52.9095 Y8.0217  
N12560 G01 X-53.0773 Y8.0551  
N12570 G01 X-53.2353 Y8.1205  
N12580 G01 X-53.3775 Y8.2155  
N12590 G01 X-53.4984 Y8.3365  
N12600 G01 X-53.5935 Y8.4787  
N12610 G01 X-53.6129 Y8.5257  
N12620 G00 Z3.0000  
N12630 G00 X-53.5816 Y6.8562  
N12640 G01 Z-0.0800 F254   
N12650 G01 X-53.7177 Y6.5278  F508   
N12660 G01 X-53.7177 Y6.1722  
N12670 G01 X-53.5816 Y5.8438  
N12680 G01 X-53.3302 Y5.5924  
N12690 G01 X-53.0018 Y5.4563  
N12700 G01 X-51.1382 Y5.4563  
N12710 G01 X-50.8098 Y5.5924  
N12720 G01 X-50.5584 Y5.8438  
N12730 G01 X-50.4223 Y6.1722  
N12740 G01 X-50.4223 Y6.5278  
N12750 G01 X-50.5584 Y6.8562  
N12760 G01 X-50.8098 Y7.1076  
N12770 G01 X-51.1382 Y7.2437  
N12780 G01 X-53.0018 Y7.2437  
N12790 G01 X-53.3302 Y7.1076  
N12800 G01 X-53.5816 Y6.8562  
N12810 G00 Z3.0000  
N12820 G00 X-53.5935 Y6.7613  
N12830 G01 Z-0.0800 F254   
N12840 G01 X-53.4984 Y6.9035  F508   
N12850 G01 X-53.3775 Y7.0244  
N12860 G01 X-53.2353 Y7.1195  
N12870 G01 X-53.0773 Y7.1849  
N12880 G01 X-52.9095 Y7.2183  
N12890 G01 X-51.2305 Y7.2183  
N12900 G01 X-51.0627 Y7.1849  
N12910 G01 X-50.9047 Y7.1195  
N12920 G01 X-50.7625 Y7.0244  
N12930 G01 X-50.6415 Y6.9035  
N12940 G01 X-50.5465 Y6.7613  
N12950 G01 X-50.4811 Y6.6033  
N12960 G01 X-50.4477 Y6.4355  
N12970 G01 X-50.4477 Y6.2645  
N12980 G01 X-50.4811 Y6.0967  
N12990 G01 X-50.5465 Y5.9387  
N13000 G01 X-50.6415 Y5.7965  
N13010 G01 X-50.7625 Y5.6755  
N13020 G01 X-50.9047 Y5.5805  
N13030 G01 X-51.0627 Y5.5151  
N13040 G01 X-51.2305 Y5.4817  
N13050 G01 X-52.9095 Y5.4817  
N13060 G01 X-53.0773 Y5.5151  
N13070 G01 X-53.2353 Y5.5805  
N13080 G01 X-53.3775 Y5.6755  
N13090 G01 X-53.4984 Y5.7965  
N13100 G01 X-53.5935 Y5.9387  
N13110 G01 X-53.6589 Y6.0967  
N13120 G01 X-53.6923 Y6.2645  
N13130 G01 X-53.6923 Y6.4355  
N13140 G01 X-53.6589 Y6.6033  
N13150 G01 X-53.5935 Y6.7613  
N13160 G00 Z3.0000  
N13170 G00 X-51.7057 Y7.9963  
N13180 G01 Z-0.0800 F254   
N13190 G01 X-51.2457 Y7.9963  F508   
N13200 G01 X-51.1067 Y8.0183  
N13210 G01 X-50.9729 Y8.0618  
N13220 G01 X-50.8476 Y8.1256  
N13230 G01 X-50.7338 Y8.2083  
N13240 G01 X-50.6343 Y8.3078  
N13250 G01 X-50.5516 Y8.4216  
N13260 G01 X-50.4986 Y8.5257  
N13270 G01 X-50.5271 Y8.5257  
N13280 G01 X-50.5465 Y8.4787  
N13290 G01 X-50.6415 Y8.3365  
N13300 G01 X-50.7625 Y8.2155  
N13310 G01 X-50.9047 Y8.1205  
N13320 G01 X-51.0627 Y8.0551  
N13330 G01 X-51.2305 Y8.0217  
N13340 G01 X-51.7057 Y8.0217  
N13350 G01 X-51.7057 Y7.9963  
N13360 G00 Z3.0000  
N13370 G00 X-51.7057 Y9.7583  
N13380 G01 Z-0.0800 F254   
N13390 G01 X-51.2305 Y9.7583  F508   
N13400 G01 X-51.0627 Y9.7249  
N13410 G01 X-50.9047 Y9.6595  
N13420 G01 X-50.7625 Y9.5645  
N13430 G01 X-50.6415 Y9.4435  
N13440 G01 X-50.5465 Y9.3013  
N13450 G01 X-50.5271 Y9.2543  
N13460 G01 X-50.4986 Y9.2543  
N13470 G01 X-50.5516 Y9.3584  
N13480 G01 X-50.6343 Y9.4722  
N13490 G01 X-50.7338 Y9.5717  
N13500 G01 X-50.8476 Y9.6544  
N13510 G01 X-50.9729 Y9.7182  
N13520 G01 X-51.1067 Y9.7617  
N13530 G01 X-51.2457 Y9.7837  
N13540 G01 X-51.7057 Y9.7837  
N13550 G01 X-51.7057 Y9.7583  
N13560 G00 Z3.0000  
N13570 G00 X-58.8899 Y6.6814  
N13580 G01 Z-0.0800 F254   
N13590 G01 X-59.3586 Y7.1501  F508   
N13600 G01 X-60.0214 Y7.1501  
N13610 G01 X-60.4901 Y6.6814  
N13620 G01 X-60.4901 Y6.0186  
N13630 G01 X-60.0214 Y5.5499  
N13640 G01 X-59.3586 Y5.5499  
N13650 G01 X-58.8899 Y6.0186  
N13660 G01 X-58.8899 Y6.6814  
N13670 G00 Z3.0000  
N13680 G00 X-58.9153 Y6.6709  
N13690 G01 Z-0.0800 F254   
N13700 G01 X-58.9153 Y6.0291  F508   
N13710 G01 X-59.3691 Y5.5753  
N13720 G01 X-60.0109 Y5.5753  
N13730 G01 X-60.4647 Y6.0291  
N13740 G01 X-60.4647 Y6.6709  
N13750 G01 X-60.0109 Y7.1247  
N13760 G01 X-59.3691 Y7.1247  
N13770 G01 X-58.9153 Y6.6709  
N13780 G00 Z3.0000  
N13790 G00 X-61.4299 Y6.6814  
N13800 G01 Z-0.0800 F254   
N13810 G01 X-61.8986 Y7.1501  F508   
N13820 G01 X-62.5614 Y7.1501  
N13830 G01 X-63.0301 Y6.6814  
N13840 G01 X-63.0301 Y6.0186  
N13850 G01 X-62.5614 Y5.5499  
N13860 G01 X-61.8986 Y5.5499  
N13870 G01 X-61.4299 Y6.0186  
N13880 G01 X-61.4299 Y6.6814  
N13890 G00 Z3.0000  
N13900 G00 X-61.4553 Y6.6709  
N13910 G01 Z-0.0800 F254   
N13920 G01 X-61.4553 Y6.0291  F508   
N13930 G01 X-61.9091 Y5.5753  
N13940 G01 X-62.5509 Y5.5753  
N13950 G01 X-63.0047 Y6.0291  
N13960 G01 X-63.0047 Y6.6709  
N13970 G01 X-62.5509 Y7.1247  
N13980 G01 X-61.9091 Y7.1247  
N13990 G01 X-61.4553 Y6.6709  
N14000 G00 Z3.0000  
N14010 G00 X-61.2914 Y5.2451  
N14020 G01 Z-0.0800 F254   
N14030 G01 X-61.7601 Y4.7764  F508   
N14040 G01 X-61.7601 Y4.7625  
N14050 G01 X-61.7347 Y4.7625  
N14060 G01 X-61.7347 Y4.7659  
N14070 G01 X-61.2809 Y5.2197  
N14080 G01 X-61.2775 Y5.2197  
N14090 G01 X-61.2775 Y5.2451  
N14100 G01 X-61.2914 Y5.2451  
N14110 G00 Z3.0000  
N14120 G00 X-60.6425 Y5.2451  
N14130 G01 Z-0.0800 F254   
N14140 G01 X-60.6425 Y5.2197  F508   
N14150 G01 X-60.6391 Y5.2197  
N14160 G01 X-60.1853 Y4.7659  
N14170 G01 X-60.1853 Y4.7625  
N14180 G01 X-60.1599 Y4.7625  
N14190 G01 X-60.1599 Y4.7764  
N14200 G01 X-60.6286 Y5.2451  
N14210 G01 X-60.6425 Y5.2451  
N14220 G00 Z3.0000  
N14230 G00 X-60.1853 Y4.1275  
N14240 G01 Z-0.0800 F254   
N14250 G01 X-60.1853 Y4.1241  F508   
N14260 G01 X-60.6391 Y3.6703  
N14270 G01 X-60.6425 Y3.6703  
N14280 G01 X-60.6425 Y3.6449  
N14290 G01 X-60.6286 Y3.6449  
N14300 G01 X-60.1599 Y4.1136  
N14310 G01 X-60.1599 Y4.1275  
N14320 G01 X-60.1853 Y4.1275  
N14330 G00 Z3.0000  
N14340 G00 X-61.2775 Y3.6703  
N14350 G01 Z-0.0800 F254   
N14360 G01 X-61.2809 Y3.6703  F508   
N14370 G01 X-61.7347 Y4.1241  
N14380 G01 X-61.7347 Y4.1275  
N14390 G01 X-61.7601 Y4.1275  
N14400 G01 X-61.7601 Y4.1136  
N14410 G01 X-61.2914 Y3.6449  
N14420 G01 X-61.2775 Y3.6449  
N14430 G01 X-61.2775 Y3.6703  
N14440 G00 Z3.0000  
N14450 G00 X-65.7739 Y4.3481  
N14460 G01 Z-0.0800 F254   
N14470 G01 X-65.3081 Y4.8139  F508   
N14480 G01 X-64.9788 Y5.3844  
N14490 G01 X-64.8083 Y6.0206  
N14500 G01 X-64.8083 Y6.6794  
N14510 G01 X-64.9788 Y7.3156  
N14520 G01 X-65.3081 Y7.8861  
N14530 G01 X-65.7739 Y8.3519  
N14540 G01 X-66.3444 Y8.6812  
N14550 G01 X-66.9806 Y8.8517  
N14560 G01 X-67.6394 Y8.8517  
N14570 G01 X-68.2756 Y8.6812  
N14580 G01 X-68.8461 Y8.3519  
N14590 G01 X-69.3119 Y7.8861  
N14600 G01 X-69.6412 Y7.3156  
N14610 G01 X-69.8117 Y6.6794  
N14620 G01 X-69.8117 Y6.0206  
N14630 G01 X-69.6412 Y5.3844  
N14640 G01 X-69.3119 Y4.8139  
N14650 G01 X-68.8461 Y4.3481  
N14660 G01 X-68.2756 Y4.0188  
N14670 G01 X-67.6394 Y3.8483  
N14680 G01 X-66.9806 Y3.8483  
N14690 G01 X-66.3444 Y4.0188  
N14700 G01 X-65.7739 Y4.3481  
N00000 G00 Z3.0000  
N00010 G00 X-18.8619 Y14.6098 
N00020 G01 Z-0.0800 F254   
N00030 G01 X-18.4198 Y15.0519 F508   
N00040 G01 X-18.1071 Y15.5934 
N00050 G01 X-17.9453 Y16.1974 
N00060 G01 X-17.9453 Y16.8226 
N00070 G01 X-18.1071 Y17.4266 
N00080 G01 X-18.4198 Y17.9681 
N00090 G01 X-18.8619 Y18.4102 
N00100 G01 X-19.4034 Y18.7229 
N00110 G01 X-20.0074 Y18.8847 
N00120 G01 X-20.6326 Y18.8847 
N00130 G01 X-21.2366 Y18.7229 
N00140 G01 X-21.7781 Y18.4102 
N00150 G01 X-22.2202 Y17.9681 
N00160 G01 X-22.5329 Y17.4266 
N00170 G01 X-22.6947 Y16.8226 
N00180 G01 X-22.6947 Y16.1974 
N00190 G01 X-22.5329 Y15.5934 
N00200 G01 X-22.2202 Y15.0519 
N00210 G01 X-21.7781 Y14.6098 
N00220 G01 X-21.2366 Y14.2971 
N00230 G01 X-20.6326 Y14.1353 
N00240 G01 X-20.0074 Y14.1353 
N00250 G01 X-19.4034 Y14.2971 
N00260 G01 X-18.8619 Y14.6098 
N00270 G00 Z3.0000  
N00280 G00 X-35.3719 Y14.6098 
N00290 G01 Z-0.0800 F254   
N00300 G01 X-34.9298 Y15.0519 F508   
N00310 G01 X-34.6171 Y15.5934 
N00320 G01 X-34.4553 Y16.1974 
N00330 G01 X-34.4553 Y16.8226 
N00340 G01 X-34.6171 Y17.4266 
N00350 G01 X-34.9298 Y17.9681 
N00360 G01 X-35.3719 Y18.4102 
N00370 G01 X-35.9134 Y18.7229 
N00380 G01 X-36.5174 Y18.8847 
N00390 G01 X-37.1426 Y18.8847 
N00400 G01 X-37.7466 Y18.7229 
N00410 G01 X-38.2881 Y18.4102 
N00420 G01 X-38.7302 Y17.9681 
N00430 G01 X-39.0429 Y17.4266 
N00440 G01 X-39.2047 Y16.8226 
N00450 G01 X-39.2047 Y16.1974 
N00460 G01 X-39.0429 Y15.5934 
N00470 G01 X-38.7302 Y15.0519 
N00480 G01 X-38.2881 Y14.6098 
N00490 G01 X-37.7466 Y14.2971 
N00500 G01 X-37.1426 Y14.1353 
N00510 G01 X-36.5174 Y14.1353 
N00520 G01 X-35.9134 Y14.2971 
N00530 G01 X-35.3719 Y14.6098 
N00540 G00 Z3.0000  
N00550 G00 X-50.6119 Y24.7698 
N00560 G01 Z-0.0800 F254   
N00570 G01 X-50.1698 Y25.2119 F508   
N00580 G01 X-49.8571 Y25.7534 
N00590 G01 X-49.6953 Y26.3574 
N00600 G01 X-49.6953 Y26.9826 
N00610 G01 X-49.8571 Y27.5866 
N00620 G01 X-50.1698 Y28.1281 
N00630 G01 X-50.6119 Y28.5702 
N00640 G01 X-51.1534 Y28.8829 
N00650 G01 X-51.7574 Y29.0447 
N00660 G01 X-52.3826 Y29.0447 
N00670 G01 X-52.9866 Y28.8829 
N00680 G01 X-53.5281 Y28.5702 
N00690 G01 X-53.9702 Y28.1281 
N00700 G01 X-54.2829 Y27.5866 
N00710 G01 X-54.4447 Y26.9826 
N00720 G01 X-54.4447 Y26.3574 
N00730 G01 X-54.2829 Y25.7534 
N00740 G01 X-53.9702 Y25.2119 
N00750 G01 X-53.5281 Y24.7698 
N00760 G01 X-52.9866 Y24.4571 
N00770 G01 X-52.3826 Y24.2953 
N00780 G01 X-51.7574 Y24.2953 
N00790 G01 X-51.1534 Y24.4571 
N00800 G01 X-50.6119 Y24.7698 
N00810 G00 Z3.0000  
N00820 G00 X-65.4098 Y7.8081  
N00830 G01 Z-0.0800 F254   
N00840 G01 X-65.8519 Y8.2502  F508   
N00850 G01 X-66.3934 Y8.5629  
N00860 G01 X-66.9974 Y8.7247  
N00870 G01 X-67.6226 Y8.7247  
N00880 G01 X-68.2266 Y8.5629  
N00890 G01 X-68.7681 Y8.2502  
N00900 G01 X-69.2102 Y7.8081  
N00910 G01 X-69.5229 Y7.2666  
N00920 G01 X-69.6847 Y6.6626  
N00930 G01 X-69.6847 Y6.0374  
N00940 G01 X-69.5229 Y5.4334  
N00950 G01 X-69.2102 Y4.8919  
N00960 G01 X-68.7681 Y4.4498  
N00970 G01 X-68.2266 Y4.1371  
N00980 G01 X-67.6226 Y3.9753  
N00990 G01 X-66.9974 Y3.9753  
N01000 G01 X-66.3934 Y4.1371  
N01010 G01 X-65.8519 Y4.4498  
N01020 G01 X-65.4098 Y4.8919  
N01030 G01 X-65.0971 Y5.4334  
N01040 G01 X-64.9353 Y6.0374  
N01050 G01 X-64.9353 Y6.6626  
N01060 G01 X-65.0971 Y7.2666  
N01070 G01 X-65.4098 Y7.8081  
N00000 G00 Z3.0000  
N00010 G00 X-18.9399 Y14.7114 
N00020 G01 Z-0.0800 F254   
N00030 G01 X-18.5214 Y15.1299 F508   
N00040 G01 X-18.2255 Y15.6424 
N00050 G01 X-18.0723 Y16.2141 
N00060 G01 X-18.0723 Y16.8059 
N00070 G01 X-18.2255 Y17.3776 
N00080 G01 X-18.5214 Y17.8901 
N00090 G01 X-18.9399 Y18.3086 
N00100 G01 X-19.4524 Y18.6045 
N00110 G01 X-20.0241 Y18.7577 
N00120 G01 X-20.6159 Y18.7577 
N00130 G01 X-21.1876 Y18.6045 
N00140 G01 X-21.7001 Y18.3086 
N00150 G01 X-22.1186 Y17.8901 
N00160 G01 X-22.4145 Y17.3776 
N00170 G01 X-22.5677 Y16.8059 
N00180 G01 X-22.5677 Y16.2141 
N00190 G01 X-22.4145 Y15.6424 
N00200 G01 X-22.1186 Y15.1299 
N00210 G01 X-21.7001 Y14.7114 
N00220 G01 X-21.1876 Y14.4155 
N00230 G01 X-20.6159 Y14.2623 
N00240 G01 X-20.0241 Y14.2623 
N00250 G01 X-19.4524 Y14.4155 
N00260 G01 X-18.9399 Y14.7114 
N00270 G00 Z3.0000  
N00280 G00 X-35.4499 Y14.7114 
N00290 G01 Z-0.0800 F254   
N00300 G01 X-35.0314 Y15.1299 F508   
N00310 G01 X-34.7355 Y15.6424 
N00320 G01 X-34.5823 Y16.2141 
N00330 G01 X-34.5823 Y16.8059 
N00340 G01 X-34.7355 Y17.3776 
N00350 G01 X-35.0314 Y17.8901 
N00360 G01 X-35.4499 Y18.3086 
N00370 G01 X-35.9624 Y18.6045 
N00380 G01 X-36.5341 Y18.7577 
N00390 G01 X-37.1259 Y18.7577 
N00400 G01 X-37.6976 Y18.6045 
N00410 G01 X-38.2101 Y18.3086 
N00420 G01 X-38.6286 Y17.8901 
N00430 G01 X-38.9245 Y17.3776 
N00440 G01 X-39.0777 Y16.8059 
N00450 G01 X-39.0777 Y16.2141 
N00460 G01 X-38.9245 Y15.6424 
N00470 G01 X-38.6286 Y15.1299 
N00480 G01 X-38.2101 Y14.7114 
N00490 G01 X-37.6976 Y14.4155 
N00500 G01 X-37.1259 Y14.2623 
N00510 G01 X-36.5341 Y14.2623 
N00520 G01 X-35.9624 Y14.4155 
N00530 G01 X-35.4499 Y14.7114 
N00540 G00 Z3.0000  
N00550 G00 X-50.6899 Y24.8714 
N00560 G01 Z-0.0800 F254   
N00570 G01 X-50.2714 Y25.2899 F508   
N00580 G01 X-49.9755 Y25.8024 
N00590 G01 X-49.8223 Y26.3741 
N00600 G01 X-49.8223 Y26.9659 
N00610 G01 X-49.9755 Y27.5376 
N00620 G01 X-50.2714 Y28.0501 
N00630 G01 X-50.6899 Y28.4686 
N00640 G01 X-51.2024 Y28.7645 
N00650 G01 X-51.7741 Y28.9177 
N00660 G01 X-52.3659 Y28.9177 
N00670 G01 X-52.9376 Y28.7645 
N00680 G01 X-53.4501 Y28.4686 
N00690 G01 X-53.8686 Y28.0501 
N00700 G01 X-54.1645 Y27.5376 
N00710 G01 X-54.3177 Y26.9659 
N00720 G01 X-54.3177 Y26.3741 
N00730 G01 X-54.1645 Y25.8024 
N00740 G01 X-53.8686 Y25.2899 
N00750 G01 X-53.4501 Y24.8714 
N00760 G01 X-52.9376 Y24.5755 
N00770 G01 X-52.3659 Y24.4223 
N00780 G01 X-51.7741 Y24.4223 
N00790 G01 X-51.2024 Y24.5755 
N00800 G01 X-50.6899 Y24.8714 
N00810 G00 Z3.0000  
N00820 G00 X-65.5114 Y7.7301  
N00830 G01 Z-0.0800 F254   
N00840 G01 X-65.9299 Y8.1486  F508   
N00850 G01 X-66.4424 Y8.4445  
N00860 G01 X-67.0141 Y8.5977  
N00870 G01 X-67.6059 Y8.5977  
N00880 G01 X-68.1776 Y8.4445  
N00890 G01 X-68.6901 Y8.1486  
N00900 G01 X-69.1086 Y7.7301  
N00910 G01 X-69.4045 Y7.2176  
N00920 G01 X-69.5577 Y6.6459  
N00930 G01 X-69.5577 Y6.0541  
N00940 G01 X-69.4045 Y5.4824  
N00950 G01 X-69.1086 Y4.9699  
N00960 G01 X-68.6901 Y4.5514  
N00970 G01 X-68.1776 Y4.2555  
N00980 G01 X-67.6059 Y4.1023  
N00990 G01 X-67.0141 Y4.1023  
N01000 G01 X-66.4424 Y4.2555  
N01010 G01 X-65.9299 Y4.5514  
N01020 G01 X-65.5114 Y4.9699  
N01030 G01 X-65.2155 Y5.4824  
N01040 G01 X-65.0623 Y6.0541  
N01050 G01 X-65.0623 Y6.6459  
N01060 G01 X-65.2155 Y7.2176  
N01070 G01 X-65.5114 Y7.7301  
N00000 G00 Z3.0000  
N00010 G00 X-19.0179 Y14.8130 
N00020 G01 Z-0.0800 F254   
N00030 G01 X-18.6230 Y15.2079 F508   
N00040 G01 X-18.3438 Y15.6914 
N00050 G01 X-18.1993 Y16.2308 
N00060 G01 X-18.1993 Y16.7892 
N00070 G01 X-18.3438 Y17.3286 
N00080 G01 X-18.6230 Y17.8121 
N00090 G01 X-19.0179 Y18.2070 
N00100 G01 X-19.5014 Y18.4862 
N00110 G01 X-20.0408 Y18.6307 
N00120 G01 X-20.5992 Y18.6307 
N00130 G01 X-21.1386 Y18.4862 
N00140 G01 X-21.6221 Y18.2070 
N00150 G01 X-22.0170 Y17.8121 
N00160 G01 X-22.2962 Y17.3286 
N00170 G01 X-22.4407 Y16.7892 
N00180 G01 X-22.4407 Y16.2308 
N00190 G01 X-22.2962 Y15.6914 
N00200 G01 X-22.0170 Y15.2079 
N00210 G01 X-21.6221 Y14.8130 
N00220 G01 X-21.1386 Y14.5338 
N00230 G01 X-20.5992 Y14.3893 
N00240 G01 X-20.0408 Y14.3893 
N00250 G01 X-19.5014 Y14.5338 
N00260 G01 X-19.0179 Y14.8130 
N00270 G00 Z3.0000  
N00280 G00 X-35.5279 Y14.8130 
N00290 G01 Z-0.0800 F254   
N00300 G01 X-35.1330 Y15.2079 F508   
N00310 G01 X-34.8538 Y15.6914 
N00320 G01 X-34.7093 Y16.2308 
N00330 G01 X-34.7093 Y16.7892 
N00340 G01 X-34.8538 Y17.3286 
N00350 G01 X-35.1330 Y17.8121 
N00360 G01 X-35.5279 Y18.2070 
N00370 G01 X-36.0114 Y18.4862 
N00380 G01 X-36.5508 Y18.6307 
N00390 G01 X-37.1092 Y18.6307 
N00400 G01 X-37.6486 Y18.4862 
N00410 G01 X-38.1321 Y18.2070 
N00420 G01 X-38.5270 Y17.8121 
N00430 G01 X-38.8062 Y17.3286 
N00440 G01 X-38.9507 Y16.7892 
N00450 G01 X-38.9507 Y16.2308 
N00460 G01 X-38.8062 Y15.6914 
N00470 G01 X-38.5270 Y15.2079 
N00480 G01 X-38.1321 Y14.8130 
N00490 G01 X-37.6486 Y14.5338 
N00500 G01 X-37.1092 Y14.3893 
N00510 G01 X-36.5508 Y14.3893 
N00520 G01 X-36.0114 Y14.5338 
N00530 G01 X-35.5279 Y14.8130 
N00540 G00 Z3.0000  
N00550 G00 X-50.7679 Y24.9730 
N00560 G01 Z-0.0800 F254   
N00570 G01 X-50.3730 Y25.3679 F508   
N00580 G01 X-50.0938 Y25.8514 
N00590 G01 X-49.9493 Y26.3908 
N00600 G01 X-49.9493 Y26.9492 
N00610 G01 X-50.0938 Y27.4886 
N00620 G01 X-50.3730 Y27.9721 
N00630 G01 X-50.7679 Y28.3670 
N00640 G01 X-51.2514 Y28.6462 
N00650 G01 X-51.7908 Y28.7907 
N00660 G01 X-52.3492 Y28.7907 
N00670 G01 X-52.8886 Y28.6462 
N00680 G01 X-53.3721 Y28.3670 
N00690 G01 X-53.7670 Y27.9721 
N00700 G01 X-54.0462 Y27.4886 
N00710 G01 X-54.1907 Y26.9492 
N00720 G01 X-54.1907 Y26.3908 
N00730 G01 X-54.0462 Y25.8514 
N00740 G01 X-53.7670 Y25.3679 
N00750 G01 X-53.3721 Y24.9730 
N00760 G01 X-52.8886 Y24.6938 
N00770 G01 X-52.3492 Y24.5493 
N00780 G01 X-51.7908 Y24.5493 
N00790 G01 X-51.2514 Y24.6938 
N00800 G01 X-50.7679 Y24.9730 
N00810 G00 Z3.0000  
N00820 G00 X-65.6130 Y7.6521  
N00830 G01 Z-0.0800 F254   
N00840 G01 X-66.0079 Y8.0470  F508   
N00850 G01 X-66.4914 Y8.3262  
N00860 G01 X-67.0308 Y8.4707  
N00870 G01 X-67.5892 Y8.4707  
N00880 G01 X-68.1286 Y8.3262  
N00890 G01 X-68.6121 Y8.0470  
N00900 G01 X-69.0070 Y7.6521  
N00910 G01 X-69.2862 Y7.1686  
N00920 G01 X-69.4307 Y6.6292  
N00930 G01 X-69.4307 Y6.0708  
N00940 G01 X-69.2862 Y5.5314  
N00950 G01 X-69.0070 Y5.0479  
N00960 G01 X-68.6121 Y4.6530  
N00970 G01 X-68.1286 Y4.3738  
N00980 G01 X-67.5892 Y4.2293  
N00990 G01 X-67.0308 Y4.2293  
N01000 G01 X-66.4914 Y4.3738  
N01010 G01 X-66.0079 Y4.6530  
N01020 G01 X-65.6130 Y5.0479  
N01030 G01 X-65.3338 Y5.5314  
N01040 G01 X-65.1893 Y6.0708  
N01050 G01 X-65.1893 Y6.6292  
N01060 G01 X-65.3338 Y7.1686  
N01070 G01 X-65.6130 Y7.6521  
N00000 G00 Z3.0000  
N00010 G00 X-19.0958 Y14.9146 
N00020 G01 Z-0.0800 F254   
N00030 G01 X-18.7246 Y15.2858 F508   
N00040 G01 X-18.4622 Y15.7405 
N00050 G01 X-18.3263 Y16.2475 
N00060 G01 X-18.3263 Y16.7725 
N00070 G01 X-18.4622 Y17.2795 
N00080 G01 X-18.7246 Y17.7342 
N00090 G01 X-19.0958 Y18.1054 
N00100 G01 X-19.5505 Y18.3678 
N00110 G01 X-20.0575 Y18.5037 
N00120 G01 X-20.5825 Y18.5037 
N00130 G01 X-21.0895 Y18.3678 
N00140 G01 X-21.5442 Y18.1054 
N00150 G01 X-21.9154 Y17.7342 
N00160 G01 X-22.1778 Y17.2795 
N00170 G01 X-22.3137 Y16.7725 
N00180 G01 X-22.3137 Y16.2475 
N00190 G01 X-22.1778 Y15.7405 
N00200 G01 X-21.9154 Y15.2858 
N00210 G01 X-21.5441 Y14.9146 
N00220 G01 X-21.0895 Y14.6522 
N00230 G01 X-20.5825 Y14.5163 
N00240 G01 X-20.0575 Y14.5163 
N00250 G01 X-19.5505 Y14.6522 
N00260 G01 X-19.0958 Y14.9146 
N00270 G00 Z3.0000  
N00280 G00 X-35.6058 Y14.9146 
N00290 G01 Z-0.0800 F254   
N00300 G01 X-35.2346 Y15.2858 F508   
N00310 G01 X-34.9722 Y15.7405 
N00320 G01 X-34.8363 Y16.2475 
N00330 G01 X-34.8363 Y16.7725 
N00340 G01 X-34.9722 Y17.2795 
N00350 G01 X-35.2346 Y17.7342 
N00360 G01 X-35.6058 Y18.1054 
N00370 G01 X-36.0605 Y18.3678 
N00380 G01 X-36.5675 Y18.5037 
N00390 G01 X-37.0925 Y18.5037 
N00400 G01 X-37.5995 Y18.3678 
N00410 G01 X-38.0542 Y18.1054 
N00420 G01 X-38.4254 Y17.7342 
N00430 G01 X-38.6878 Y17.2795 
N00440 G01 X-38.8237 Y16.7725 
N00450 G01 X-38.8237 Y16.2475 
N00460 G01 X-38.6878 Y15.7405 
N00470 G01 X-38.4254 Y15.2858 
N00480 G01 X-38.0541 Y14.9146 
N00490 G01 X-37.5995 Y14.6522 
N00500 G01 X-37.0925 Y14.5163 
N00510 G01 X-36.5675 Y14.5163 
N00520 G01 X-36.0605 Y14.6522 
N00530 G01 X-35.6058 Y14.9146 
N00540 G00 Z3.0000  
N00550 G00 X-50.8458 Y25.0746 
N00560 G01 Z-0.0800 F254   
N00570 G01 X-50.4746 Y25.4458 F508   
N00580 G01 X-50.2122 Y25.9004 
N00590 G01 X-50.0763 Y26.4075 
N00600 G01 X-50.0763 Y26.9325 
N00610 G01 X-50.2122 Y27.4395 
N00620 G01 X-50.4746 Y27.8941 
N00630 G01 X-50.8458 Y28.2654 
N00640 G01 X-51.3005 Y28.5278 
N00650 G01 X-51.8075 Y28.6637 
N00660 G01 X-52.3325 Y28.6637 
N00670 G01 X-52.8395 Y28.5278 
N00680 G01 X-53.2942 Y28.2654 
N00690 G01 X-53.6654 Y27.8941 
N00700 G01 X-53.9278 Y27.4395 
N00710 G01 X-54.0637 Y26.9325 
N00720 G01 X-54.0637 Y26.4075 
N00730 G01 X-53.9278 Y25.9005 
N00740 G01 X-53.6654 Y25.4458 
N00750 G01 X-53.2942 Y25.0746 
N00760 G01 X-52.8395 Y24.8122 
N00770 G01 X-52.3325 Y24.6763 
N00780 G01 X-51.8075 Y24.6763 
N00790 G01 X-51.3005 Y24.8122 
N00800 G01 X-50.8458 Y25.0746 
N00810 G00 Z3.0000  
N00820 G00 X-65.7146 Y7.5742  
N00830 G01 Z-0.0800 F254   
N00840 G01 X-66.0858 Y7.9454  F508   
N00850 G01 X-66.5405 Y8.2078  
N00860 G01 X-67.0475 Y8.3437  
N00870 G01 X-67.5725 Y8.3437  
N00880 G01 X-68.0795 Y8.2078  
N00890 G01 X-68.5342 Y7.9454  
N00900 G01 X-68.9054 Y7.5742  
N00910 G01 X-69.1678 Y7.1195  
N00920 G01 X-69.3037 Y6.6125  
N00930 G01 X-69.3037 Y6.0875  
N00940 G01 X-69.1678 Y5.5805  
N00950 G01 X-68.9054 Y5.1258  
N00960 G01 X-68.5341 Y4.7546  
N00970 G01 X-68.0795 Y4.4922  
N00980 G01 X-67.5725 Y4.3563  
N00990 G01 X-67.0475 Y4.3563  
N01000 G01 X-66.5405 Y4.4922  
N01010 G01 X-66.0858 Y4.7546  
N01020 G01 X-65.7146 Y5.1258  
N01030 G01 X-65.4522 Y5.5805  
N01040 G01 X-65.3163 Y6.0875  
N01050 G01 X-65.3163 Y6.6125  
N01060 G01 X-65.4522 Y7.1195  
N01070 G01 X-65.7146 Y7.5742  
N01080 G00 Z3.0000  
N01090 G00 X-36.8300 Y16.5100 
N01100 G01 Z-1.3970 F508   
N01110 G00 Z3.0000  
N01120 G00 X-20.3200 Y16.5100 
N01130 G01 Z-1.3970 F508   
N01140 G00 Z3.0000  
N01150 G00 X-52.0700 Y26.6700 
N01160 G01 Z-1.3970 F508   
N01170 G00 Z3.0000  
N01180 G00 X-67.3100 Y6.3500  
N01190 G01 Z-1.3970 F508   
N01200 G00 Z3.0000  
N01210 G00 X-60.9600 Y25.4000 
N01220 G01 Z-1.3970 F508   
N01230 G00 Z3.0000  
N01240 G00 X-58.4200 Y25.4000 
N01250 G01 Z-1.3970 F508   
N01260 G00 Z3.0000  
N01270 G00 X-60.9600 Y17.7800 
N01280 G01 Z-1.3970 F508   
N01290 G00 Z3.0000  
N01300 G00 X-58.4200 Y17.7800 
N01310 G01 Z-1.3970 F508   
N01320 G00 Z3.0000  
N01330 G00 X-59.6900 Y6.3500  
N01340 G01 Z-1.3970 F508   
N01350 G00 Z3.0000  
N01360 G00 X-60.9600 Y4.4450  
N01370 G01 Z-1.3970 F508   
N01380 G00 Z3.0000  
N01390 G00 X-62.2300 Y6.3500  
N01400 G01 Z-1.3970 F508   
N01410 G00 Z3.0000  
N01420 G00 X-21.5900 Y6.3500  
N01430 G01 Z-1.3970 F508   
N01440 G00 Z3.0000  
N01450 G00 X-24.1300 Y6.3500  
N01460 G01 Z-1.3970 F508   
N01470 G00 Z3.0000  
N01480 G00 X-26.6700 Y6.3500  
N01490 G01 Z-1.3970 F508   
N01500 G00 Z3.0000  
N01510 G00 X-29.2100 Y6.3500  
N01520 G01 Z-1.3970 F508   
N01530 G00 Z3.0000  
N01540 G00 X-31.7500 Y6.3500  
N01550 G01 Z-1.3970 F508   
N01560 G00 Z3.0000  
N01570 G00 X-34.2900 Y6.3500  
N01580 G01 Z-1.3970 F508   
N01590 G00 Z3.0000  
N01600 G00 X-36.8300 Y6.3500  
N01610 G01 Z-1.3970 F508   
N01620 G00 Z3.0000  
N01630 G00 X-21.5900 Y26.6700 
N01640 G01 Z-1.3970 F508   
N01650 G00 Z3.0000  
N01660 G00 X-24.1300 Y26.6700 
N01670 G01 Z-1.3970 F508   
N01680 G00 Z3.0000  
N01690 G00 X-26.6700 Y26.6700 
N01700 G01 Z-1.3970 F508   
N01710 G00 Z3.0000  
N01720 G00 X-29.2100 Y26.6700 
N01730 G01 Z-1.3970 F508   
N01740 G00 Z3.0000  
N01750 G00 X-31.7500 Y26.6700 
N01760 G01 Z-1.3970 F508   
N01770 G00 Z3.0000  
N01780 G00 X-34.2900 Y26.6700 
N01790 G01 Z-1.3970 F508   
N01800 G00 Z3.0000  
N01810 G00 X-36.8300 Y26.6700 
N01820 G01 Z-1.3970 F508   
N01830 G00 Z3.0000  
N01840 G00 X-12.7000 Y13.9700 
N01850 G01 Z-1.3970 F508   
N01860 G00 Z3.0000  
N01870 G00 X-10.1600 Y13.9700 
N01880 G01 Z-1.3970 F508   
N01890 G00 Z3.0000  
N01900 G00 X-7.6200 Y13.9700 
N01910 G01 Z-1.3970 F508   
N01920 G00 Z3.0000  
N01930 G00 X-52.0700 Y11.4300 
N01940 G01 Z-1.3970 F508   
N01950 G00 Z3.0000  
N01960 G00 X-52.0700 Y8.8900  
N01970 G01 Z-1.3970 F508   
N01980 G00 Z3.0000  
N01990 G00 X-52.0700 Y6.3500  
N02000 G01 Z-1.3970 F508   
N02010 G00 Z3.0000  
N02020 G00 Z12.0000 
N02030 M05
N02040 M02
