N00000 (.../pcb-gcode-3.6.2.4/pcb-gcode.ulp)
N00010 (Copyright 2005 - 2012 by John Johnson)
N00020 (See readme.txt for licensing terms.)
N00030 (This file generated from the board:)
N00040 (.../Q-Berry2/BreakOut/14 pin sop.brd)
N00050 (Current profile is .../pcb-gcode-3.6.2.4/profiles/mach.pp  )
N00060 (This file generated 4/12/2015 7:52:38 PM)
N00070 (Settings from pcb-machine.h)
N00080 (spindle on time = 3.0000)
N00090 (  Tool Size)
N00100 (0.1778  )
N00110 (spindle speed = 30000.0000)
N00120 (tool change at 0.0000  0.0000  25.4000 )
N00130 (feed rate xy = F508   )
N00140 (feed rate z  = F254   )
N00150 (Z Axis Settings)
N00160 (  High     Up        Down     Drill)
N00170 (12.0000 	3.0000  	-0.0800 	-2.5400 )
N00180 (Settings from pcb-defaults.h)
N00190 (isolate min = 0.0254)
N00200 (isolate max = 0.5080)
N00210 (isolate step = 0.1270)
N00220 (Generated top outlines, top drill, bottom outlines, bottom drill, )
N00230 (Unit of measure: mm)
N00240 (Metric Mode)
N00250 G21
N00260 (Absolute Coordinates)
N00270 G90
N00280 S30000
N00290 G00 Z12.0000 
N00300 G00 X0.0000  Y0.0000  
N00310 M03
N00320 G04 P3.000000
N00330 G00 Z3.0000  
N00340 G00 X9.2021  Y4.8103  
N00350 G01 Z-0.0800 F254   
N00360 G01 X9.8179  Y4.8103  F508   
N00370 G01 X9.9650  Y4.9575  
N00380 G01 X10.0358 Y4.9984  
N00390 G01 X10.0409 Y5.0002  
N00400 G01 X10.1182 Y5.0209  
N00410 G01 X10.2018 Y5.0209  
N00420 G01 X10.2825 Y4.9993  
N00430 G01 X10.3096 Y4.9836  
N00440 G01 X10.3549 Y4.9575  
N00450 G01 X10.4141 Y4.8984  
N00460 G01 X10.5021 Y4.8103  
N00470 G01 X11.1179 Y4.8103  
N00480 G01 X11.1997 Y4.8921  
N00490 G01 X11.1997 Y4.9125  
N00500 G01 X11.1970 Y4.9362  
N00510 G01 X11.1997 Y4.9541  
N00520 G01 X11.1997 Y4.9722  
N00530 G01 X11.2059 Y4.9953  
N00540 G01 X11.2094 Y5.0188  
N00550 G01 X11.2166 Y5.0355  
N00560 G01 X11.2213 Y5.0530  
N00570 G01 X11.2333 Y5.0736  
N00580 G01 X11.2428 Y5.0955  
N00590 G01 X11.2541 Y5.1097  
N00600 G01 X11.2631 Y5.1254  
N00610 G01 X11.2800 Y5.1422  
N00620 G01 X11.2949 Y5.1609  
N00630 G01 X11.3094 Y5.1717  
N00640 G01 X11.3222 Y5.1845  
N00650 G01 X11.3429 Y5.1964  
N00660 G01 X11.3465 Y5.1990  
N00670 G01 X11.3650 Y5.2311  
N00680 G01 X11.3685 Y5.2356  
N00690 G01 X11.3967 Y5.2628  
N00700 G01 X12.7620 Y6.6281  
N00710 G01 X12.9827 Y6.8488  
N00720 G01 X13.0619 Y7.0402  
N00730 G01 X13.0619 Y12.1656 
N00740 G01 X13.0592 Y12.1865 
N00750 G01 X13.0619 Y12.2073 
N00760 G01 X13.0619 Y12.2282 
N00770 G01 X13.0674 Y12.2485 
N00780 G01 X13.0701 Y12.2694 
N00790 G01 X13.0782 Y12.2887 
N00800 G01 X13.0836 Y12.3090 
N00810 G01 X13.0941 Y12.3272 
N00820 G01 X13.1021 Y12.3466 
N00830 G01 X13.1149 Y12.3632 
N00840 G01 X13.1254 Y12.3814 
N00850 G01 X13.1402 Y12.3962 
N00860 G01 X13.1530 Y12.4129 
N00870 G01 X13.1697 Y12.4257 
N00880 G01 X13.1845 Y12.4405 
N00890 G01 X13.1937 Y12.4458 
N00900 G01 X13.4576 Y12.7097 
N00910 G01 X13.5937 Y13.0382 
N00920 G01 X13.5937 Y14.9018 
N00930 G01 X13.4576 Y15.2302 
N00940 G01 X13.2062 Y15.4816 
N00950 G01 X12.8778 Y15.6177 
N00960 G01 X12.5222 Y15.6177 
N00970 G01 X12.1937 Y15.4816 
N00980 G01 X11.9424 Y15.2302 
N00990 G01 X11.8063 Y14.9018 
N01000 G01 X11.8063 Y13.0382 
N01010 G01 X11.9423 Y12.7098 
N01020 G01 X11.9571 Y12.6950 
N01030 G01 X11.9624 Y12.6859 
N01040 G01 X11.9989 Y12.6226 
N01050 G01 X12.0134 Y12.5684 
N01060 G01 X12.0205 Y12.5419 
N01070 G01 X12.0205 Y12.4996 
N01080 G01 X12.0206 Y12.4583 
N01090 G01 X12.0205 Y7.4491  
N01100 G01 X11.9989 Y7.3684  
N01110 G01 X11.9571 Y7.2960  
N01120 G01 X11.1213 Y6.4601  
N01130 G01 X11.0621 Y6.4010  
N01140 G01 X10.9897 Y6.3592  
N01150 G01 X10.9090 Y6.3376  
N01160 G01 X10.8254 Y6.3376  
N01170 G01 X10.7446 Y6.3592  
N01180 G01 X10.6722 Y6.4010  
N01190 G01 X10.6141 Y6.4592  
N01200 G01 X10.5713 Y6.5325  
N01210 G01 X10.5497 Y6.6133  
N01220 G01 X10.5497 Y6.8126  
N01230 G01 X10.5470 Y6.8334  
N01240 G01 X10.5497 Y6.8542  
N01250 G01 X10.5497 Y6.8752  
N01260 G01 X10.5551 Y6.8955  
N01270 G01 X10.5579 Y6.9163  
N01280 G01 X10.5659 Y6.9357  
N01290 G01 X10.5713 Y6.9559  
N01300 G01 X10.5818 Y6.9741  
N01310 G01 X10.6553 Y7.1515  
N01320 G01 X10.6553 Y12.3577 
N01330 G01 X10.6769 Y12.4385 
N01340 G01 X10.7187 Y12.5108 
N01350 G01 X10.9176 Y12.7097 
N01360 G01 X11.0537 Y13.0382 
N01370 G01 X11.0537 Y14.9018 
N01380 G01 X10.9176 Y15.2302 
N01390 G01 X10.6662 Y15.4816 
N01400 G01 X10.3378 Y15.6177 
N01410 G01 X9.9822  Y15.6177 
N01420 G01 X9.6538  Y15.4816 
N01430 G01 X9.4024  Y15.2302 
N01440 G01 X9.2663  Y14.9018 
N01450 G01 X9.2663  Y13.0382 
N01460 G01 X9.4024  Y12.7097 
N01470 G01 X9.5421  Y12.5700 
N01480 G01 X9.6013  Y12.5108 
N01490 G01 X9.6431  Y12.4385 
N01500 G01 X9.6647  Y12.3577 
N01510 G01 X9.6647  Y7.1515  
N01520 G01 X9.7382  Y6.9741  
N01530 G01 X9.7487  Y6.9559  
N01540 G01 X9.7541  Y6.9357  
N01550 G01 X9.7621  Y6.9163  
N01560 G01 X9.7649  Y6.8955  
N01570 G01 X9.7703  Y6.8752  
N01580 G01 X9.7703  Y6.8542  
N01590 G01 X9.7730  Y6.8334  
N01600 G01 X9.7703  Y6.8126  
N01610 G01 X9.7703  Y6.6133  
N01620 G01 X9.7487  Y6.5325  
N01630 G01 X9.7069  Y6.4601  
N01640 G01 X9.6477  Y6.4010  
N01650 G01 X9.5754  Y6.3592  
N01660 G01 X9.4946  Y6.3376  
N01670 G01 X9.4110  Y6.3376  
N01680 G01 X9.3302  Y6.3592  
N01690 G01 X9.2578  Y6.4010  
N01700 G01 X8.3629  Y7.2960  
N01710 G01 X8.3216  Y7.3675  
N01720 G01 X8.2994  Y7.4491  
N01730 G01 X8.2994  Y12.4583 
N01740 G01 X8.2994  Y12.5005 
N01750 G01 X8.2994  Y12.5419 
N01760 G01 X8.3071  Y12.5702 
N01770 G01 X8.3211  Y12.6226 
N01780 G01 X8.3587  Y12.6877 
N01790 G01 X8.3629  Y12.6950 
N01800 G01 X8.3776  Y12.7098 
N01810 G01 X8.5137  Y13.0382 
N01820 G01 X8.5137  Y14.9018 
N01830 G01 X8.3776  Y15.2302 
N01840 G01 X8.1262  Y15.4816 
N01850 G01 X7.7978  Y15.6177 
N01860 G01 X7.4422  Y15.6177 
N01870 G01 X7.1137  Y15.4816 
N01880 G01 X6.8624  Y15.2302 
N01890 G01 X6.7263  Y14.9018 
N01900 G01 X6.7263  Y13.0382 
N01910 G01 X6.8624  Y12.7097 
N01920 G01 X7.1263  Y12.4458 
N01930 G01 X7.1355  Y12.4405 
N01940 G01 X7.1503  Y12.4257 
N01950 G01 X7.1670  Y12.4129 
N01960 G01 X7.1798  Y12.3962 
N01970 G01 X7.1946  Y12.3814 
N01980 G01 X7.2051  Y12.3632 
N01990 G01 X7.2179  Y12.3466 
N02000 G01 X7.2259  Y12.3272 
N02010 G01 X7.2364  Y12.3090 
N02020 G01 X7.2418  Y12.2887 
N02030 G01 X7.2499  Y12.2694 
N02040 G01 X7.2526  Y12.2485 
N02050 G01 X7.2580  Y12.2282 
N02060 G01 X7.2580  Y12.2073 
N02070 G01 X7.2608  Y12.1865 
N02080 G01 X7.2580  Y12.1656 
N02090 G01 X7.2580  Y7.0402  
N02100 G01 X7.3373  Y6.8488  
N02110 G01 X7.4989  Y6.6872  
N02120 G01 X8.9233  Y5.2628  
N02130 G01 X8.9515  Y5.2356  
N02140 G01 X8.9550  Y5.2311  
N02150 G01 X8.9735  Y5.1990  
N02160 G01 X8.9771  Y5.1964  
N02170 G01 X8.9977  Y5.1845  
N02180 G01 X9.0106  Y5.1717  
N02190 G01 X9.0251  Y5.1609  
N02200 G01 X9.0400  Y5.1422  
N02210 G01 X9.0569  Y5.1254  
N02220 G01 X9.0659  Y5.1097  
N02230 G01 X9.0772  Y5.0955  
N02240 G01 X9.0867  Y5.0736  
N02250 G01 X9.0987  Y5.0530  
N02260 G01 X9.1033  Y5.0354  
N02270 G01 X9.1106  Y5.0188  
N02280 G01 X9.1141  Y4.9952  
N02290 G01 X9.1203  Y4.9722  
N02300 G01 X9.1203  Y4.9541  
N02310 G01 X9.1230  Y4.9362  
N02320 G01 X9.1203  Y4.9125  
N02330 G01 X9.1203  Y4.8921  
N02340 G01 X9.2021  Y4.8103  
N02350 G00 Z3.0000  
N02360 G00 X9.1953  Y4.8531  
N02370 G01 Z-0.0800 F254   
N02380 G01 X9.1631  Y4.8853  F508   
N02390 G01 X9.1457  Y4.9273  
N02400 G01 X9.1457  Y5.1034  
N02410 G01 X9.0944  Y5.1413  
N02420 G01 X9.0621  Y5.1599  
N02430 G01 X9.0421  Y5.1799  
N02440 G01 X9.0194  Y5.1967  
N02450 G01 X8.9962  Y5.2258  
N02460 G01 X7.4746  Y6.7474  
N02470 G01 X7.3824  Y6.8396  
N02480 G01 X7.3172  Y6.9526  
N02490 G01 X7.2835  Y7.0785  
N02500 G01 X7.2835  Y12.4156 
N02510 G01 X7.2087  Y12.4465 
N02520 G01 X7.0665  Y12.5415 
N02530 G01 X6.9455  Y12.6625 
N02540 G01 X6.8505  Y12.8047 
N02550 G01 X6.7851  Y12.9627 
N02560 G01 X6.7517  Y13.1305 
N02570 G01 X6.7517  Y14.8095 
N02580 G01 X6.7851  Y14.9773 
N02590 G01 X6.8505  Y15.1353 
N02600 G01 X6.9455  Y15.2775 
N02610 G01 X7.0665  Y15.3985 
N02620 G01 X7.2087  Y15.4935 
N02630 G01 X7.3667  Y15.5589 
N02640 G01 X7.5345  Y15.5923 
N02650 G01 X7.7055  Y15.5923 
N02660 G01 X7.8733  Y15.5589 
N02670 G01 X8.0313  Y15.4935 
N02680 G01 X8.1735  Y15.3985 
N02690 G01 X8.2944  Y15.2775 
N02700 G01 X8.3895  Y15.1353 
N02710 G01 X8.4549  Y14.9773 
N02720 G01 X8.4883  Y14.8095 
N02730 G01 X8.4883  Y13.1305 
N02740 G01 X8.4549  Y12.9627 
N02750 G01 X8.3895  Y12.8047 
N02760 G01 X8.2944  Y12.6625 
N02770 G01 X8.2740  Y12.6421 
N02780 G01 X8.2740  Y7.3489  
N02790 G01 X9.5587  Y6.0643  
N02800 G01 X9.7827  Y6.0643  
N02810 G01 X9.8247  Y6.0469  
N02820 G01 X9.8569  Y6.0147  
N02830 G01 X9.8743  Y5.9727  
N02840 G01 X9.8743  Y5.7876  
N02850 G01 X9.9381  Y5.7075  
N02860 G01 X9.9901  Y5.5880  
N02870 G01 X10.0095 Y5.4590  
N02880 G01 X9.9948  Y5.3294  
N02890 G01 X9.9471  Y5.2080  
N02900 G01 X9.8743  Y5.1096  
N02910 G01 X9.8743  Y4.9273  
N02920 G01 X9.8569  Y4.8853  
N02930 G01 X9.8247  Y4.8531  
N02940 G01 X9.7827  Y4.8357  
N02950 G01 X9.2373  Y4.8357  
N02960 G01 X9.1953  Y4.8531  
N02970 G00 Z3.0000  
N02980 G00 X10.4631 Y4.8853  
N02990 G01 Z-0.0800 F254   
N03000 G01 X10.4457 Y4.9273  F508   
N03010 G01 X10.4457 Y5.1096  
N03020 G01 X10.3729 Y5.2080  
N03030 G01 X10.3252 Y5.3294  
N03040 G01 X10.3105 Y5.4590  
N03050 G01 X10.3299 Y5.5880  
N03060 G01 X10.3819 Y5.7075  
N03070 G01 X10.4457 Y5.7876  
N03080 G01 X10.4457 Y5.9727  
N03090 G01 X10.4631 Y6.0147  
N03100 G01 X10.4953 Y6.0469  
N03110 G01 X10.5373 Y6.0643  
N03120 G01 X10.7613 Y6.0643  
N03130 G01 X12.0459 Y7.3489  
N03140 G01 X12.0459 Y12.6421 
N03150 G01 X12.0255 Y12.6625 
N03160 G01 X11.9305 Y12.8047 
N03170 G01 X11.8651 Y12.9627 
N03180 G01 X11.8317 Y13.1305 
N03190 G01 X11.8317 Y14.8095 
N03200 G01 X11.8651 Y14.9773 
N03210 G01 X11.9305 Y15.1353 
N03220 G01 X12.0255 Y15.2775 
N03230 G01 X12.1465 Y15.3985 
N03240 G01 X12.2887 Y15.4935 
N03250 G01 X12.4467 Y15.5589 
N03260 G01 X12.6145 Y15.5923 
N03270 G01 X12.7855 Y15.5923 
N03280 G01 X12.9533 Y15.5589 
N03290 G01 X13.1113 Y15.4935 
N03300 G01 X13.2535 Y15.3985 
N03310 G01 X13.3744 Y15.2775 
N03320 G01 X13.4695 Y15.1353 
N03330 G01 X13.5349 Y14.9773 
N03340 G01 X13.5683 Y14.8095 
N03350 G01 X13.5683 Y13.1305 
N03360 G01 X13.5349 Y12.9627 
N03370 G01 X13.4695 Y12.8047 
N03380 G01 X13.3744 Y12.6625 
N03390 G01 X13.2535 Y12.5415 
N03400 G01 X13.1113 Y12.4465 
N03410 G01 X13.0365 Y12.4156 
N03420 G01 X13.0365 Y7.0785  
N03430 G01 X13.0028 Y6.9526  
N03440 G01 X12.9376 Y6.8396  
N03450 G01 X12.8454 Y6.7474  
N03460 G01 X11.3238 Y5.2258  
N03470 G01 X11.3006 Y5.1967  
N03480 G01 X11.2779 Y5.1799  
N03490 G01 X11.2579 Y5.1599  
N03500 G01 X11.2256 Y5.1413  
N03510 G01 X11.1743 Y5.1034  
N03520 G01 X11.1743 Y4.9273  
N03530 G01 X11.1569 Y4.8853  
N03540 G01 X11.1247 Y4.8531  
N03550 G01 X11.0827 Y4.8357  
N03560 G01 X10.5373 Y4.8357  
N03570 G01 X10.4953 Y4.8531  
N03580 G01 X10.4631 Y4.8853  
N03590 G00 Z3.0000  
N03600 G00 X10.4747 Y6.6531  
N03610 G01 Z-0.0800 F254   
N03620 G01 X10.4327 Y6.6357  F508   
N03630 G01 X9.8873  Y6.6357  
N03640 G01 X9.8453  Y6.6531  
N03650 G01 X9.8131  Y6.6853  
N03660 G01 X9.7957  Y6.7273  
N03670 G01 X9.7957  Y6.9498  
N03680 G01 X9.7840  Y6.9615  
N03690 G01 X9.7221  Y7.0686  
N03700 G01 X9.6901  Y7.1881  
N03710 G01 X9.6901  Y12.4857 
N03720 G01 X9.6065  Y12.5415 
N03730 G01 X9.4855  Y12.6625 
N03740 G01 X9.3905  Y12.8047 
N03750 G01 X9.3251  Y12.9627 
N03760 G01 X9.2917  Y13.1305 
N03770 G01 X9.2917  Y14.8095 
N03780 G01 X9.3251  Y14.9773 
N03790 G01 X9.3905  Y15.1353 
N03800 G01 X9.4855  Y15.2775 
N03810 G01 X9.6065  Y15.3985 
N03820 G01 X9.7487  Y15.4935 
N03830 G01 X9.9067  Y15.5589 
N03840 G01 X10.0745 Y15.5923 
N03850 G01 X10.2455 Y15.5923 
N03860 G01 X10.4133 Y15.5589 
N03870 G01 X10.5713 Y15.4935 
N03880 G01 X10.7135 Y15.3985 
N03890 G01 X10.8345 Y15.2775 
N03900 G01 X10.9295 Y15.1353 
N03910 G01 X10.9949 Y14.9773 
N03920 G01 X11.0283 Y14.8095 
N03930 G01 X11.0283 Y13.1305 
N03940 G01 X10.9949 Y12.9627 
N03950 G01 X10.9295 Y12.8047 
N03960 G01 X10.8345 Y12.6625 
N03970 G01 X10.7135 Y12.5415 
N03980 G01 X10.6299 Y12.4857 
N03990 G01 X10.6299 Y7.1881  
N04000 G01 X10.5979 Y7.0686  
N04010 G01 X10.5360 Y6.9615  
N04020 G01 X10.5243 Y6.9498  
N04030 G01 X10.5243 Y6.7273  
N04040 G01 X10.5069 Y6.6853  
N04050 G01 X10.4747 Y6.6531  
N04060 G00 Z3.0000  
N04070 G00 X20.7217 Y7.1895  
N04080 G01 Z-0.0800 F254   
N04090 G01 X20.7551 Y7.3573  F508   
N04100 G01 X20.8205 Y7.5153  
N04110 G01 X20.9155 Y7.6575  
N04120 G01 X21.0365 Y7.7785  
N04130 G01 X21.1787 Y7.8735  
N04140 G01 X21.2535 Y7.9044  
N04150 G01 X21.2535 Y9.7490  
N04160 G01 X21.2872 Y9.8749  
N04170 G01 X21.3524 Y9.9879  
N04180 G01 X21.4446 Y10.0801 
N04190 G01 X24.9187 Y13.5542 
N04200 G01 X24.9385 Y13.6278 
N04210 G01 X24.9555 Y13.6573 
N04220 G01 X24.9555 Y14.4753 
N04230 G01 X24.9729 Y14.5173 
N04240 G01 X25.0051 Y14.5495 
N04250 G01 X25.0471 Y14.5669 
N04260 G01 X25.7529 Y14.5669 
N04270 G01 X25.7949 Y14.5495 
N04280 G01 X25.8271 Y14.5173 
N04290 G01 X25.8445 Y14.4753 
N04300 G01 X25.8445 Y13.6573 
N04310 G01 X25.8615 Y13.6278 
N04320 G01 X25.8953 Y13.5018 
N04330 G01 X25.8953 Y13.2698 
N04340 G01 X25.8615 Y13.1438 
N04350 G01 X25.8445 Y13.1143 
N04360 G01 X25.8445 Y12.3979 
N04370 G01 X25.8271 Y12.3559 
N04380 G01 X25.7949 Y12.3237 
N04390 G01 X25.7529 Y12.3063 
N04400 G01 X25.0718 Y12.3063 
N04410 G01 X22.2440 Y9.4786  
N04420 G01 X22.2440 Y7.6779  
N04430 G01 X22.2645 Y7.6575  
N04440 G01 X22.3595 Y7.5153  
N04450 G01 X22.4249 Y7.3573  
N04460 G01 X22.4583 Y7.1895  
N04470 G01 X22.4583 Y5.5105  
N04480 G01 X22.4249 Y5.3427  
N04490 G01 X22.3595 Y5.1847  
N04500 G01 X22.2645 Y5.0425  
N04510 G01 X22.1435 Y4.9215  
N04520 G01 X22.0013 Y4.8265  
N04530 G01 X21.8433 Y4.7611  
N04540 G01 X21.6755 Y4.7277  
N04550 G01 X21.5045 Y4.7277  
N04560 G01 X21.3367 Y4.7611  
N04570 G01 X21.1787 Y4.8265  
N04580 G01 X21.0365 Y4.9215  
N04590 G01 X20.9155 Y5.0425  
N04600 G01 X20.8205 Y5.1847  
N04610 G01 X20.7551 Y5.3427  
N04620 G01 X20.7217 Y5.5105  
N04630 G01 X20.7217 Y7.1895  
N04640 G00 Z3.0000  
N04650 G00 X20.6963 Y7.2818  
N04660 G01 Z-0.0800 F254   
N04670 G01 X20.6963 Y5.4182  F508   
N04680 G01 X20.8324 Y5.0898  
N04690 G01 X21.0837 Y4.8384  
N04700 G01 X21.4122 Y4.7023  
N04710 G01 X21.7678 Y4.7023  
N04720 G01 X22.0962 Y4.8384  
N04730 G01 X22.3476 Y5.0898  
N04740 G01 X22.4837 Y5.4182  
N04750 G01 X22.4837 Y7.2818  
N04760 G01 X22.3476 Y7.6102  
N04770 G01 X22.3329 Y7.6250  
N04780 G01 X22.2911 Y7.6974  
N04790 G01 X22.2694 Y7.7781  
N04800 G01 X22.2694 Y9.3784  
N04810 G01 X22.2911 Y9.4591  
N04820 G01 X22.3329 Y9.5315  
N04830 G01 X23.2341 Y10.4327 
N04840 G01 X23.2469 Y10.4494 
N04850 G01 X23.2635 Y10.4621 
N04860 G01 X23.2784 Y10.4770 
N04870 G01 X23.2965 Y10.4875 
N04880 G01 X23.3132 Y10.5003 
N04890 G01 X23.3326 Y10.5083 
N04900 G01 X23.3508 Y10.5188 
N04910 G01 X23.3710 Y10.5242 
N04920 G01 X23.3904 Y10.5322 
N04930 G01 X23.4112 Y10.5350 
N04940 G01 X23.4315 Y10.5404 
N04950 G01 X23.4525 Y10.5404 
N04960 G01 X23.4733 Y10.5432 
N04970 G01 X23.4941 Y10.5404 
N04980 G01 X23.5151 Y10.5404 
N04990 G01 X23.5354 Y10.5350 
N05000 G01 X23.5562 Y10.5322 
N05010 G01 X23.5756 Y10.5242 
N05020 G01 X23.5959 Y10.5188 
N05030 G01 X23.6140 Y10.5083 
N05040 G01 X23.6334 Y10.5003 
N05050 G01 X23.6501 Y10.4875 
N05060 G01 X23.6683 Y10.4770 
N05070 G01 X23.6831 Y10.4621 
N05080 G01 X23.6998 Y10.4494 
N05090 G01 X23.7125 Y10.4327 
N05100 G01 X23.7274 Y10.4179 
N05110 G01 X23.7379 Y10.3997 
N05120 G01 X23.7506 Y10.3830 
N05130 G01 X23.7587 Y10.3636 
N05140 G01 X23.7692 Y10.3455 
N05150 G01 X23.7746 Y10.3252 
N05160 G01 X23.7826 Y10.3058 
N05170 G01 X23.7854 Y10.2850 
N05180 G01 X23.7908 Y10.2647 
N05190 G01 X23.7908 Y10.2437 
N05200 G01 X23.7935 Y10.2229 
N05210 G01 X23.7908 Y10.2021 
N05220 G01 X23.7908 Y10.1811 
N05230 G01 X23.7854 Y10.1609 
N05240 G01 X23.7826 Y10.1400 
N05250 G01 X23.7746 Y10.1206 
N05260 G01 X23.7692 Y10.1004 
N05270 G01 X23.7680 Y8.1544  
N05280 G01 X23.7708 Y8.1335  
N05290 G01 X23.7680 Y8.1127  
N05300 G01 X23.7680 Y8.0917  
N05310 G01 X23.7626 Y8.0715  
N05320 G01 X23.7599 Y8.0506  
N05330 G01 X23.7518 Y8.0313  
N05340 G01 X23.7464 Y8.0110  
N05350 G01 X23.7359 Y7.9928  
N05360 G01 X23.7279 Y7.9734  
N05370 G01 X23.7151 Y7.9568  
N05380 G01 X23.7046 Y7.9386  
N05390 G01 X23.6898 Y7.9238  
N05400 G01 X23.6770 Y7.9071  
N05410 G01 X23.6603 Y7.8943  
N05420 G01 X23.6455 Y7.8795  
N05430 G01 X23.6363 Y7.8742  
N05440 G01 X23.3724 Y7.6102  
N05450 G01 X23.2363 Y7.2818  
N05460 G01 X23.2363 Y5.4182  
N05470 G01 X23.3724 Y5.0898  
N05480 G01 X23.6238 Y4.8384  
N05490 G01 X23.9522 Y4.7023  
N05500 G01 X24.3078 Y4.7023  
N05510 G01 X24.6362 Y4.8384  
N05520 G01 X24.8876 Y5.0898  
N05530 G01 X25.0237 Y5.4182  
N05540 G01 X25.0237 Y7.2818  
N05550 G01 X24.8876 Y7.6102  
N05560 G01 X24.8729 Y7.6250  
N05570 G01 X24.8311 Y7.6974  
N05580 G01 X24.8094 Y7.7781  
N05590 G01 X24.8094 Y9.6959  
N05600 G01 X24.8311 Y9.7766  
N05610 G01 X24.8729 Y9.8490  
N05620 G01 X26.6890 Y11.6651 
N05630 G01 X26.7481 Y11.7242 
N05640 G01 X26.8205 Y11.7660 
N05650 G01 X26.9012 Y11.7877 
N05660 G01 X26.9849 Y11.7877 
N05670 G01 X27.0656 Y11.7660 
N05680 G01 X27.1380 Y11.7242 
N05690 G01 X27.1971 Y11.6651 
N05700 G01 X27.2389 Y11.5927 
N05710 G01 X27.2605 Y11.5120 
N05720 G01 X27.2605 Y9.0366  
N05730 G01 X27.2389 Y8.9559  
N05740 G01 X27.1971 Y8.8835  
N05750 G01 X26.4493 Y8.1356  
N05760 G01 X26.2428 Y7.9291  
N05770 G01 X26.2300 Y7.9125  
N05780 G01 X26.2133 Y7.8997  
N05790 G01 X26.1985 Y7.8849  
N05800 G01 X26.1803 Y7.8744  
N05810 G01 X26.1639 Y7.8618  
N05820 G01 X25.9124 Y7.6102  
N05830 G01 X25.7763 Y7.2818  
N05840 G01 X25.7763 Y5.4182  
N05850 G01 X25.9124 Y5.0898  
N05860 G01 X26.1638 Y4.8384  
N05870 G01 X26.4922 Y4.7023  
N05880 G01 X26.8478 Y4.7023  
N05890 G01 X27.1762 Y4.8384  
N05900 G01 X27.4276 Y5.0898  
N05910 G01 X27.5637 Y5.4182  
N05920 G01 X27.5637 Y7.2818  
N05930 G01 X27.5077 Y7.4170  
N05940 G01 X27.4972 Y7.4351  
N05950 G01 X27.4918 Y7.4554  
N05960 G01 X27.4837 Y7.4748  
N05970 G01 X27.4810 Y7.4956  
N05980 G01 X27.4756 Y7.5159  
N05990 G01 X27.4756 Y7.5369  
N06000 G01 X27.4728 Y7.5577  
N06010 G01 X27.4756 Y7.5785  
N06020 G01 X27.4756 Y7.5995  
N06030 G01 X27.4810 Y7.6197  
N06040 G01 X27.4837 Y7.6406  
N06050 G01 X27.4918 Y7.6600  
N06060 G01 X27.4972 Y7.6802  
N06070 G01 X27.5077 Y7.6984  
N06080 G01 X27.5157 Y7.7178  
N06090 G01 X27.5285 Y7.7345  
N06100 G01 X27.5390 Y7.7526  
N06110 G01 X27.5538 Y7.7675  
N06120 G01 X27.5666 Y7.7841  
N06130 G01 X27.5833 Y7.7969  
N06140 G01 X27.9590 Y8.1726  
N06150 G01 X28.0181 Y8.2317  
N06160 G01 X28.0905 Y8.2735  
N06170 G01 X28.1712 Y8.2952  
N06180 G01 X28.2549 Y8.2952  
N06190 G01 X28.3356 Y8.2735  
N06200 G01 X28.4080 Y8.2317  
N06210 G01 X28.4671 Y8.1726  
N06220 G01 X28.5089 Y8.1002  
N06230 G01 X28.5305 Y8.0195  
N06240 G01 X28.5305 Y7.7781  
N06250 G01 X28.5089 Y7.6974  
N06260 G01 X28.4671 Y7.6250  
N06270 G01 X28.4524 Y7.6102  
N06280 G01 X28.3163 Y7.2818  
N06290 G01 X28.3163 Y5.4182  
N06300 G01 X28.4524 Y5.0898  
N06310 G01 X28.7037 Y4.8384  
N06320 G01 X29.0322 Y4.7023  
N06330 G01 X29.3878 Y4.7023  
N06340 G01 X29.7162 Y4.8384  
N06350 G01 X29.9676 Y5.0898  
N06360 G01 X30.1037 Y5.4182  
N06370 G01 X30.1037 Y7.2818  
N06380 G01 X29.9676 Y7.6102  
N06390 G01 X29.7037 Y7.8742  
N06400 G01 X29.6945 Y7.8795  
N06410 G01 X29.6797 Y7.8943  
N06420 G01 X29.6630 Y7.9071  
N06430 G01 X29.6502 Y7.9238  
N06440 G01 X29.6354 Y7.9386  
N06450 G01 X29.6249 Y7.9568  
N06460 G01 X29.6121 Y7.9734  
N06470 G01 X29.6041 Y7.9928  
N06480 G01 X29.5936 Y8.0110  
N06490 G01 X29.5882 Y8.0313  
N06500 G01 X29.5801 Y8.0506  
N06510 G01 X29.5774 Y8.0715  
N06520 G01 X29.5719 Y8.0917  
N06530 G01 X29.5719 Y8.1127  
N06540 G01 X29.5692 Y8.1335  
N06550 G01 X29.5719 Y8.1544  
N06560 G01 X29.5719 Y8.3370  
N06570 G01 X29.5936 Y8.4177  
N06580 G01 X29.6354 Y8.4901  
N06590 G01 X29.6945 Y8.5492  
N06600 G01 X29.7669 Y8.5910  
N06610 G01 X29.8476 Y8.6127  
N06620 G01 X29.9312 Y8.6127  
N06630 G01 X30.0120 Y8.5910  
N06640 G01 X30.0844 Y8.5492  
N06650 G01 X30.8367 Y7.7969  
N06660 G01 X30.8534 Y7.7841  
N06670 G01 X30.8662 Y7.7675  
N06680 G01 X30.8810 Y7.7526  
N06690 G01 X30.8915 Y7.7345  
N06700 G01 X30.9043 Y7.7178  
N06710 G01 X30.9123 Y7.6984  
N06720 G01 X30.9228 Y7.6802  
N06730 G01 X30.9282 Y7.6600  
N06740 G01 X30.9363 Y7.6406  
N06750 G01 X30.9390 Y7.6197  
N06760 G01 X30.9444 Y7.5995  
N06770 G01 X30.9444 Y7.5785  
N06780 G01 X30.9472 Y7.5577  
N06790 G01 X30.9444 Y7.5369  
N06800 G01 X30.9444 Y7.5159  
N06810 G01 X30.9390 Y7.4956  
N06820 G01 X30.9363 Y7.4748  
N06830 G01 X30.9282 Y7.4554  
N06840 G01 X30.9228 Y7.4351  
N06850 G01 X30.9123 Y7.4170  
N06860 G01 X30.8563 Y7.2818  
N06870 G01 X30.8563 Y5.4182  
N06880 G01 X30.9924 Y5.0898  
N06890 G01 X31.2437 Y4.8384  
N06900 G01 X31.5722 Y4.7023  
N06910 G01 X31.9278 Y4.7023  
N06920 G01 X32.2562 Y4.8384  
N06930 G01 X32.5076 Y5.0898  
N06940 G01 X32.6437 Y5.4182  
N06950 G01 X32.6437 Y7.2818  
N06960 G01 X32.5076 Y7.6102  
N06970 G01 X32.2561 Y7.8618  
N06980 G01 X32.2397 Y7.8744  
N06990 G01 X32.2215 Y7.8849  
N07000 G01 X32.2067 Y7.8997  
N07010 G01 X32.1900 Y7.9125  
N07020 G01 X32.1772 Y7.9291  
N07030 G01 X31.9707 Y8.1356  
N07040 G01 X30.9645 Y9.1419  
N07050 G01 X30.9054 Y9.2010  
N07060 G01 X30.8636 Y9.2734  
N07070 G01 X30.8419 Y9.3541  
N07080 G01 X30.8419 Y10.5595 
N07090 G01 X30.8636 Y10.6402 
N07100 G01 X30.9054 Y10.7126 
N07110 G01 X30.9645 Y10.7717 
N07120 G01 X31.0369 Y10.8135 
N07130 G01 X31.1176 Y10.8352 
N07140 G01 X31.2012 Y10.8352 
N07150 G01 X31.2820 Y10.8135 
N07160 G01 X31.3544 Y10.7717 
N07170 G01 X31.3885 Y10.7376 
N07180 G01 X31.4135 Y10.7126 
N07190 G01 X33.5129 Y8.6132  
N07200 G01 X33.5471 Y8.5790  
N07210 G01 X33.5889 Y8.5066  
N07220 G01 X33.6105 Y8.4259  
N07230 G01 X33.6105 Y7.7781  
N07240 G01 X33.5889 Y7.6974  
N07250 G01 X33.5471 Y7.6250  
N07260 G01 X33.5324 Y7.6102  
N07270 G01 X33.3963 Y7.2818  
N07280 G01 X33.3963 Y5.4182  
N07290 G01 X33.5324 Y5.0898  
N07300 G01 X33.7837 Y4.8384  
N07310 G01 X34.1122 Y4.7023  
N07320 G01 X34.4678 Y4.7023  
N07330 G01 X34.7962 Y4.8384  
N07340 G01 X35.0476 Y5.0898  
N07350 G01 X35.1837 Y5.4182  
N07360 G01 X35.1837 Y7.2818  
N07370 G01 X35.0476 Y7.6102  
N07380 G01 X34.7837 Y7.8742  
N07390 G01 X34.7745 Y7.8795  
N07400 G01 X34.7597 Y7.8943  
N07410 G01 X34.7430 Y7.9071  
N07420 G01 X34.7302 Y7.9238  
N07430 G01 X34.7154 Y7.9386  
N07440 G01 X34.7049 Y7.9568  
N07450 G01 X34.6921 Y7.9734  
N07460 G01 X34.6841 Y7.9928  
N07470 G01 X34.6736 Y8.0110  
N07480 G01 X34.6682 Y8.0313  
N07490 G01 X34.6601 Y8.0506  
N07500 G01 X34.6574 Y8.0715  
N07510 G01 X34.6519 Y8.0917  
N07520 G01 X34.6519 Y8.1127  
N07530 G01 X34.6492 Y8.1335  
N07540 G01 X34.6519 Y8.1544  
N07550 G01 X34.6519 Y8.8348  
N07560 G01 X34.5727 Y9.0262  
N07570 G01 X34.4111 Y9.1878  
N07580 G01 X32.2345 Y11.3644 
N07590 G01 X32.1754 Y11.4235 
N07600 G01 X32.1336 Y11.4959 
N07610 G01 X32.1119 Y11.5766 
N07620 G01 X32.1119 Y12.0848 
N07630 G01 X32.1336 Y12.1655 
N07640 G01 X32.1754 Y12.2379 
N07650 G01 X32.2345 Y12.2970 
N07660 G01 X32.3069 Y12.3388 
N07670 G01 X32.3669 Y12.3549 
N07680 G01 X32.3876 Y12.3605 
N07690 G01 X32.4712 Y12.3605 
N07700 G01 X32.5520 Y12.3388 
N07710 G01 X32.6359 Y12.2904 
N07720 G01 X32.6714 Y12.2809 
N07730 G01 X32.7025 Y12.2809 
N07740 G01 X32.7025 Y12.3063 
N07750 G01 X32.6671 Y12.3063 
N07760 G01 X32.6251 Y12.3237 
N07770 G01 X32.5929 Y12.3559 
N07780 G01 X32.5755 Y12.3979 
N07790 G01 X32.5755 Y13.0513 
N07800 G01 X32.5501 Y13.1461 
N07810 G01 X32.5501 Y13.4985 
N07820 G01 X32.5755 Y13.5933 
N07830 G01 X32.5755 Y14.4753 
N07840 G01 X32.5929 Y14.5173 
N07850 G01 X32.6251 Y14.5495 
N07860 G01 X32.6671 Y14.5669 
N07870 G01 X32.7025 Y14.5669 
N07880 G01 X32.7025 Y14.5923 
N07890 G01 X32.6714 Y14.5923 
N07900 G01 X32.6359 Y14.5828 
N07910 G01 X32.6040 Y14.5644 
N07920 G01 X32.5799 Y14.5403 
N07930 G01 X32.5254 Y14.5088 
N07940 G01 X32.5075 Y14.4985 
N07950 G01 X32.4691 Y14.4882 
N07960 G01 X32.4268 Y14.4769 
N07970 G01 X32.3432 Y14.4769 
N07980 G01 X32.2624 Y14.4985 
N07990 G01 X32.1900 Y14.5403 
N08000 G01 X32.1381 Y14.5923 
N08010 G01 X31.3619 Y14.5923 
N08020 G01 X31.3099 Y14.5403 
N08030 G01 X31.2553 Y14.5088 
N08040 G01 X31.2375 Y14.4985 
N08050 G01 X31.1991 Y14.4882 
N08060 G01 X31.1568 Y14.4769 
N08070 G01 X31.0732 Y14.4769 
N08080 G01 X30.9924 Y14.4985 
N08090 G01 X30.9200 Y14.5403 
N08100 G01 X30.8681 Y14.5923 
N08110 G01 X30.0919 Y14.5923 
N08120 G01 X30.0399 Y14.5403 
N08130 G01 X29.9854 Y14.5088 
N08140 G01 X29.9675 Y14.4985 
N08150 G01 X29.9291 Y14.4882 
N08160 G01 X29.8868 Y14.4769 
N08170 G01 X29.8032 Y14.4769 
N08180 G01 X29.7224 Y14.4985 
N08190 G01 X29.6500 Y14.5403 
N08200 G01 X29.5981 Y14.5923 
N08210 G01 X28.8219 Y14.5923 
N08220 G01 X28.7699 Y14.5403 
N08230 G01 X28.7154 Y14.5088 
N08240 G01 X28.6975 Y14.4985 
N08250 G01 X28.6591 Y14.4882 
N08260 G01 X28.6168 Y14.4769 
N08270 G01 X28.5332 Y14.4769 
N08280 G01 X28.4524 Y14.4985 
N08290 G01 X28.3800 Y14.5403 
N08300 G01 X28.3281 Y14.5923 
N08310 G01 X27.5519 Y14.5923 
N08320 G01 X27.4999 Y14.5403 
N08330 G01 X27.4454 Y14.5088 
N08340 G01 X27.4275 Y14.4985 
N08350 G01 X27.3891 Y14.4882 
N08360 G01 X27.3468 Y14.4769 
N08370 G01 X27.2632 Y14.4769 
N08380 G01 X27.1824 Y14.4985 
N08390 G01 X27.1100 Y14.5403 
N08400 G01 X27.0581 Y14.5923 
N08410 G01 X26.2819 Y14.5923 
N08420 G01 X26.2299 Y14.5403 
N08430 G01 X26.1754 Y14.5088 
N08440 G01 X26.1575 Y14.4985 
N08450 G01 X26.1191 Y14.4882 
N08460 G01 X26.0768 Y14.4769 
N08470 G01 X25.9932 Y14.4769 
N08480 G01 X25.9124 Y14.4985 
N08490 G01 X25.8400 Y14.5403 
N08500 G01 X25.7881 Y14.5923 
N08510 G01 X25.0119 Y14.5923 
N08520 G01 X24.9301 Y14.5105 
N08530 G01 X24.9301 Y13.6912 
N08540 G01 X24.9085 Y13.6104 
N08550 G01 X24.8667 Y13.5380 
N08560 G01 X24.8075 Y13.4789 
N08570 G01 X21.5280 Y10.1994 
N08580 G01 X21.3073 Y9.9787  
N08590 G01 X21.2280 Y9.7873  
N08600 G01 X21.2280 Y8.1544  
N08610 G01 X21.2308 Y8.1335  
N08620 G01 X21.2280 Y8.1127  
N08630 G01 X21.2280 Y8.0917  
N08640 G01 X21.2226 Y8.0715  
N08650 G01 X21.2199 Y8.0506  
N08660 G01 X21.2118 Y8.0313  
N08670 G01 X21.2064 Y8.0110  
N08680 G01 X21.1959 Y7.9928  
N08690 G01 X21.1879 Y7.9734  
N08700 G01 X21.1751 Y7.9568  
N08710 G01 X21.1646 Y7.9386  
N08720 G01 X21.1498 Y7.9238  
N08730 G01 X21.1370 Y7.9071  
N08740 G01 X21.1203 Y7.8943  
N08750 G01 X21.1055 Y7.8795  
N08760 G01 X21.0963 Y7.8742  
N08770 G01 X20.8324 Y7.6102  
N08780 G01 X20.6963 Y7.2818  
N08790 G00 Z3.0000  
N08800 G00 X23.2617 Y7.1895  
N08810 G01 Z-0.0800 F254   
N08820 G01 X23.2951 Y7.3573  F508   
N08830 G01 X23.3605 Y7.5153  
N08840 G01 X23.4555 Y7.6575  
N08850 G01 X23.5765 Y7.7785  
N08860 G01 X23.7187 Y7.8735  
N08870 G01 X23.7934 Y7.9044  
N08880 G01 X23.7934 Y10.0665 
N08890 G01 X23.8272 Y10.1924 
N08900 G01 X23.8924 Y10.3054 
N08910 G01 X23.9846 Y10.3976 
N08920 G01 X26.0160 Y12.4289 
N08930 G01 X26.0160 Y13.2415 
N08940 G01 X26.0497 Y13.3674 
N08950 G01 X26.1149 Y13.4804 
N08960 G01 X26.1887 Y13.5542 
N08970 G01 X26.2085 Y13.6278 
N08980 G01 X26.2255 Y13.6573 
N08990 G01 X26.2255 Y14.4753 
N09000 G01 X26.2429 Y14.5173 
N09010 G01 X26.2751 Y14.5495 
N09020 G01 X26.3171 Y14.5669 
N09030 G01 X27.0229 Y14.5669 
N09040 G01 X27.0649 Y14.5495 
N09050 G01 X27.0971 Y14.5173 
N09060 G01 X27.1145 Y14.4753 
N09070 G01 X27.1145 Y13.6573 
N09080 G01 X27.1315 Y13.6278 
N09090 G01 X27.1653 Y13.5018 
N09100 G01 X27.1653 Y13.2698 
N09110 G01 X27.1315 Y13.1438 
N09120 G01 X27.1145 Y13.1143 
N09130 G01 X27.1145 Y12.3979 
N09140 G01 X27.0971 Y12.3559 
N09150 G01 X27.0649 Y12.3237 
N09160 G01 X27.0229 Y12.3063 
N09170 G01 X27.0065 Y12.3063 
N09180 G01 X27.0065 Y12.1585 
N09190 G01 X26.9728 Y12.0326 
N09200 G01 X26.9076 Y11.9196 
N09210 G01 X24.7840 Y9.7961  
N09220 G01 X24.7840 Y7.6779  
N09230 G01 X24.8044 Y7.6575  
N09240 G01 X24.8995 Y7.5153  
N09250 G01 X24.9649 Y7.3573  
N09260 G01 X24.9983 Y7.1895  
N09270 G01 X24.9983 Y5.5105  
N09280 G01 X24.9649 Y5.3427  
N09290 G01 X24.8995 Y5.1847  
N09300 G01 X24.8044 Y5.0425  
N09310 G01 X24.6835 Y4.9215  
N09320 G01 X24.5413 Y4.8265  
N09330 G01 X24.3833 Y4.7611  
N09340 G01 X24.2155 Y4.7277  
N09350 G01 X24.0445 Y4.7277  
N09360 G01 X23.8767 Y4.7611  
N09370 G01 X23.7187 Y4.8265  
N09380 G01 X23.5765 Y4.9215  
N09390 G01 X23.4555 Y5.0425  
N09400 G01 X23.3605 Y5.1847  
N09410 G01 X23.2951 Y5.3427  
N09420 G01 X23.2617 Y5.5105  
N09430 G01 X23.2617 Y7.1895  
N09440 G00 Z3.0000  
N09450 G00 X25.8017 Y7.1895  
N09460 G01 Z-0.0800 F254   
N09470 G01 X25.8351 Y7.3573  F508   
N09480 G01 X25.9005 Y7.5153  
N09490 G01 X25.9955 Y7.6575  
N09500 G01 X26.1165 Y7.7785  
N09510 G01 X26.2355 Y7.8579  
N09520 G01 X26.2737 Y7.9241  
N09530 G01 X26.3659 Y8.0163  
N09540 G01 X27.2859 Y8.9364  
N09550 G01 X27.2859 Y13.2415 
N09560 G01 X27.3197 Y13.3674 
N09570 G01 X27.3849 Y13.4804 
N09580 G01 X27.4587 Y13.5542 
N09590 G01 X27.4785 Y13.6278 
N09600 G01 X27.4955 Y13.6573 
N09610 G01 X27.4955 Y14.4753 
N09620 G01 X27.5129 Y14.5173 
N09630 G01 X27.5451 Y14.5495 
N09640 G01 X27.5871 Y14.5669 
N09650 G01 X28.2929 Y14.5669 
N09660 G01 X28.3349 Y14.5495 
N09670 G01 X28.3671 Y14.5173 
N09680 G01 X28.3845 Y14.4753 
N09690 G01 X28.3845 Y13.6573 
N09700 G01 X28.4015 Y13.6278 
N09710 G01 X28.4353 Y13.5018 
N09720 G01 X28.4353 Y13.2698 
N09730 G01 X28.4015 Y13.1438 
N09740 G01 X28.3845 Y13.1143 
N09750 G01 X28.3845 Y12.3979 
N09760 G01 X28.3671 Y12.3559 
N09770 G01 X28.3349 Y12.3237 
N09780 G01 X28.2929 Y12.3063 
N09790 G01 X28.2765 Y12.3063 
N09800 G01 X28.2765 Y8.6660  
N09810 G01 X28.2428 Y8.5401  
N09820 G01 X28.1776 Y8.4271  
N09830 G01 X27.3699 Y7.6194  
N09840 G01 X27.4395 Y7.5153  
N09850 G01 X27.5049 Y7.3573  
N09860 G01 X27.5383 Y7.1895  
N09870 G01 X27.5383 Y5.5105  
N09880 G01 X27.5049 Y5.3427  
N09890 G01 X27.4395 Y5.1847  
N09900 G01 X27.3444 Y5.0425  
N09910 G01 X27.2235 Y4.9215  
N09920 G01 X27.0813 Y4.8265  
N09930 G01 X26.9233 Y4.7611  
N09940 G01 X26.7555 Y4.7277  
N09950 G01 X26.5845 Y4.7277  
N09960 G01 X26.4167 Y4.7611  
N09970 G01 X26.2587 Y4.8265  
N09980 G01 X26.1165 Y4.9215  
N09990 G01 X25.9955 Y5.0425  
N10000 G01 X25.9005 Y5.1847  
N10010 G01 X25.8351 Y5.3427  
N10020 G01 X25.8017 Y5.5105  
N10030 G01 X25.8017 Y7.1895  
N10040 G00 Z3.0000  
N10050 G00 X28.3417 Y7.1895  
N10060 G01 Z-0.0800 F254   
N10070 G01 X28.3751 Y7.3573  F508   
N10080 G01 X28.4405 Y7.5153  
N10090 G01 X28.5355 Y7.6575  
N10100 G01 X28.5559 Y7.6779  
N10110 G01 X28.5559 Y13.2415 
N10120 G01 X28.5897 Y13.3674 
N10130 G01 X28.6549 Y13.4804 
N10140 G01 X28.7287 Y13.5542 
N10150 G01 X28.7485 Y13.6278 
N10160 G01 X28.7655 Y13.6573 
N10170 G01 X28.7655 Y14.4753 
N10180 G01 X28.7829 Y14.5173 
N10190 G01 X28.8151 Y14.5495 
N10200 G01 X28.8571 Y14.5669 
N10210 G01 X29.5629 Y14.5669 
N10220 G01 X29.6049 Y14.5495 
N10230 G01 X29.6371 Y14.5173 
N10240 G01 X29.6545 Y14.4753 
N10250 G01 X29.6545 Y13.6573 
N10260 G01 X29.6715 Y13.6278 
N10270 G01 X29.7053 Y13.5018 
N10280 G01 X29.7053 Y13.2698 
N10290 G01 X29.6715 Y13.1438 
N10300 G01 X29.6545 Y13.1143 
N10310 G01 X29.6545 Y12.3979 
N10320 G01 X29.6371 Y12.3559 
N10330 G01 X29.6049 Y12.3237 
N10340 G01 X29.5629 Y12.3063 
N10350 G01 X29.5465 Y12.3063 
N10360 G01 X29.5465 Y7.9044  
N10370 G01 X29.6213 Y7.8735  
N10380 G01 X29.7635 Y7.7785  
N10390 G01 X29.8845 Y7.6575  
N10400 G01 X29.9795 Y7.5153  
N10410 G01 X30.0449 Y7.3573  
N10420 G01 X30.0783 Y7.1895  
N10430 G01 X30.0783 Y5.5105  
N10440 G01 X30.0449 Y5.3427  
N10450 G01 X29.9795 Y5.1847  
N10460 G01 X29.8845 Y5.0425  
N10470 G01 X29.7635 Y4.9215  
N10480 G01 X29.6213 Y4.8265  
N10490 G01 X29.4633 Y4.7611  
N10500 G01 X29.2955 Y4.7277  
N10510 G01 X29.1245 Y4.7277  
N10520 G01 X28.9567 Y4.7611  
N10530 G01 X28.7987 Y4.8265  
N10540 G01 X28.6565 Y4.9215  
N10550 G01 X28.5355 Y5.0425  
N10560 G01 X28.4405 Y5.1847  
N10570 G01 X28.3751 Y5.3427  
N10580 G01 X28.3417 Y5.5105  
N10590 G01 X28.3417 Y7.1895  
N10600 G00 Z3.0000  
N10610 G00 X30.8817 Y7.1895  
N10620 G01 Z-0.0800 F254   
N10630 G01 X30.9151 Y7.3573  F508   
N10640 G01 X30.9805 Y7.5153  
N10650 G01 X31.0501 Y7.6194  
N10660 G01 X29.9249 Y8.7446  
N10670 G01 X29.8597 Y8.8576  
N10680 G01 X29.8259 Y8.9835  
N10690 G01 X29.8259 Y13.2415 
N10700 G01 X29.8597 Y13.3674 
N10710 G01 X29.9249 Y13.4804 
N10720 G01 X29.9987 Y13.5542 
N10730 G01 X30.0185 Y13.6278 
N10740 G01 X30.0355 Y13.6573 
N10750 G01 X30.0355 Y14.4753 
N10760 G01 X30.0529 Y14.5173 
N10770 G01 X30.0851 Y14.5495 
N10780 G01 X30.1271 Y14.5669 
N10790 G01 X30.8329 Y14.5669 
N10800 G01 X30.8749 Y14.5495 
N10810 G01 X30.9071 Y14.5173 
N10820 G01 X30.9245 Y14.4753 
N10830 G01 X30.9245 Y13.6573 
N10840 G01 X30.9415 Y13.6278 
N10850 G01 X30.9753 Y13.5018 
N10860 G01 X30.9753 Y13.2698 
N10870 G01 X30.9415 Y13.1438 
N10880 G01 X30.9245 Y13.1143 
N10890 G01 X30.9245 Y12.3979 
N10900 G01 X30.9071 Y12.3559 
N10910 G01 X30.8749 Y12.3237 
N10920 G01 X30.8329 Y12.3063 
N10930 G01 X30.8165 Y12.3063 
N10940 G01 X30.8165 Y9.2539  
N10950 G01 X32.0541 Y8.0163  
N10960 G01 X32.1463 Y7.9241  
N10970 G01 X32.1845 Y7.8579  
N10980 G01 X32.3035 Y7.7785  
N10990 G01 X32.4245 Y7.6575  
N11000 G01 X32.5195 Y7.5153  
N11010 G01 X32.5849 Y7.3573  
N11020 G01 X32.6183 Y7.1895  
N11030 G01 X32.6183 Y5.5105  
N11040 G01 X32.5849 Y5.3427  
N11050 G01 X32.5195 Y5.1847  
N11060 G01 X32.4245 Y5.0425  
N11070 G01 X32.3035 Y4.9215  
N11080 G01 X32.1613 Y4.8265  
N11090 G01 X32.0033 Y4.7611  
N11100 G01 X31.8355 Y4.7277  
N11110 G01 X31.6645 Y4.7277  
N11120 G01 X31.4967 Y4.7611  
N11130 G01 X31.3387 Y4.8265  
N11140 G01 X31.1965 Y4.9215  
N11150 G01 X31.0755 Y5.0425  
N11160 G01 X30.9805 Y5.1847  
N11170 G01 X30.9151 Y5.3427  
N11180 G01 X30.8817 Y5.5105  
N11190 G01 X30.8817 Y7.1895  
N11200 G00 Z3.0000  
N11210 G00 X33.4217 Y7.1895  
N11220 G01 Z-0.0800 F254   
N11230 G01 X33.4551 Y7.3573  F508   
N11240 G01 X33.5205 Y7.5153  
N11250 G01 X33.6155 Y7.6575  
N11260 G01 X33.6360 Y7.6779  
N11270 G01 X33.6360 Y8.5261  
N11280 G01 X31.1949 Y10.9671 
N11290 G01 X31.1297 Y11.0801 
N11300 G01 X31.0959 Y11.2060 
N11310 G01 X31.0959 Y13.2415 
N11320 G01 X31.1297 Y13.3674 
N11330 G01 X31.1949 Y13.4804 
N11340 G01 X31.2687 Y13.5542 
N11350 G01 X31.2885 Y13.6278 
N11360 G01 X31.3055 Y13.6573 
N11370 G01 X31.3055 Y14.4753 
N11380 G01 X31.3229 Y14.5173 
N11390 G01 X31.3551 Y14.5495 
N11400 G01 X31.3971 Y14.5669 
N11410 G01 X32.1029 Y14.5669 
N11420 G01 X32.1449 Y14.5495 
N11430 G01 X32.1771 Y14.5173 
N11440 G01 X32.1945 Y14.4753 
N11450 G01 X32.1945 Y13.6573 
N11460 G01 X32.2115 Y13.6278 
N11470 G01 X32.2453 Y13.5018 
N11480 G01 X32.2453 Y13.2698 
N11490 G01 X32.2115 Y13.1438 
N11500 G01 X32.1945 Y13.1143 
N11510 G01 X32.1945 Y12.3979 
N11520 G01 X32.1771 Y12.3559 
N11530 G01 X32.1449 Y12.3237 
N11540 G01 X32.1029 Y12.3063 
N11550 G01 X32.0865 Y12.3063 
N11560 G01 X32.0865 Y11.4764 
N11570 G01 X34.4354 Y9.1276  
N11580 G01 X34.5276 Y9.0354  
N11590 G01 X34.5928 Y8.9224  
N11600 G01 X34.6265 Y8.7965  
N11610 G01 X34.6265 Y7.9044  
N11620 G01 X34.7013 Y7.8735  
N11630 G01 X34.8435 Y7.7785  
N11640 G01 X34.9644 Y7.6575  
N11650 G01 X35.0595 Y7.5153  
N11660 G01 X35.1249 Y7.3573  
N11670 G01 X35.1583 Y7.1895  
N11680 G01 X35.1583 Y5.5105  
N11690 G01 X35.1249 Y5.3427  
N11700 G01 X35.0595 Y5.1847  
N11710 G01 X34.9644 Y5.0425  
N11720 G01 X34.8435 Y4.9215  
N11730 G01 X34.7013 Y4.8265  
N11740 G01 X34.5433 Y4.7611  
N11750 G01 X34.3755 Y4.7277  
N11760 G01 X34.2045 Y4.7277  
N11770 G01 X34.0367 Y4.7611  
N11780 G01 X33.8787 Y4.8265  
N11790 G01 X33.7365 Y4.9215  
N11800 G01 X33.6155 Y5.0425  
N11810 G01 X33.5205 Y5.1847  
N11820 G01 X33.4551 Y5.3427  
N11830 G01 X33.4217 Y5.5105  
N11840 G01 X33.4217 Y7.1895  
N11850 G00 Z3.0000  
N11860 G00 X35.9363 Y7.1743  
N11870 G01 Z-0.0800 F254   
N11880 G01 X35.9363 Y6.7143  F508   
N11890 G01 X35.9617 Y6.7143  
N11900 G01 X35.9617 Y7.1895  
N11910 G01 X35.9951 Y7.3573  
N11920 G01 X36.0605 Y7.5153  
N11930 G01 X36.1555 Y7.6575  
N11940 G01 X36.2765 Y7.7785  
N11950 G01 X36.3601 Y7.8343  
N11960 G01 X36.3601 Y7.8673  
N11970 G01 X36.2478 Y7.7857  
N11980 G01 X36.1483 Y7.6862  
N11990 G01 X36.0656 Y7.5724  
N12000 G01 X36.0018 Y7.4471  
N12010 G01 X35.9583 Y7.3133  
N12020 G01 X35.9363 Y7.1743  
N12030 G00 Z3.0000  
N12040 G00 X35.9363 Y5.9857  
N12050 G01 Z-0.0800 F254   
N12060 G01 X35.9363 Y5.5257  F508   
N12070 G01 X35.9583 Y5.3867  
N12080 G01 X36.0018 Y5.2529  
N12090 G01 X36.0656 Y5.1276  
N12100 G01 X36.1483 Y5.0138  
N12110 G01 X36.2478 Y4.9143  
N12120 G01 X36.3616 Y4.8316  
N12130 G01 X36.4657 Y4.7786  
N12140 G01 X36.4657 Y4.8071  
N12150 G01 X36.4187 Y4.8265  
N12160 G01 X36.2765 Y4.9215  
N12170 G01 X36.1555 Y5.0425  
N12180 G01 X36.0605 Y5.1847  
N12190 G01 X35.9951 Y5.3427  
N12200 G01 X35.9617 Y5.5105  
N12210 G01 X35.9617 Y5.9857  
N12220 G01 X35.9363 Y5.9857  
N12230 G00 Z3.0000  
N12240 G00 X37.6983 Y5.9857  
N12250 G01 Z-0.0800 F254   
N12260 G01 X37.6983 Y5.5105  F508   
N12270 G01 X37.6649 Y5.3427  
N12280 G01 X37.5995 Y5.1847  
N12290 G01 X37.5044 Y5.0425  
N12300 G01 X37.3835 Y4.9215  
N12310 G01 X37.2413 Y4.8265  
N12320 G01 X37.1943 Y4.8071  
N12330 G01 X37.1943 Y4.7786  
N12340 G01 X37.2984 Y4.8316  
N12350 G01 X37.4122 Y4.9143  
N12360 G01 X37.5117 Y5.0138  
N12370 G01 X37.5944 Y5.1276  
N12380 G01 X37.6582 Y5.2529  
N12390 G01 X37.7017 Y5.3867  
N12400 G01 X37.7237 Y5.5257  
N12410 G01 X37.7237 Y5.9857  
N12420 G01 X37.6983 Y5.9857  
N12430 G00 Z3.0000  
N12440 G00 X37.6983 Y6.7143  
N12450 G01 Z-0.0800 F254   
N12460 G01 X37.7237 Y6.7143  F508   
N12470 G01 X37.7237 Y7.1743  
N12480 G01 X37.7017 Y7.3133  
N12490 G01 X37.6582 Y7.4471  
N12500 G01 X37.5944 Y7.5724  
N12510 G01 X37.5117 Y7.6862  
N12520 G01 X37.4122 Y7.7857  
N12530 G01 X37.2999 Y7.8673  
N12540 G01 X37.2999 Y7.8343  
N12550 G01 X37.3835 Y7.7785  
N12560 G01 X37.5044 Y7.6575  
N12570 G01 X37.5995 Y7.5153  
N12580 G01 X37.6649 Y7.3573  
N12590 G01 X37.6983 Y7.1895  
N12600 G01 X37.6983 Y6.7143  
N12610 G00 Z3.0000  
N12620 G00 X37.7956 Y14.1788 
N12630 G01 Z-0.0800 F254   
N12640 G01 X38.3661 Y14.5081 F508   
N12650 G01 X38.8319 Y14.9739 
N12660 G01 X39.1612 Y15.5444 
N12670 G01 X39.3317 Y16.1806 
N12680 G01 X39.3317 Y16.8394 
N12690 G01 X39.1612 Y17.4756 
N12700 G01 X38.8319 Y18.0461 
N12710 G01 X38.3661 Y18.5119 
N12720 G01 X37.7956 Y18.8412 
N12730 G01 X37.1594 Y19.0117 
N12740 G01 X36.5006 Y19.0117 
N12750 G01 X35.8644 Y18.8412 
N12760 G01 X35.2939 Y18.5119 
N12770 G01 X34.8281 Y18.0461 
N12780 G01 X34.4988 Y17.4756 
N12790 G01 X34.3283 Y16.8394 
N12800 G01 X34.3283 Y16.1806 
N12810 G01 X34.4988 Y15.5444 
N12820 G01 X34.8281 Y14.9739 
N12830 G01 X35.2939 Y14.5081 
N12840 G01 X35.8644 Y14.1788 
N12850 G01 X36.5006 Y14.0083 
N12860 G01 X37.1594 Y14.0083 
N12870 G01 X37.7956 Y14.1788 
N12880 G00 Z3.0000  
N12890 G00 X33.4899 Y14.4710 
N12900 G01 Z-0.0800 F254   
N12910 G01 X33.4804 Y14.5065 F508   
N12920 G01 X33.4620 Y14.5384 
N12930 G01 X33.4360 Y14.5644 
N12940 G01 X33.4041 Y14.5828 
N12950 G01 X33.3686 Y14.5923 
N12960 G01 X33.3375 Y14.5923 
N12970 G01 X33.3375 Y14.5669 
N12980 G01 X33.3729 Y14.5669 
N12990 G01 X33.4149 Y14.5495 
N13000 G01 X33.4471 Y14.5173 
N13010 G01 X33.4645 Y14.4753 
N13020 G01 X33.4645 Y13.7541 
N13030 G01 X33.4899 Y13.7541 
N13040 G01 X33.4899 Y14.4710 
N13050 G00 Z3.0000  
N13060 G00 X33.4899 Y18.5095 
N13070 G01 Z-0.0800 F254   
N13080 G01 X33.4899 Y19.3288 F508   
N13090 G01 X33.5115 Y19.4096 
N13100 G01 X33.5533 Y19.4820 
N13110 G01 X36.8920 Y22.8206 
N13120 G01 X37.1127 Y23.0413 
N13130 G01 X37.1919 Y23.2327 
N13140 G01 X37.1919 Y24.8656 
N13150 G01 X37.1892 Y24.8865 
N13160 G01 X37.1919 Y24.9073 
N13170 G01 X37.1919 Y24.9282 
N13180 G01 X37.1974 Y24.9485 
N13190 G01 X37.2001 Y24.9694 
N13200 G01 X37.2082 Y24.9887 
N13210 G01 X37.2136 Y25.0090 
N13220 G01 X37.2241 Y25.0272 
N13230 G01 X37.2321 Y25.0466 
N13240 G01 X37.2449 Y25.0632 
N13250 G01 X37.2554 Y25.0814 
N13260 G01 X37.2702 Y25.0962 
N13270 G01 X37.2830 Y25.1129 
N13280 G01 X37.2997 Y25.1257 
N13290 G01 X37.3145 Y25.1405 
N13300 G01 X37.3237 Y25.1458 
N13310 G01 X37.5876 Y25.4097 
N13320 G01 X37.7237 Y25.7382 
N13330 G01 X37.7237 Y27.6018 
N13340 G01 X37.5876 Y27.9302 
N13350 G01 X37.3362 Y28.1816 
N13360 G01 X37.0078 Y28.3177 
N13370 G01 X36.6522 Y28.3177 
N13380 G01 X36.3237 Y28.1816 
N13390 G01 X36.0724 Y27.9302 
N13400 G01 X35.9363 Y27.6018 
N13410 G01 X35.9363 Y25.7382 
N13420 G01 X36.0724 Y25.4098 
N13430 G01 X36.0871 Y25.3950 
N13440 G01 X36.0924 Y25.3859 
N13450 G01 X36.1289 Y25.3226 
N13460 G01 X36.1434 Y25.2684 
N13470 G01 X36.1505 Y25.2419 
N13480 G01 X36.1505 Y25.1996 
N13490 G01 X36.1506 Y25.1583 
N13500 G01 X36.1505 Y23.6416 
N13510 G01 X36.1289 Y23.5609 
N13520 G01 X36.0871 Y23.4885 
N13530 G01 X34.5509 Y21.9523 
N13540 G01 X34.5381 Y21.9356 
N13550 G01 X34.5215 Y21.9229 
N13560 G01 X34.5066 Y21.9080 
N13570 G01 X34.4885 Y21.8975 
N13580 G01 X34.4718 Y21.8847 
N13590 G01 X34.4524 Y21.8767 
N13600 G01 X34.4342 Y21.8662 
N13610 G01 X34.4140 Y21.8608 
N13620 G01 X34.3946 Y21.8527 
N13630 G01 X34.3738 Y21.8500 
N13640 G01 X34.3535 Y21.8446 
N13650 G01 X34.3325 Y21.8446 
N13660 G01 X34.3117 Y21.8418 
N13670 G01 X34.2909 Y21.8446 
N13680 G01 X34.2699 Y21.8446 
N13690 G01 X34.2496 Y21.8500 
N13700 G01 X34.2288 Y21.8527 
N13710 G01 X34.2094 Y21.8608 
N13720 G01 X34.1891 Y21.8662 
N13730 G01 X34.1710 Y21.8767 
N13740 G01 X34.1516 Y21.8847 
N13750 G01 X34.1349 Y21.8975 
N13760 G01 X34.1167 Y21.9080 
N13770 G01 X34.1019 Y21.9229 
N13780 G01 X34.0852 Y21.9356 
N13790 G01 X34.0725 Y21.9523 
N13800 G01 X34.0576 Y21.9671 
N13810 G01 X34.0471 Y21.9853 
N13820 G01 X34.0344 Y22.0020 
N13830 G01 X34.0263 Y22.0214 
N13840 G01 X34.0158 Y22.0395 
N13850 G01 X34.0104 Y22.0598 
N13860 G01 X34.0024 Y22.0792 
N13870 G01 X33.9996 Y22.1000 
N13880 G01 X33.9942 Y22.1203 
N13890 G01 X33.9942 Y22.1413 
N13900 G01 X33.9914 Y22.1621 
N13910 G01 X33.9942 Y22.1829 
N13920 G01 X33.9942 Y22.2039 
N13930 G01 X33.9996 Y22.2241 
N13940 G01 X34.0024 Y22.2450 
N13950 G01 X34.0104 Y22.2644 
N13960 G01 X34.0158 Y22.2846 
N13970 G01 X34.0169 Y23.8246 
N13980 G01 X34.0386 Y23.9054 
N13990 G01 X34.0804 Y23.9778 
N14000 G01 X34.3520 Y24.2494 
N14010 G01 X34.5727 Y24.4700 
N14020 G01 X34.6519 Y24.6614 
N14030 G01 X34.6519 Y24.8656 
N14040 G01 X34.6492 Y24.8865 
N14050 G01 X34.6519 Y24.9073 
N14060 G01 X34.6519 Y24.9282 
N14070 G01 X34.6574 Y24.9485 
N14080 G01 X34.6601 Y24.9694 
N14090 G01 X34.6682 Y24.9887 
N14100 G01 X34.6736 Y25.0090 
N14110 G01 X34.6841 Y25.0272 
N14120 G01 X34.6921 Y25.0466 
N14130 G01 X34.7049 Y25.0632 
N14140 G01 X34.7154 Y25.0814 
N14150 G01 X34.7302 Y25.0962 
N14160 G01 X34.7430 Y25.1129 
N14170 G01 X34.7597 Y25.1257 
N14180 G01 X34.7745 Y25.1405 
N14190 G01 X34.7837 Y25.1458 
N14200 G01 X35.0476 Y25.4097 
N14210 G01 X35.1837 Y25.7382 
N14220 G01 X35.1837 Y27.6018 
N14230 G01 X35.0476 Y27.9302 
N14240 G01 X34.7962 Y28.1816 
N14250 G01 X34.4678 Y28.3177 
N14260 G01 X34.1122 Y28.3177 
N14270 G01 X33.7837 Y28.1816 
N14280 G01 X33.5324 Y27.9302 
N14290 G01 X33.3963 Y27.6018 
N14300 G01 X33.3963 Y25.7382 
N14310 G01 X33.5324 Y25.4098 
N14320 G01 X33.5471 Y25.3950 
N14330 G01 X33.5524 Y25.3859 
N14340 G01 X33.5889 Y25.3226 
N14350 G01 X33.6034 Y25.2684 
N14360 G01 X33.6105 Y25.2419 
N14370 G01 X33.6105 Y25.1996 
N14380 G01 X33.6106 Y25.1583 
N14390 G01 X33.6105 Y25.0704 
N14400 G01 X33.5889 Y24.9896 
N14410 G01 X33.5471 Y24.9172 
N14420 G01 X33.0548 Y24.4250 
N14430 G01 X32.9755 Y24.2336 
N14440 G01 X32.9755 Y22.6891 
N14450 G01 X32.9539 Y22.6084 
N14460 G01 X32.9121 Y22.5360 
N14470 G01 X31.7310 Y21.3549 
N14480 G01 X31.6719 Y21.2958 
N14490 G01 X31.5995 Y21.2540 
N14500 G01 X31.5187 Y21.2323 
N14510 G01 X31.4351 Y21.2323 
N14520 G01 X31.3544 Y21.2540 
N14530 G01 X31.2820 Y21.2958 
N14540 G01 X31.2238 Y21.3540 
N14550 G01 X31.1811 Y21.4273 
N14560 G01 X31.1594 Y21.5080 
N14570 G01 X31.1594 Y23.9834 
N14580 G01 X31.1811 Y24.0641 
N14590 G01 X31.2229 Y24.1365 
N14600 G01 X31.9707 Y24.8844 
N14610 G01 X32.0298 Y24.9435 
N14620 G01 X32.1772 Y25.0908 
N14630 G01 X32.1900 Y25.1075 
N14640 G01 X32.2067 Y25.1203 
N14650 G01 X32.2215 Y25.1351 
N14660 G01 X32.2397 Y25.1456 
N14670 G01 X32.2561 Y25.1582 
N14680 G01 X32.5076 Y25.4097 
N14690 G01 X32.6437 Y25.7382 
N14700 G01 X32.6437 Y27.6018 
N14710 G01 X32.5076 Y27.9302 
N14720 G01 X32.2562 Y28.1816 
N14730 G01 X31.9278 Y28.3177 
N14740 G01 X31.5722 Y28.3177 
N14750 G01 X31.2437 Y28.1816 
N14760 G01 X30.9924 Y27.9302 
N14770 G01 X30.8563 Y27.6018 
N14780 G01 X30.8563 Y25.7382 
N14790 G01 X30.9123 Y25.6030 
N14800 G01 X30.9228 Y25.5849 
N14810 G01 X30.9282 Y25.5646 
N14820 G01 X30.9363 Y25.5452 
N14830 G01 X30.9390 Y25.5244 
N14840 G01 X30.9444 Y25.5041 
N14850 G01 X30.9444 Y25.4831 
N14860 G01 X30.9472 Y25.4623 
N14870 G01 X30.9444 Y25.4415 
N14880 G01 X30.9444 Y25.4205 
N14890 G01 X30.9390 Y25.4002 
N14900 G01 X30.9363 Y25.3794 
N14910 G01 X30.9282 Y25.3600 
N14920 G01 X30.9228 Y25.3398 
N14930 G01 X30.9123 Y25.3216 
N14940 G01 X30.9043 Y25.3022 
N14950 G01 X30.8915 Y25.2855 
N14960 G01 X30.8810 Y25.2674 
N14970 G01 X30.8662 Y25.2525 
N14980 G01 X30.8534 Y25.2359 
N14990 G01 X30.8367 Y25.2231 
N15000 G01 X30.1973 Y24.5837 
N15010 G01 X30.1907 Y24.5678 
N15020 G01 X30.1853 Y24.5475 
N15030 G01 X30.1748 Y24.5294 
N15040 G01 X30.1668 Y24.5100 
N15050 G01 X30.1540 Y24.4933 
N15060 G01 X30.1435 Y24.4751 
N15070 G01 X30.1287 Y24.4603 
N15080 G01 X30.1159 Y24.4436 
N15090 G01 X30.0992 Y24.4309 
N15100 G01 X30.0844 Y24.4160 
N15110 G01 X30.0662 Y24.4055 
N15120 G01 X30.0496 Y24.3927 
N15130 G01 X30.0302 Y24.3847 
N15140 G01 X30.0120 Y24.3742 
N15150 G01 X29.9917 Y24.3688 
N15160 G01 X29.9723 Y24.3608 
N15170 G01 X29.9515 Y24.3580 
N15180 G01 X29.9312 Y24.3526 
N15190 G01 X29.9103 Y24.3526 
N15200 G01 X29.8895 Y24.3498 
N15210 G01 X29.8686 Y24.3526 
N15220 G01 X29.8476 Y24.3526 
N15230 G01 X29.8274 Y24.3580 
N15240 G01 X29.8066 Y24.3608 
N15250 G01 X29.7872 Y24.3688 
N15260 G01 X29.7669 Y24.3742 
N15270 G01 X29.7487 Y24.3847 
N15280 G01 X29.7293 Y24.3927 
N15290 G01 X29.7127 Y24.4055 
N15300 G01 X29.6945 Y24.4160 
N15310 G01 X29.6797 Y24.4308 
N15320 G01 X29.6630 Y24.4436 
N15330 G01 X29.6502 Y24.4603 
N15340 G01 X29.6354 Y24.4751 
N15350 G01 X29.6249 Y24.4933 
N15360 G01 X29.6121 Y24.5100 
N15370 G01 X29.6041 Y24.5294 
N15380 G01 X29.5936 Y24.5475 
N15390 G01 X29.5882 Y24.5678 
N15400 G01 X29.5801 Y24.5872 
N15410 G01 X29.5774 Y24.6080 
N15420 G01 X29.5719 Y24.6283 
N15430 G01 X29.5719 Y24.6493 
N15440 G01 X29.5692 Y24.6701 
N15450 G01 X29.5719 Y24.6909 
N15460 G01 X29.5719 Y24.8656 
N15470 G01 X29.5692 Y24.8865 
N15480 G01 X29.5719 Y24.9073 
N15490 G01 X29.5719 Y24.9282 
N15500 G01 X29.5774 Y24.9485 
N15510 G01 X29.5801 Y24.9694 
N15520 G01 X29.5882 Y24.9887 
N15530 G01 X29.5936 Y25.0090 
N15540 G01 X29.6041 Y25.0272 
N15550 G01 X29.6121 Y25.0466 
N15560 G01 X29.6249 Y25.0632 
N15570 G01 X29.6354 Y25.0814 
N15580 G01 X29.6502 Y25.0962 
N15590 G01 X29.6630 Y25.1129 
N15600 G01 X29.6797 Y25.1257 
N15610 G01 X29.6945 Y25.1405 
N15620 G01 X29.7037 Y25.1458 
N15630 G01 X29.9676 Y25.4097 
N15640 G01 X30.1037 Y25.7382 
N15650 G01 X30.1037 Y27.6018 
N15660 G01 X29.9676 Y27.9302 
N15670 G01 X29.7162 Y28.1816 
N15680 G01 X29.3878 Y28.3177 
N15690 G01 X29.0322 Y28.3177 
N15700 G01 X28.7037 Y28.1816 
N15710 G01 X28.4524 Y27.9302 
N15720 G01 X28.3163 Y27.6018 
N15730 G01 X28.3163 Y25.7382 
N15740 G01 X28.4524 Y25.4097 
N15750 G01 X28.4671 Y25.3950 
N15760 G01 X28.5089 Y25.3226 
N15770 G01 X28.5305 Y25.2419 
N15780 G01 X28.5305 Y25.0005 
N15790 G01 X28.5089 Y24.9198 
N15800 G01 X28.4671 Y24.8474 
N15810 G01 X28.4080 Y24.7883 
N15820 G01 X28.3615 Y24.7614 
N15830 G01 X28.3356 Y24.7465 
N15840 G01 X28.2549 Y24.7248 
N15850 G01 X28.1712 Y24.7248 
N15860 G01 X28.0905 Y24.7465 
N15870 G01 X28.0181 Y24.7883 
N15880 G01 X27.5833 Y25.2231 
N15890 G01 X27.5666 Y25.2359 
N15900 G01 X27.5538 Y25.2525 
N15910 G01 X27.5390 Y25.2674 
N15920 G01 X27.5285 Y25.2856 
N15930 G01 X27.5157 Y25.3022 
N15940 G01 X27.5077 Y25.3216 
N15950 G01 X27.4972 Y25.3398 
N15960 G01 X27.4918 Y25.3600 
N15970 G01 X27.4837 Y25.3794 
N15980 G01 X27.4810 Y25.4002 
N15990 G01 X27.4756 Y25.4205 
N16000 G01 X27.4756 Y25.4415 
N16010 G01 X27.4728 Y25.4623 
N16020 G01 X27.4756 Y25.4831 
N16030 G01 X27.4756 Y25.5041 
N16040 G01 X27.4810 Y25.5244 
N16050 G01 X27.4837 Y25.5452 
N16060 G01 X27.4918 Y25.5646 
N16070 G01 X27.4972 Y25.5849 
N16080 G01 X27.5077 Y25.6030 
N16090 G01 X27.5637 Y25.7382 
N16100 G01 X27.5637 Y27.6018 
N16110 G01 X27.4276 Y27.9302 
N16120 G01 X27.1762 Y28.1816 
N16130 G01 X26.8478 Y28.3177 
N16140 G01 X26.4922 Y28.3177 
N16150 G01 X26.1638 Y28.1816 
N16160 G01 X25.9124 Y27.9302 
N16170 G01 X25.7763 Y27.6018 
N16180 G01 X25.7763 Y25.7382 
N16190 G01 X25.9124 Y25.4097 
N16200 G01 X26.1639 Y25.1582 
N16210 G01 X26.1803 Y25.1456 
N16220 G01 X26.1985 Y25.1351 
N16230 G01 X26.2133 Y25.1203 
N16240 G01 X26.2300 Y25.1075 
N16250 G01 X26.2427 Y25.0909 
N16260 G01 X26.4493 Y24.8844 
N16270 G01 X27.1380 Y24.1956 
N16280 G01 X27.1971 Y24.1365 
N16290 G01 X27.2389 Y24.0641 
N16300 G01 X27.2605 Y23.9834 
N16310 G01 X27.2605 Y21.5080 
N16320 G01 X27.2389 Y21.4273 
N16330 G01 X27.1971 Y21.3549 
N16340 G01 X27.1380 Y21.2958 
N16350 G01 X27.0656 Y21.2540 
N16360 G01 X26.9849 Y21.2323 
N16370 G01 X26.9012 Y21.2323 
N16380 G01 X26.8205 Y21.2540 
N16390 G01 X26.7481 Y21.2958 
N16400 G01 X25.5079 Y22.5360 
N16410 G01 X25.4666 Y22.6075 
N16420 G01 X25.4444 Y22.6891 
N16430 G01 X25.4444 Y24.2336 
N16440 G01 X25.3652 Y24.4250 
N16450 G01 X24.9320 Y24.8581 
N16460 G01 X24.8729 Y24.9172 
N16470 G01 X24.8311 Y24.9896 
N16480 G01 X24.8094 Y25.0704 
N16490 G01 X24.8094 Y25.1583 
N16500 G01 X24.8094 Y25.2005 
N16510 G01 X24.8094 Y25.2419 
N16520 G01 X24.8170 Y25.2702 
N16530 G01 X24.8311 Y25.3226 
N16540 G01 X24.8687 Y25.3877 
N16550 G01 X24.8729 Y25.3950 
N16560 G01 X24.8876 Y25.4098 
N16570 G01 X25.0237 Y25.7382 
N16580 G01 X25.0237 Y27.6018 
N16590 G01 X24.8876 Y27.9302 
N16600 G01 X24.6362 Y28.1816 
N16610 G01 X24.3078 Y28.3177 
N16620 G01 X23.9522 Y28.3177 
N16630 G01 X23.6238 Y28.1816 
N16640 G01 X23.3724 Y27.9302 
N16650 G01 X23.2363 Y27.6018 
N16660 G01 X23.2363 Y25.7382 
N16670 G01 X23.3724 Y25.4097 
N16680 G01 X23.6363 Y25.1458 
N16690 G01 X23.6455 Y25.1405 
N16700 G01 X23.6603 Y25.1257 
N16710 G01 X23.6770 Y25.1129 
N16720 G01 X23.6898 Y25.0962 
N16730 G01 X23.7046 Y25.0814 
N16740 G01 X23.7151 Y25.0632 
N16750 G01 X23.7279 Y25.0466 
N16760 G01 X23.7359 Y25.0272 
N16770 G01 X23.7464 Y25.0090 
N16780 G01 X23.7518 Y24.9887 
N16790 G01 X23.7599 Y24.9694 
N16800 G01 X23.7626 Y24.9485 
N16810 G01 X23.7680 Y24.9282 
N16820 G01 X23.7680 Y24.9073 
N16830 G01 X23.7708 Y24.8865 
N16840 G01 X23.7680 Y24.8656 
N16850 G01 X23.7680 Y24.6614 
N16860 G01 X23.8473 Y24.4700 
N16870 G01 X24.0089 Y24.3085 
N16880 G01 X24.2805 Y24.0369 
N16890 G01 X24.3396 Y23.9778 
N16900 G01 X24.3814 Y23.9054 
N16910 G01 X24.4030 Y23.8246 
N16920 G01 X24.4030 Y22.2866 
N16930 G01 X24.4096 Y22.2644 
N16940 G01 X24.4176 Y22.2450 
N16950 G01 X24.4204 Y22.2241 
N16960 G01 X24.4258 Y22.2039 
N16970 G01 X24.4258 Y22.1829 
N16980 G01 X24.4285 Y22.1621 
N16990 G01 X24.4258 Y22.1413 
N17000 G01 X24.4258 Y22.1203 
N17010 G01 X24.4204 Y22.1000 
N17020 G01 X24.4176 Y22.0792 
N17030 G01 X24.4096 Y22.0598 
N17040 G01 X24.4042 Y22.0395 
N17050 G01 X24.3937 Y22.0213 
N17060 G01 X24.3856 Y22.0020 
N17070 G01 X24.3729 Y21.9853 
N17080 G01 X24.3624 Y21.9671 
N17090 G01 X24.3475 Y21.9523 
N17100 G01 X24.3348 Y21.9356 
N17110 G01 X24.3181 Y21.9229 
N17120 G01 X24.3033 Y21.9080 
N17130 G01 X24.2851 Y21.8975 
N17140 G01 X24.2684 Y21.8847 
N17150 G01 X24.2490 Y21.8767 
N17160 G01 X24.2309 Y21.8662 
N17170 G01 X24.2106 Y21.8608 
N17180 G01 X24.1912 Y21.8527 
N17190 G01 X24.1704 Y21.8500 
N17200 G01 X24.1501 Y21.8446 
N17210 G01 X24.1291 Y21.8446 
N17220 G01 X24.1083 Y21.8418 
N17230 G01 X24.0875 Y21.8446 
N17240 G01 X24.0665 Y21.8446 
N17250 G01 X24.0462 Y21.8500 
N17260 G01 X24.0254 Y21.8527 
N17270 G01 X24.0060 Y21.8608 
N17280 G01 X23.9858 Y21.8662 
N17290 G01 X23.9676 Y21.8767 
N17300 G01 X23.9482 Y21.8847 
N17310 G01 X23.9315 Y21.8975 
N17320 G01 X23.9134 Y21.9080 
N17330 G01 X23.8985 Y21.9229 
N17340 G01 X23.8819 Y21.9356 
N17350 G01 X23.8691 Y21.9523 
N17360 G01 X22.3575 Y23.4639 
N17370 G01 X22.3329 Y23.4885 
N17380 G01 X22.2911 Y23.5609 
N17390 G01 X22.2694 Y23.6416 
N17400 G01 X22.2694 Y25.1583 
N17410 G01 X22.2694 Y25.2005 
N17420 G01 X22.2694 Y25.2419 
N17430 G01 X22.2770 Y25.2702 
N17440 G01 X22.2911 Y25.3226 
N17450 G01 X22.3287 Y25.3877 
N17460 G01 X22.3329 Y25.3950 
N17470 G01 X22.3476 Y25.4098 
N17480 G01 X22.4837 Y25.7382 
N17490 G01 X22.4837 Y27.6018 
N17500 G01 X22.3476 Y27.9302 
N17510 G01 X22.0962 Y28.1816 
N17520 G01 X21.7678 Y28.3177 
N17530 G01 X21.4122 Y28.3177 
N17540 G01 X21.0837 Y28.1816 
N17550 G01 X20.8324 Y27.9302 
N17560 G01 X20.6963 Y27.6018 
N17570 G01 X20.6963 Y25.7382 
N17580 G01 X20.8324 Y25.4097 
N17590 G01 X21.0963 Y25.1458 
N17600 G01 X21.1055 Y25.1405 
N17610 G01 X21.1203 Y25.1257 
N17620 G01 X21.1370 Y25.1129 
N17630 G01 X21.1498 Y25.0962 
N17640 G01 X21.1646 Y25.0814 
N17650 G01 X21.1751 Y25.0632 
N17660 G01 X21.1879 Y25.0466 
N17670 G01 X21.1959 Y25.0272 
N17680 G01 X21.2064 Y25.0090 
N17690 G01 X21.2118 Y24.9887 
N17700 G01 X21.2199 Y24.9694 
N17710 G01 X21.2226 Y24.9485 
N17720 G01 X21.2280 Y24.9282 
N17730 G01 X21.2280 Y24.9073 
N17740 G01 X21.2308 Y24.8865 
N17750 G01 X21.2280 Y24.8656 
N17760 G01 X21.2280 Y23.2327 
N17770 G01 X21.3073 Y23.0413 
N17780 G01 X21.4689 Y22.8797 
N17790 G01 X24.8075 Y19.5411 
N17800 G01 X24.8667 Y19.4820 
N17810 G01 X24.9085 Y19.4096 
N17820 G01 X24.9301 Y19.3288 
N17830 G01 X24.9301 Y18.5095 
N17840 G01 X25.0119 Y18.4277 
N17850 G01 X25.7881 Y18.4277 
N17860 G01 X25.8400 Y18.4797 
N17870 G01 X25.9124 Y18.5215 
N17880 G01 X25.9932 Y18.5431 
N17890 G01 X26.0768 Y18.5431 
N17900 G01 X26.1210 Y18.5313 
N17910 G01 X26.1575 Y18.5215 
N17920 G01 X26.1785 Y18.5094 
N17930 G01 X26.2299 Y18.4797 
N17940 G01 X26.2819 Y18.4277 
N17950 G01 X27.0581 Y18.4277 
N17960 G01 X27.1100 Y18.4797 
N17970 G01 X27.1824 Y18.5215 
N17980 G01 X27.2632 Y18.5431 
N17990 G01 X27.3468 Y18.5431 
N18000 G01 X27.3910 Y18.5313 
N18010 G01 X27.4275 Y18.5215 
N18020 G01 X27.4485 Y18.5094 
N18030 G01 X27.4999 Y18.4797 
N18040 G01 X27.5519 Y18.4277 
N18050 G01 X28.3281 Y18.4277 
N18060 G01 X28.3800 Y18.4797 
N18070 G01 X28.4524 Y18.5215 
N18080 G01 X28.5332 Y18.5431 
N18090 G01 X28.6168 Y18.5431 
N18100 G01 X28.6610 Y18.5313 
N18110 G01 X28.6975 Y18.5215 
N18120 G01 X28.7185 Y18.5094 
N18130 G01 X28.7699 Y18.4797 
N18140 G01 X28.8219 Y18.4277 
N18150 G01 X29.5981 Y18.4277 
N18160 G01 X29.6500 Y18.4797 
N18170 G01 X29.7224 Y18.5215 
N18180 G01 X29.8032 Y18.5431 
N18190 G01 X29.8868 Y18.5431 
N18200 G01 X29.9310 Y18.5313 
N18210 G01 X29.9675 Y18.5215 
N18220 G01 X29.9885 Y18.5094 
N18230 G01 X30.0399 Y18.4797 
N18240 G01 X30.0919 Y18.4277 
N18250 G01 X30.8681 Y18.4277 
N18260 G01 X30.9200 Y18.4797 
N18270 G01 X30.9924 Y18.5215 
N18280 G01 X31.0732 Y18.5431 
N18290 G01 X31.1568 Y18.5431 
N18300 G01 X31.2010 Y18.5313 
N18310 G01 X31.2375 Y18.5215 
N18320 G01 X31.2585 Y18.5094 
N18330 G01 X31.3099 Y18.4797 
N18340 G01 X31.3619 Y18.4277 
N18350 G01 X32.1381 Y18.4277 
N18360 G01 X32.1900 Y18.4797 
N18370 G01 X32.2624 Y18.5215 
N18380 G01 X32.3432 Y18.5431 
N18390 G01 X32.4268 Y18.5431 
N18400 G01 X32.4710 Y18.5313 
N18410 G01 X32.5075 Y18.5215 
N18420 G01 X32.5285 Y18.5094 
N18430 G01 X32.5799 Y18.4797 
N18440 G01 X32.6319 Y18.4277 
N18450 G01 X33.4081 Y18.4277 
N18460 G01 X33.4899 Y18.5095 
N18470 G00 Z3.0000  
N18480 G00 X33.4471 Y18.5027 
N18490 G01 Z-0.0800 F254   
N18500 G01 X33.4149 Y18.4705 F508   
N18510 G01 X33.3729 Y18.4531 
N18520 G01 X32.6671 Y18.4531 
N18530 G01 X32.6251 Y18.4705 
N18540 G01 X32.5929 Y18.5027 
N18550 G01 X32.5755 Y18.5447 
N18560 G01 X32.5755 Y19.3627 
N18570 G01 X32.5585 Y19.3922 
N18580 G01 X32.5247 Y19.5182 
N18590 G01 X32.5247 Y19.7502 
N18600 G01 X32.5585 Y19.8762 
N18610 G01 X32.5755 Y19.9057 
N18620 G01 X32.5755 Y20.6221 
N18630 G01 X32.5929 Y20.6641 
N18640 G01 X32.6251 Y20.6963 
N18650 G01 X32.6671 Y20.7137 
N18660 G01 X33.3482 Y20.7137 
N18670 G01 X36.1760 Y23.5414 
N18680 G01 X36.1760 Y25.3421 
N18690 G01 X36.1555 Y25.3625 
N18700 G01 X36.0605 Y25.5047 
N18710 G01 X35.9951 Y25.6627 
N18720 G01 X35.9617 Y25.8305 
N18730 G01 X35.9617 Y27.5095 
N18740 G01 X35.9951 Y27.6773 
N18750 G01 X36.0605 Y27.8353 
N18760 G01 X36.1555 Y27.9775 
N18770 G01 X36.2765 Y28.0984 
N18780 G01 X36.4187 Y28.1935 
N18790 G01 X36.5767 Y28.2589 
N18800 G01 X36.7445 Y28.2923 
N18810 G01 X36.9155 Y28.2923 
N18820 G01 X37.0833 Y28.2589 
N18830 G01 X37.2413 Y28.1935 
N18840 G01 X37.3835 Y28.0984 
N18850 G01 X37.5044 Y27.9775 
N18860 G01 X37.5995 Y27.8353 
N18870 G01 X37.6649 Y27.6773 
N18880 G01 X37.6983 Y27.5095 
N18890 G01 X37.6983 Y25.8305 
N18900 G01 X37.6649 Y25.6627 
N18910 G01 X37.5995 Y25.5047 
N18920 G01 X37.5044 Y25.3625 
N18930 G01 X37.3835 Y25.2415 
N18940 G01 X37.2413 Y25.1465 
N18950 G01 X37.1665 Y25.1156 
N18960 G01 X37.1665 Y23.2710 
N18970 G01 X37.1328 Y23.1451 
N18980 G01 X37.0676 Y23.0321 
N18990 G01 X36.9754 Y22.9399 
N19000 G01 X33.5013 Y19.4658 
N19010 G01 X33.4815 Y19.3922 
N19020 G01 X33.4645 Y19.3627 
N19030 G01 X33.4645 Y18.5447 
N19040 G01 X33.4471 Y18.5027 
N19050 G00 Z3.0000  
N19060 G00 X32.1771 Y18.5027 
N19070 G01 Z-0.0800 F254   
N19080 G01 X32.1449 Y18.4705 F508   
N19090 G01 X32.1029 Y18.4531 
N19100 G01 X31.3971 Y18.4531 
N19110 G01 X31.3551 Y18.4705 
N19120 G01 X31.3229 Y18.5027 
N19130 G01 X31.3055 Y18.5447 
N19140 G01 X31.3055 Y19.3627 
N19150 G01 X31.2885 Y19.3922 
N19160 G01 X31.2547 Y19.5182 
N19170 G01 X31.2547 Y19.7502 
N19180 G01 X31.2885 Y19.8762 
N19190 G01 X31.3055 Y19.9057 
N19200 G01 X31.3055 Y20.6221 
N19210 G01 X31.3229 Y20.6641 
N19220 G01 X31.3551 Y20.6963 
N19230 G01 X31.3971 Y20.7137 
N19240 G01 X31.4135 Y20.7137 
N19250 G01 X31.4135 Y20.8615 
N19260 G01 X31.4472 Y20.9874 
N19270 G01 X31.5124 Y21.1004 
N19280 G01 X33.0010 Y22.5889 
N19290 G01 X33.0010 Y24.1952 
N19300 G01 X33.0347 Y24.3212 
N19310 G01 X33.0999 Y24.4341 
N19320 G01 X33.6360 Y24.9702 
N19330 G01 X33.6360 Y25.3421 
N19340 G01 X33.6155 Y25.3625 
N19350 G01 X33.5205 Y25.5047 
N19360 G01 X33.4551 Y25.6627 
N19370 G01 X33.4217 Y25.8305 
N19380 G01 X33.4217 Y27.5095 
N19390 G01 X33.4551 Y27.6773 
N19400 G01 X33.5205 Y27.8353 
N19410 G01 X33.6155 Y27.9775 
N19420 G01 X33.7365 Y28.0984 
N19430 G01 X33.8787 Y28.1935 
N19440 G01 X34.0367 Y28.2589 
N19450 G01 X34.2045 Y28.2923 
N19460 G01 X34.3755 Y28.2923 
N19470 G01 X34.5433 Y28.2589 
N19480 G01 X34.7013 Y28.1935 
N19490 G01 X34.8435 Y28.0984 
N19500 G01 X34.9644 Y27.9775 
N19510 G01 X35.0595 Y27.8353 
N19520 G01 X35.1249 Y27.6773 
N19530 G01 X35.1583 Y27.5095 
N19540 G01 X35.1583 Y25.8305 
N19550 G01 X35.1249 Y25.6627 
N19560 G01 X35.0595 Y25.5047 
N19570 G01 X34.9644 Y25.3625 
N19580 G01 X34.8435 Y25.2415 
N19590 G01 X34.7013 Y25.1465 
N19600 G01 X34.6265 Y25.1156 
N19610 G01 X34.6265 Y24.6998 
N19620 G01 X34.5928 Y24.5738 
N19630 G01 X34.5276 Y24.4609 
N19640 G01 X34.4354 Y24.3687 
N19650 G01 X33.9915 Y23.9248 
N19660 G01 X33.9915 Y22.3185 
N19670 G01 X33.9578 Y22.1926 
N19680 G01 X33.8926 Y22.0796 
N19690 G01 X33.8004 Y21.9874 
N19700 G01 X32.4040 Y20.5911 
N19710 G01 X32.4040 Y19.7785 
N19720 G01 X32.3703 Y19.6526 
N19730 G01 X32.3051 Y19.5396 
N19740 G01 X32.2313 Y19.4658 
N19750 G01 X32.2115 Y19.3922 
N19760 G01 X32.1945 Y19.3627 
N19770 G01 X32.1945 Y18.5447 
N19780 G01 X32.1771 Y18.5027 
N19790 G00 Z3.0000  
N19800 G00 X30.9071 Y18.5027 
N19810 G01 Z-0.0800 F254   
N19820 G01 X30.8749 Y18.4705 F508   
N19830 G01 X30.8329 Y18.4531 
N19840 G01 X30.1271 Y18.4531 
N19850 G01 X30.0851 Y18.4705 
N19860 G01 X30.0529 Y18.5027 
N19870 G01 X30.0355 Y18.5447 
N19880 G01 X30.0355 Y19.3627 
N19890 G01 X30.0185 Y19.3922 
N19900 G01 X29.9847 Y19.5182 
N19910 G01 X29.9847 Y19.7502 
N19920 G01 X30.0185 Y19.8762 
N19930 G01 X30.0355 Y19.9057 
N19940 G01 X30.0355 Y20.6221 
N19950 G01 X30.0529 Y20.6641 
N19960 G01 X30.0851 Y20.6963 
N19970 G01 X30.1271 Y20.7137 
N19980 G01 X30.1435 Y20.7137 
N19990 G01 X30.1435 Y24.3540 
N20000 G01 X30.1772 Y24.4799 
N20010 G01 X30.2424 Y24.5929 
N20020 G01 X31.0501 Y25.4006 
N20030 G01 X30.9805 Y25.5047 
N20040 G01 X30.9151 Y25.6627 
N20050 G01 X30.8817 Y25.8305 
N20060 G01 X30.8817 Y27.5095 
N20070 G01 X30.9151 Y27.6773 
N20080 G01 X30.9805 Y27.8353 
N20090 G01 X31.0755 Y27.9775 
N20100 G01 X31.1965 Y28.0984 
N20110 G01 X31.3387 Y28.1935 
N20120 G01 X31.4967 Y28.2589 
N20130 G01 X31.6645 Y28.2923 
N20140 G01 X31.8355 Y28.2923 
N20150 G01 X32.0033 Y28.2589 
N20160 G01 X32.1613 Y28.1935 
N20170 G01 X32.3035 Y28.0984 
N20180 G01 X32.4245 Y27.9775 
N20190 G01 X32.5195 Y27.8353 
N20200 G01 X32.5849 Y27.6773 
N20210 G01 X32.6183 Y27.5095 
N20220 G01 X32.6183 Y25.8305 
N20230 G01 X32.5849 Y25.6627 
N20240 G01 X32.5195 Y25.5047 
N20250 G01 X32.4245 Y25.3625 
N20260 G01 X32.3035 Y25.2415 
N20270 G01 X32.1845 Y25.1621 
N20280 G01 X32.1463 Y25.0959 
N20290 G01 X32.0541 Y25.0037 
N20300 G01 X31.1340 Y24.0836 
N20310 G01 X31.1340 Y19.7785 
N20320 G01 X31.1003 Y19.6526 
N20330 G01 X31.0351 Y19.5396 
N20340 G01 X30.9613 Y19.4658 
N20350 G01 X30.9415 Y19.3922 
N20360 G01 X30.9245 Y19.3627 
N20370 G01 X30.9245 Y18.5447 
N20380 G01 X30.9071 Y18.5027 
N20390 G00 Z3.0000  
N20400 G00 X29.6371 Y18.5027 
N20410 G01 Z-0.0800 F254   
N20420 G01 X29.6049 Y18.4705 F508   
N20430 G01 X29.5629 Y18.4531 
N20440 G01 X28.8571 Y18.4531 
N20450 G01 X28.8151 Y18.4705 
N20460 G01 X28.7829 Y18.5027 
N20470 G01 X28.7655 Y18.5447 
N20480 G01 X28.7655 Y19.3627 
N20490 G01 X28.7485 Y19.3922 
N20500 G01 X28.7287 Y19.4658 
N20510 G01 X28.6549 Y19.5396 
N20520 G01 X28.5897 Y19.6526 
N20530 G01 X28.5559 Y19.7785 
N20540 G01 X28.5559 Y25.3421 
N20550 G01 X28.5355 Y25.3625 
N20560 G01 X28.4405 Y25.5047 
N20570 G01 X28.3751 Y25.6627 
N20580 G01 X28.3417 Y25.8305 
N20590 G01 X28.3417 Y27.5095 
N20600 G01 X28.3751 Y27.6773 
N20610 G01 X28.4405 Y27.8353 
N20620 G01 X28.5355 Y27.9775 
N20630 G01 X28.6565 Y28.0984 
N20640 G01 X28.7987 Y28.1935 
N20650 G01 X28.9567 Y28.2589 
N20660 G01 X29.1245 Y28.2923 
N20670 G01 X29.2955 Y28.2923 
N20680 G01 X29.4633 Y28.2589 
N20690 G01 X29.6213 Y28.1935 
N20700 G01 X29.7635 Y28.0984 
N20710 G01 X29.8845 Y27.9775 
N20720 G01 X29.9795 Y27.8353 
N20730 G01 X30.0449 Y27.6773 
N20740 G01 X30.0783 Y27.5095 
N20750 G01 X30.0783 Y25.8305 
N20760 G01 X30.0449 Y25.6627 
N20770 G01 X29.9795 Y25.5047 
N20780 G01 X29.8845 Y25.3625 
N20790 G01 X29.7635 Y25.2415 
N20800 G01 X29.6213 Y25.1465 
N20810 G01 X29.5465 Y25.1156 
N20820 G01 X29.5465 Y20.7137 
N20830 G01 X29.5629 Y20.7137 
N20840 G01 X29.6049 Y20.6963 
N20850 G01 X29.6371 Y20.6641 
N20860 G01 X29.6545 Y20.6221 
N20870 G01 X29.6545 Y19.9057 
N20880 G01 X29.6715 Y19.8762 
N20890 G01 X29.7053 Y19.7502 
N20900 G01 X29.7053 Y19.5182 
N20910 G01 X29.6715 Y19.3922 
N20920 G01 X29.6545 Y19.3627 
N20930 G01 X29.6545 Y18.5447 
N20940 G01 X29.6371 Y18.5027 
N20950 G00 Z3.0000  
N20960 G00 X28.3671 Y18.5027 
N20970 G01 Z-0.0800 F254   
N20980 G01 X28.3349 Y18.4705 F508   
N20990 G01 X28.2929 Y18.4531 
N21000 G01 X27.5871 Y18.4531 
N21010 G01 X27.5451 Y18.4705 
N21020 G01 X27.5129 Y18.5027 
N21030 G01 X27.4955 Y18.5447 
N21040 G01 X27.4955 Y19.3627 
N21050 G01 X27.4785 Y19.3922 
N21060 G01 X27.4587 Y19.4658 
N21070 G01 X27.3849 Y19.5396 
N21080 G01 X27.3197 Y19.6526 
N21090 G01 X27.2859 Y19.7785 
N21100 G01 X27.2859 Y24.0836 
N21110 G01 X26.3659 Y25.0037 
N21120 G01 X26.2737 Y25.0959 
N21130 G01 X26.2355 Y25.1621 
N21140 G01 X26.1165 Y25.2415 
N21150 G01 X25.9955 Y25.3625 
N21160 G01 X25.9005 Y25.5047 
N21170 G01 X25.8351 Y25.6627 
N21180 G01 X25.8017 Y25.8305 
N21190 G01 X25.8017 Y27.5095 
N21200 G01 X25.8351 Y27.6773 
N21210 G01 X25.9005 Y27.8353 
N21220 G01 X25.9955 Y27.9775 
N21230 G01 X26.1165 Y28.0984 
N21240 G01 X26.2587 Y28.1935 
N21250 G01 X26.4167 Y28.2589 
N21260 G01 X26.5845 Y28.2923 
N21270 G01 X26.7555 Y28.2923 
N21280 G01 X26.9233 Y28.2589 
N21290 G01 X27.0813 Y28.1935 
N21300 G01 X27.2235 Y28.0984 
N21310 G01 X27.3444 Y27.9775 
N21320 G01 X27.4395 Y27.8353 
N21330 G01 X27.5049 Y27.6773 
N21340 G01 X27.5383 Y27.5095 
N21350 G01 X27.5383 Y25.8305 
N21360 G01 X27.5049 Y25.6627 
N21370 G01 X27.4395 Y25.5047 
N21380 G01 X27.3699 Y25.4006 
N21390 G01 X28.1776 Y24.5929 
N21400 G01 X28.2428 Y24.4799 
N21410 G01 X28.2765 Y24.3540 
N21420 G01 X28.2765 Y20.7137 
N21430 G01 X28.2929 Y20.7137 
N21440 G01 X28.3349 Y20.6963 
N21450 G01 X28.3671 Y20.6641 
N21460 G01 X28.3845 Y20.6221 
N21470 G01 X28.3845 Y19.9057 
N21480 G01 X28.4015 Y19.8762 
N21490 G01 X28.4353 Y19.7502 
N21500 G01 X28.4353 Y19.5182 
N21510 G01 X28.4015 Y19.3922 
N21520 G01 X28.3845 Y19.3627 
N21530 G01 X28.3845 Y18.5447 
N21540 G01 X28.3671 Y18.5027 
N21550 G00 Z3.0000  
N21560 G00 X27.0971 Y18.5027 
N21570 G01 Z-0.0800 F254   
N21580 G01 X27.0649 Y18.4705 F508   
N21590 G01 X27.0229 Y18.4531 
N21600 G01 X26.3171 Y18.4531 
N21610 G01 X26.2751 Y18.4705 
N21620 G01 X26.2429 Y18.5027 
N21630 G01 X26.2255 Y18.5447 
N21640 G01 X26.2255 Y19.3627 
N21650 G01 X26.2085 Y19.3922 
N21660 G01 X26.1887 Y19.4658 
N21670 G01 X26.1149 Y19.5396 
N21680 G01 X26.0497 Y19.6526 
N21690 G01 X26.0160 Y19.7785 
N21700 G01 X26.0160 Y20.5911 
N21710 G01 X24.6196 Y21.9874 
N21720 G01 X24.5274 Y22.0796 
N21730 G01 X24.4622 Y22.1926 
N21740 G01 X24.4285 Y22.3185 
N21750 G01 X24.4285 Y23.9248 
N21760 G01 X23.9846 Y24.3687 
N21770 G01 X23.8924 Y24.4609 
N21780 G01 X23.8272 Y24.5738 
N21790 G01 X23.7934 Y24.6998 
N21800 G01 X23.7934 Y25.1156 
N21810 G01 X23.7187 Y25.1465 
N21820 G01 X23.5765 Y25.2415 
N21830 G01 X23.4555 Y25.3625 
N21840 G01 X23.3605 Y25.5047 
N21850 G01 X23.2951 Y25.6627 
N21860 G01 X23.2617 Y25.8305 
N21870 G01 X23.2617 Y27.5095 
N21880 G01 X23.2951 Y27.6773 
N21890 G01 X23.3605 Y27.8353 
N21900 G01 X23.4555 Y27.9775 
N21910 G01 X23.5765 Y28.0984 
N21920 G01 X23.7187 Y28.1935 
N21930 G01 X23.8767 Y28.2589 
N21940 G01 X24.0445 Y28.2923 
N21950 G01 X24.2155 Y28.2923 
N21960 G01 X24.3833 Y28.2589 
N21970 G01 X24.5413 Y28.1935 
N21980 G01 X24.6835 Y28.0984 
N21990 G01 X24.8044 Y27.9775 
N22000 G01 X24.8995 Y27.8353 
N22010 G01 X24.9649 Y27.6773 
N22020 G01 X24.9983 Y27.5095 
N22030 G01 X24.9983 Y25.8305 
N22040 G01 X24.9649 Y25.6627 
N22050 G01 X24.8995 Y25.5047 
N22060 G01 X24.8044 Y25.3625 
N22070 G01 X24.7840 Y25.3421 
N22080 G01 X24.7840 Y24.9702 
N22090 G01 X25.3201 Y24.4341 
N22100 G01 X25.3853 Y24.3212 
N22110 G01 X25.4190 Y24.1952 
N22120 G01 X25.4190 Y22.5889 
N22130 G01 X26.9076 Y21.1004 
N22140 G01 X26.9728 Y20.9874 
N22150 G01 X27.0065 Y20.8615 
N22160 G01 X27.0065 Y20.7137 
N22170 G01 X27.0229 Y20.7137 
N22180 G01 X27.0649 Y20.6963 
N22190 G01 X27.0971 Y20.6641 
N22200 G01 X27.1145 Y20.6221 
N22210 G01 X27.1145 Y19.9057 
N22220 G01 X27.1315 Y19.8762 
N22230 G01 X27.1653 Y19.7502 
N22240 G01 X27.1653 Y19.5182 
N22250 G01 X27.1315 Y19.3922 
N22260 G01 X27.1145 Y19.3627 
N22270 G01 X27.1145 Y18.5447 
N22280 G01 X27.0971 Y18.5027 
N22290 G00 Z3.0000  
N22300 G00 X25.8271 Y18.5027 
N22310 G01 Z-0.0800 F254   
N22320 G01 X25.7949 Y18.4705 F508   
N22330 G01 X25.7529 Y18.4531 
N22340 G01 X25.0471 Y18.4531 
N22350 G01 X25.0051 Y18.4705 
N22360 G01 X24.9729 Y18.5027 
N22370 G01 X24.9555 Y18.5447 
N22380 G01 X24.9555 Y19.3627 
N22390 G01 X24.9385 Y19.3922 
N22400 G01 X24.9187 Y19.4658 
N22410 G01 X21.4446 Y22.9399 
N22420 G01 X21.3524 Y23.0321 
N22430 G01 X21.2872 Y23.1451 
N22440 G01 X21.2535 Y23.2710 
N22450 G01 X21.2535 Y25.1156 
N22460 G01 X21.1787 Y25.1465 
N22470 G01 X21.0365 Y25.2415 
N22480 G01 X20.9155 Y25.3625 
N22490 G01 X20.8205 Y25.5047 
N22500 G01 X20.7551 Y25.6627 
N22510 G01 X20.7217 Y25.8305 
N22520 G01 X20.7217 Y27.5095 
N22530 G01 X20.7551 Y27.6773 
N22540 G01 X20.8205 Y27.8353 
N22550 G01 X20.9155 Y27.9775 
N22560 G01 X21.0365 Y28.0984 
N22570 G01 X21.1787 Y28.1935 
N22580 G01 X21.3367 Y28.2589 
N22590 G01 X21.5045 Y28.2923 
N22600 G01 X21.6755 Y28.2923 
N22610 G01 X21.8433 Y28.2589 
N22620 G01 X22.0013 Y28.1935 
N22630 G01 X22.1435 Y28.0984 
N22640 G01 X22.2645 Y27.9775 
N22650 G01 X22.3595 Y27.8353 
N22660 G01 X22.4249 Y27.6773 
N22670 G01 X22.4583 Y27.5095 
N22680 G01 X22.4583 Y25.8305 
N22690 G01 X22.4249 Y25.6627 
N22700 G01 X22.3595 Y25.5047 
N22710 G01 X22.2645 Y25.3625 
N22720 G01 X22.2440 Y25.3421 
N22730 G01 X22.2440 Y23.5414 
N22740 G01 X25.0718 Y20.7137 
N22750 G01 X25.7529 Y20.7137 
N22760 G01 X25.7949 Y20.6963 
N22770 G01 X25.8271 Y20.6641 
N22780 G01 X25.8445 Y20.6221 
N22790 G01 X25.8445 Y19.9057 
N22800 G01 X25.8615 Y19.8762 
N22810 G01 X25.8953 Y19.7502 
N22820 G01 X25.8953 Y19.5182 
N22830 G01 X25.8615 Y19.3922 
N22840 G01 X25.8445 Y19.3627 
N22850 G01 X25.8445 Y18.5447 
N22860 G01 X25.8271 Y18.5027 
N22870 G00 Z3.0000  
N22880 G00 X22.3219 Y18.0461 
N22890 G01 Z-0.0800 F254   
N22900 G01 X21.8561 Y18.5119 F508   
N22910 G01 X21.2856 Y18.8412 
N22920 G01 X20.6494 Y19.0117 
N22930 G01 X19.9906 Y19.0117 
N22940 G01 X19.3544 Y18.8412 
N22950 G01 X18.7839 Y18.5119 
N22960 G01 X18.3181 Y18.0461 
N22970 G01 X17.9888 Y17.4756 
N22980 G01 X17.8183 Y16.8394 
N22990 G01 X17.8183 Y16.1806 
N23000 G01 X17.9888 Y15.5444 
N23010 G01 X18.3181 Y14.9739 
N23020 G01 X18.7839 Y14.5081 
N23030 G01 X19.3544 Y14.1788 
N23040 G01 X19.9906 Y14.0083 
N23050 G01 X20.6494 Y14.0083 
N23060 G01 X21.2856 Y14.1788 
N23070 G01 X21.8561 Y14.5081 
N23080 G01 X22.3219 Y14.9739 
N23090 G01 X22.6512 Y15.5444 
N23100 G01 X22.8217 Y16.1806 
N23110 G01 X22.8217 Y16.8394 
N23120 G01 X22.6512 Y17.4756 
N23130 G01 X22.3219 Y18.0461 
N23140 G00 Z3.0000  
N23150 G00 X51.4477 Y18.0387 
N23160 G01 Z-0.0800 F254   
N23170 G01 X51.4477 Y21.5618 F508   
N23180 G01 X51.4447 Y21.5947 
N23190 G01 X51.4477 Y21.6229 
N23200 G01 X51.4477 Y21.6513 
N23210 G01 X51.4541 Y21.6837 
N23220 G01 X51.4576 Y21.7166 
N23230 G01 X51.4661 Y21.7437 
N23240 G01 X51.4716 Y21.7715 
N23250 G01 X51.4843 Y21.8021 
N23260 G01 X51.4941 Y21.8336 
N23270 G01 X51.5077 Y21.8585 
N23280 G01 X51.5185 Y21.8848 
N23290 G01 X51.5369 Y21.9123 
N23300 G01 X51.5527 Y21.9413 
N23310 G01 X51.5709 Y21.9631 
N23320 G01 X51.5866 Y21.9867 
N23330 G01 X51.6100 Y22.0101 
N23340 G01 X57.9209 Y29.5831 
N23350 G01 X57.9366 Y29.6067 
N23360 G01 X57.9600 Y29.6301 
N23370 G01 X57.9812 Y29.6555 
N23380 G01 X58.0033 Y29.6733 
N23390 G01 X58.0233 Y29.6934 
N23400 G01 X58.0508 Y29.7117 
N23410 G01 X58.0765 Y29.7325 
N23420 G01 X58.1016 Y29.7457 
N23430 G01 X58.1252 Y29.7615 
N23440 G01 X58.1558 Y29.7741 
N23450 G01 X58.1850 Y29.7895 
N23460 G01 X58.2123 Y29.7975 
N23470 G01 X58.2385 Y29.8084 
N23480 G01 X58.2709 Y29.8148 
N23490 G01 X58.3026 Y29.8242 
N23500 G01 X58.3309 Y29.8268 
N23510 G01 X58.3587 Y29.8323 
N23520 G01 X58.3918 Y29.8323 
N23530 G01 X58.4247 Y29.8353 
N23540 G01 X58.4529 Y29.8323 
N23550 G01 X63.5613 Y29.8323 
N23560 G01 X63.6815 Y29.8084 
N23570 G01 X63.7948 Y29.7615 
N23580 G01 X63.8967 Y29.6934 
N23590 G01 X63.9834 Y29.6067 
N23600 G01 X64.0515 Y29.5048 
N23610 G01 X64.0904 Y29.4107 
N23620 G01 X64.8085 Y29.4107 
N23630 G01 X64.9410 Y29.3752 
N23640 G01 X65.0597 Y29.3067 
N23650 G01 X65.0871 Y29.2793 
N23660 G01 X65.3627 Y29.2793 
N23670 G01 X65.4047 Y29.2619 
N23680 G01 X65.4369 Y29.2297 
N23690 G01 X65.4543 Y29.1877 
N23700 G01 X65.4543 Y28.5923 
N23710 G01 X65.4369 Y28.5503 
N23720 G01 X65.4047 Y28.5181 
N23730 G01 X65.3627 Y28.5007 
N23740 G01 X65.0871 Y28.5007 
N23750 G01 X65.0597 Y28.4733 
N23760 G01 X64.9410 Y28.4048 
N23770 G01 X64.8085 Y28.3693 
N23780 G01 X63.7514 Y28.3693 
N23790 G01 X63.6190 Y28.4048 
N23800 G01 X63.5003 Y28.4733 
N23810 G01 X63.4033 Y28.5703 
N23820 G01 X63.3859 Y28.5877 
N23830 G01 X58.7115 Y28.5877 
N23840 G01 X52.6923 Y21.3647 
N23850 G01 X52.6923 Y18.6443 
N23860 G01 X53.0627 Y18.6443 
N23870 G01 X53.1047 Y18.6269 
N23880 G01 X53.1369 Y18.5947 
N23890 G01 X53.1543 Y18.5527 
N23900 G01 X53.1543 Y17.0073 
N23910 G01 X53.1369 Y16.9653 
N23920 G01 X53.1047 Y16.9331 
N23930 G01 X53.0627 Y16.9157 
N23940 G01 X52.5399 Y16.9157 
N23950 G01 X52.5399 Y12.2983 
N23960 G01 X52.9095 Y12.2983 
N23970 G01 X53.0773 Y12.2649 
N23980 G01 X53.2353 Y12.1995 
N23990 G01 X53.3775 Y12.1044 
N24000 G01 X53.4984 Y11.9835 
N24010 G01 X53.5935 Y11.8413 
N24020 G01 X53.6589 Y11.6833 
N24030 G01 X53.6923 Y11.5155 
N24040 G01 X53.6923 Y11.3445 
N24050 G01 X53.6589 Y11.1767 
N24060 G01 X53.5935 Y11.0187 
N24070 G01 X53.4984 Y10.8765 
N24080 G01 X53.3775 Y10.7555 
N24090 G01 X53.2353 Y10.6605 
N24100 G01 X53.0773 Y10.5951 
N24110 G01 X52.9095 Y10.5617 
N24120 G01 X51.2305 Y10.5617 
N24130 G01 X51.0627 Y10.5951 
N24140 G01 X50.9047 Y10.6605 
N24150 G01 X50.7625 Y10.7555 
N24160 G01 X50.6415 Y10.8765 
N24170 G01 X50.5465 Y11.0187 
N24180 G01 X50.4811 Y11.1767 
N24190 G01 X50.4477 Y11.3445 
N24200 G01 X50.4477 Y11.5155 
N24210 G01 X50.4811 Y11.6833 
N24220 G01 X50.5465 Y11.8413 
N24230 G01 X50.6415 Y11.9835 
N24240 G01 X50.7625 Y12.1044 
N24250 G01 X50.9047 Y12.1995 
N24260 G01 X51.0627 Y12.2649 
N24270 G01 X51.2305 Y12.2983 
N24280 G01 X51.6001 Y12.2983 
N24290 G01 X51.6001 Y17.6898 
N24300 G01 X51.5866 Y17.7033 
N24310 G01 X51.5185 Y17.8052 
N24320 G01 X51.4716 Y17.9185 
N24330 G01 X51.4477 Y18.0387 
N24340 G00 Z3.0000  
N24350 G00 X51.4223 Y17.9712 
N24360 G01 Z-0.0800 F254   
N24370 G01 X51.5313 Y17.7081 F508   
N24380 G01 X51.5531 Y17.6703 
N24390 G01 X51.5747 Y17.5896 
N24400 G01 X51.5747 Y12.5994 
N24410 G01 X51.5531 Y12.5186 
N24420 G01 X51.5113 Y12.4462 
N24430 G01 X51.4521 Y12.3871 
N24440 G01 X51.3798 Y12.3453 
N24450 G01 X51.2990 Y12.3237 
N24460 G01 X51.1382 Y12.3237 
N24470 G01 X50.8098 Y12.1876 
N24480 G01 X50.6076 Y11.9855 
N24490 G01 X50.5948 Y11.9688 
N24500 G01 X50.5781 Y11.9560 
N24510 G01 X50.5633 Y11.9412 
N24520 G01 X50.5451 Y11.9307 
N24530 G01 X50.5284 Y11.9179 
N24540 G01 X50.5091 Y11.9099 
N24550 G01 X50.4909 Y11.8994 
N24560 G01 X50.4706 Y11.8940 
N24570 G01 X50.4512 Y11.8859 
N24580 G01 X50.4304 Y11.8832 
N24590 G01 X50.4102 Y11.8778 
N24600 G01 X50.3891 Y11.8778 
N24610 G01 X50.3683 Y11.8750 
N24620 G01 X50.3475 Y11.8778 
N24630 G01 X50.3266 Y11.8778 
N24640 G01 X50.3063 Y11.8832 
N24650 G01 X50.2854 Y11.8860 
N24660 G01 X50.2661 Y11.8940 
N24670 G01 X50.2458 Y11.8994 
N24680 G01 X50.2276 Y11.9099 
N24690 G01 X50.2082 Y11.9180 
N24700 G01 X50.1916 Y11.9307 
N24710 G01 X50.1734 Y11.9412 
N24720 G01 X50.1586 Y11.9561 
N24730 G01 X50.1419 Y11.9689 
N24740 G01 X50.1291 Y11.9855 
N24750 G01 X50.1143 Y12.0003 
N24760 G01 X50.1038 Y12.0185 
N24770 G01 X50.0910 Y12.0352 
N24780 G01 X50.0830 Y12.0546 
N24790 G01 X50.0725 Y12.0727 
N24800 G01 X50.0711 Y12.0780 
N24810 G01 X50.0586 Y12.0949 
N24820 G01 X50.0456 Y12.1078 
N24830 G01 X50.0311 Y12.1189 
N24840 G01 X50.0153 Y12.1281 
N24850 G01 X49.9983 Y12.1351 
N24860 G01 X49.9806 Y12.1398 
N24870 G01 X49.9625 Y12.1422 
N24880 G01 X47.8275 Y12.1422 
N24890 G01 X47.8094 Y12.1399 
N24900 G01 X47.7917 Y12.1351 
N24910 G01 X47.7747 Y12.1281 
N24920 G01 X47.7589 Y12.1189 
N24930 G01 X47.7444 Y12.1078 
N24940 G01 X47.7314 Y12.0949 
N24950 G01 X47.7203 Y12.0803 
N24960 G01 X47.7111 Y12.0645 
N24970 G01 X47.7041 Y12.0475 
N24980 G01 X47.6994 Y12.0299 
N24990 G01 X47.6970 Y12.0117 
N25000 G01 X47.6970 Y8.4575  
N25010 G01 X47.6994 Y8.4393  
N25020 G01 X47.7041 Y8.4217  
N25030 G01 X47.7111 Y8.4047  
N25040 G01 X47.7203 Y8.3889  
N25050 G01 X47.7314 Y8.3744  
N25060 G01 X47.7452 Y8.3605  
N25070 G01 X47.7597 Y8.3460  
N25080 G01 X47.7881 Y8.2969  
N25090 G01 X47.8015 Y8.2736  
N25100 G01 X47.8152 Y8.2226  
N25110 G01 X47.8232 Y8.1929  
N25120 G01 X47.8232 Y8.1508  
N25130 G01 X47.8232 Y8.1093  
N25140 G01 X47.8115 Y8.0656  
N25150 G01 X47.8015 Y8.0285  
N25160 G01 X47.7739 Y7.9807  
N25170 G01 X47.7597 Y7.9561  
N25180 G01 X47.7314 Y7.9278  
N25190 G01 X47.7203 Y7.9133  
N25200 G01 X47.7111 Y7.8974  
N25210 G01 X47.7041 Y7.8805  
N25220 G01 X47.6994 Y7.8628  
N25230 G01 X47.6970 Y7.8447  
N25240 G01 X47.6970 Y5.9175  
N25250 G01 X47.6994 Y5.8994  
N25260 G01 X47.7041 Y5.8817  
N25270 G01 X47.7111 Y5.8647  
N25280 G01 X47.7203 Y5.8489  
N25290 G01 X47.7314 Y5.8344  
N25300 G01 X47.7444 Y5.8214  
N25310 G01 X47.7589 Y5.8103  
N25320 G01 X47.7747 Y5.8011  
N25330 G01 X47.7917 Y5.7941  
N25340 G01 X47.8094 Y5.7894  
N25350 G01 X47.8275 Y5.7870  
N25360 G01 X49.9625 Y5.7870  
N25370 G01 X49.9806 Y5.7894  
N25380 G01 X49.9983 Y5.7941  
N25390 G01 X50.0153 Y5.8011  
N25400 G01 X50.0311 Y5.8103  
N25410 G01 X50.0456 Y5.8214  
N25420 G01 X50.0516 Y5.8273  
N25430 G01 X50.0571 Y5.8369  
N25440 G01 X50.0719 Y5.8517  
N25450 G01 X50.0847 Y5.8684  
N25460 G01 X50.1014 Y5.8812  
N25470 G01 X50.1162 Y5.8960  
N25480 G01 X50.1344 Y5.9065  
N25490 G01 X50.1510 Y5.9193  
N25500 G01 X50.1704 Y5.9273  
N25510 G01 X50.1886 Y5.9378  
N25520 G01 X50.2089 Y5.9432  
N25530 G01 X50.2282 Y5.9513  
N25540 G01 X50.2491 Y5.9540  
N25550 G01 X50.2693 Y5.9595  
N25560 G01 X50.2903 Y5.9595  
N25570 G01 X50.3111 Y5.9622  
N25580 G01 X50.3319 Y5.9595  
N25590 G01 X50.3529 Y5.9595  
N25600 G01 X50.3732 Y5.9540  
N25610 G01 X50.3940 Y5.9513  
N25620 G01 X50.4134 Y5.9432  
N25630 G01 X50.4337 Y5.9378  
N25640 G01 X50.4519 Y5.9273  
N25650 G01 X50.4713 Y5.9193  
N25660 G01 X50.4879 Y5.9065  
N25670 G01 X50.5061 Y5.8960  
N25680 G01 X50.5209 Y5.8812  
N25690 G01 X50.5376 Y5.8684  
N25700 G01 X50.5504 Y5.8517  
N25710 G01 X50.8098 Y5.5924  
N25720 G01 X51.1382 Y5.4563  
N25730 G01 X53.0018 Y5.4563  
N25740 G01 X53.3302 Y5.5924  
N25750 G01 X53.4700 Y5.7321  
N25760 G01 X53.5291 Y5.7913  
N25770 G01 X53.6015 Y5.8331  
N25780 G01 X53.6823 Y5.8547  
N25790 G01 X58.9641 Y5.8547  
N25800 G01 X59.0448 Y5.8331  
N25810 G01 X59.1172 Y5.7913  
N25820 G01 X59.3586 Y5.5499  
N25830 G01 X60.0214 Y5.5499  
N25840 G01 X60.4901 Y6.0186  
N25850 G01 X60.4901 Y6.6814  
N25860 G01 X60.3078 Y6.8637  
N25870 G01 X60.2487 Y6.9228  
N25880 G01 X60.2069 Y6.9952  
N25890 G01 X60.1853 Y7.0759  
N25900 G01 X60.1853 Y9.6646  
N25910 G01 X60.2069 Y9.7454  
N25920 G01 X60.2487 Y9.8177  
N25930 G01 X60.3078 Y9.8769  
N25940 G01 X60.3802 Y9.9187  
N25950 G01 X60.4610 Y9.9403  
N25960 G01 X60.6779 Y9.9403  
N25970 G01 X60.7597 Y10.0221 
N25980 G01 X60.7597 Y11.1827 
N25990 G01 X60.7578 Y11.1922 
N26000 G01 X60.7597 Y11.2244 
N26010 G01 X60.7597 Y11.2567 
N26020 G01 X60.7622 Y11.2660 
N26030 G01 X60.7628 Y11.2756 
N26040 G01 X60.7730 Y11.3062 
N26050 G01 X60.7813 Y11.3374 
N26060 G01 X60.7862 Y11.3458 
N26070 G01 X60.7892 Y11.3549 
N26080 G01 X60.8070 Y11.3819 
N26090 G01 X60.8231 Y11.4098 
N26100 G01 X60.8299 Y11.4166 
N26110 G01 X60.8353 Y11.4247 
N26120 G01 X60.8594 Y11.4461 
N26130 G01 X60.8822 Y11.4689 
N26140 G01 X60.8906 Y11.4737 
N26150 G01 X60.8978 Y11.4801 
N26160 G01 X60.9267 Y11.4946 
N26170 G01 X60.9546 Y11.5107 
N26180 G01 X60.9640 Y11.5132 
N26190 G01 X64.9385 Y13.5005 
N26200 G01 X64.9476 Y13.5074 
N26210 G01 X64.9758 Y13.5191 
N26220 G01 X65.0031 Y13.5328 
N26230 G01 X65.0143 Y13.5351 
N26240 G01 X65.0506 Y13.5501 
N26250 G01 X65.0565 Y13.5561 
N26260 G01 X65.0649 Y13.5609 
N26270 G01 X65.0721 Y13.5673 
N26280 G01 X65.0796 Y13.5710 
N26290 G01 X65.1054 Y13.6007 
N26300 G01 X65.1111 Y13.6106 
N26310 G01 X65.1327 Y13.6322 
N26320 G01 X65.1526 Y13.6552 
N26330 G01 X65.1621 Y13.6616 
N26340 G01 X65.1899 Y13.6894 
N26350 G01 X65.1931 Y13.6972 
N26360 G01 X65.1990 Y13.7049 
N26370 G01 X65.2032 Y13.7135 
N26380 G01 X65.2087 Y13.7199 
N26390 G01 X65.2211 Y13.7572 
N26400 G01 X65.2226 Y13.7685 
N26410 G01 X65.2343 Y13.7967 
N26420 G01 X65.2440 Y13.8256 
N26430 G01 X65.2503 Y13.8352 
N26440 G01 X65.2653 Y13.8715 
N26450 G01 X65.2653 Y13.8799 
N26460 G01 X65.2678 Y13.8892 
N26470 G01 X65.2684 Y13.8989 
N26480 G01 X65.2710 Y13.9068 
N26490 G01 X65.2682 Y13.9460 
N26500 G01 X65.2653 Y13.9570 
N26510 G01 X65.2653 Y13.9875 
N26520 G01 X65.2631 Y14.0180 
N26530 G01 X65.2653 Y14.0292 
N26540 G01 X65.2653 Y20.4246 
N26550 G01 X65.2869 Y20.5053 
N26560 G01 X65.3287 Y20.5777 
N26570 G01 X65.3878 Y20.6369 
N26580 G01 X65.4602 Y20.6787 
N26590 G01 X65.5410 Y20.7003 
N26600 G01 X65.7979 Y20.7003 
N26610 G01 X65.8451 Y20.7475 
N26620 G01 X65.8996 Y20.7790 
N26630 G01 X65.9174 Y20.7893 
N26640 G01 X65.9558 Y20.7996 
N26650 G01 X65.9982 Y20.8109 
N26660 G01 X66.0818 Y20.8109 
N26670 G01 X66.1626 Y20.7893 
N26680 G01 X66.2349 Y20.7475 
N26690 G01 X66.2821 Y20.7003 
N26700 G01 X66.5390 Y20.7003 
N26710 G01 X66.6197 Y20.6787 
N26720 G01 X66.6921 Y20.6369 
N26730 G01 X66.7513 Y20.5777 
N26740 G01 X66.7931 Y20.5053 
N26750 G01 X66.8147 Y20.4246 
N26760 G01 X66.8147 Y11.7249 
N26770 G01 X66.7931 Y11.6441 
N26780 G01 X66.7513 Y11.5717 
N26790 G01 X62.4522 Y7.2726  
N26800 G01 X62.3931 Y7.2135  
N26810 G01 X62.3207 Y7.1717  
N26820 G01 X62.2399 Y7.1501  
N26830 G01 X61.8986 Y7.1501  
N26840 G01 X61.4299 Y6.6814  
N26850 G01 X61.4299 Y6.0186  
N26860 G01 X61.8986 Y5.5499  
N26870 G01 X62.5614 Y5.5499  
N26880 G01 X63.0301 Y6.0186  
N26890 G01 X63.0301 Y6.3599  
N26900 G01 X63.0517 Y6.4407  
N26910 G01 X63.0935 Y6.5131  
N26920 G01 X64.7229 Y8.1425  
N26930 G01 X64.7821 Y8.2016  
N26940 G01 X64.8545 Y8.2434  
N26950 G01 X64.9352 Y8.2650  
N26960 G01 X65.0188 Y8.2650  
N26970 G01 X65.0996 Y8.2434  
N26980 G01 X65.1720 Y8.2016  
N26990 G01 X65.2311 Y8.1425  
N27000 G01 X65.2729 Y8.0701  
N27010 G01 X65.2945 Y7.9893  
N27020 G01 X65.2945 Y7.9057  
N27030 G01 X65.2729 Y7.8250  
N27040 G01 X64.9788 Y7.3156  
N27050 G01 X64.8083 Y6.6794  
N27060 G01 X64.8083 Y6.0206  
N27070 G01 X64.9788 Y5.3844  
N27080 G01 X65.3081 Y4.8139  
N27090 G01 X65.7739 Y4.3481  
N27100 G01 X66.3444 Y4.0188  
N27110 G01 X66.9806 Y3.8483  
N27120 G01 X67.6394 Y3.8483  
N27130 G01 X68.2756 Y4.0188  
N27140 G01 X68.8461 Y4.3481  
N27150 G01 X69.3119 Y4.8139  
N27160 G01 X69.6412 Y5.3844  
N27170 G01 X69.8117 Y6.0206  
N27180 G01 X69.8117 Y6.6794  
N27190 G01 X69.6412 Y7.3156  
N27200 G01 X69.3119 Y7.8861  
N27210 G01 X68.8461 Y8.3519  
N27220 G01 X68.2756 Y8.6812  
N27230 G01 X67.6394 Y8.8517  
N27240 G01 X66.9806 Y8.8517  
N27250 G01 X66.3444 Y8.6812  
N27260 G01 X65.8370 Y8.3882  
N27270 G01 X65.7543 Y8.3655  
N27280 G01 X65.6706 Y8.3655  
N27290 G01 X65.5899 Y8.3871  
N27300 G01 X65.5175 Y8.4289  
N27310 G01 X65.4584 Y8.4880  
N27320 G01 X65.4166 Y8.5604  
N27330 G01 X65.3950 Y8.6412  
N27340 G01 X65.3950 Y8.7248  
N27350 G01 X65.4166 Y8.8055  
N27360 G01 X65.4584 Y8.8779  
N27370 G01 X65.4949 Y8.9145  
N27380 G01 X65.5175 Y8.9370  
N27390 G01 X67.7299 Y11.1494 
N27400 G01 X67.8053 Y11.3315 
N27410 G01 X67.8053 Y21.2323 
N27420 G01 X67.8026 Y21.2532 
N27430 G01 X67.8053 Y21.2740 
N27440 G01 X67.8053 Y21.2950 
N27450 G01 X67.8107 Y21.3152 
N27460 G01 X67.8135 Y21.3360 
N27470 G01 X67.8215 Y21.3554 
N27480 G01 X67.8269 Y21.3757 
N27490 G01 X67.8374 Y21.3939 
N27500 G01 X67.8861 Y21.5114 
N27510 G01 X67.8861 Y26.3738 
N27520 G01 X67.9077 Y26.4546 
N27530 G01 X67.9495 Y26.5270 
N27540 G01 X68.0797 Y26.6571 
N27550 G01 X68.0797 Y27.3457 
N27560 G01 X68.0691 Y27.3641 
N27570 G01 X68.0577 Y27.4066 
N27580 G01 X68.0474 Y27.4448 
N27590 G01 X68.0474 Y27.4869 
N27600 G01 X68.0474 Y27.5284 
N27610 G01 X68.0585 Y27.5697 
N27620 G01 X68.0691 Y27.6092 
N27630 G01 X68.0732 Y27.6225 
N27640 G01 X68.0461 Y27.6225 
N27650 G01 X68.0369 Y27.6003 
N27660 G01 X68.0047 Y27.5681 
N27670 G01 X67.9627 Y27.5507 
N27680 G01 X66.7173 Y27.5507 
N27690 G01 X66.6753 Y27.5681 
N27700 G01 X66.6431 Y27.6003 
N27710 G01 X66.6339 Y27.6225 
N27720 G01 X66.6068 Y27.6225 
N27730 G01 X66.6098 Y27.6112 
N27740 G01 X66.6215 Y27.5696 
N27750 G01 X66.6325 Y27.5286 
N27760 G01 X66.6325 Y27.4868 
N27770 G01 X66.6326 Y27.4450 
N27780 G01 X66.6223 Y27.4065 
N27790 G01 X66.6110 Y27.3643 
N27800 G01 X66.6003 Y27.3457 
N27810 G01 X66.6003 Y26.6571 
N27820 G01 X66.6713 Y26.5861 
N27830 G01 X66.7305 Y26.5270 
N27840 G01 X66.7723 Y26.4546 
N27850 G01 X66.7939 Y26.3738 
N27860 G01 X66.7939 Y22.7554 
N27870 G01 X66.7723 Y22.6746 
N27880 G01 X66.7305 Y22.6022 
N27890 G01 X66.6713 Y22.5431 
N27900 G01 X66.5990 Y22.5013 
N27910 G01 X66.5182 Y22.4797 
N27920 G01 X66.2821 Y22.4797 
N27930 G01 X66.2349 Y22.4325 
N27940 G01 X66.1626 Y22.3907 
N27950 G01 X66.0818 Y22.3691 
N27960 G01 X65.9982 Y22.3691 
N27970 G01 X65.9540 Y22.3809 
N27980 G01 X65.9175 Y22.3907 
N27990 G01 X65.8965 Y22.4028 
N28000 G01 X65.8451 Y22.4325 
N28010 G01 X65.7979 Y22.4797 
N28020 G01 X64.6705 Y22.4797 
N28030 G01 X64.5897 Y22.5013 
N28040 G01 X64.5173 Y22.5431 
N28050 G01 X64.4793 Y22.5811 
N28060 G01 X64.4582 Y22.6022 
N28070 G01 X62.1370 Y24.9235 
N28080 G01 X62.1074 Y24.9531 
N28090 G01 X62.0797 Y24.9807 
N28100 G01 X62.0766 Y24.9849 
N28110 G01 X62.0575 Y25.0192 
N28120 G01 X62.0379 Y25.0531 
N28130 G01 X62.0360 Y25.0579 
N28140 G01 X62.0265 Y25.0959 
N28150 G01 X62.0163 Y25.1339 
N28160 G01 X62.0163 Y25.1365 
N28170 G01 X62.0163 Y25.1782 
N28180 G01 X62.0163 Y25.2175 
N28190 G01 X62.0170 Y25.2226 
N28200 G01 X62.0278 Y25.2603 
N28210 G01 X62.0379 Y25.2982 
N28220 G01 X62.0400 Y25.3030 
N28230 G01 X62.0601 Y25.3367 
N28240 G01 X62.0797 Y25.3706 
N28250 G01 X62.0829 Y25.3747 
N28260 G01 X62.1112 Y25.4021 
N28270 G01 X62.1388 Y25.4297 
N28280 G01 X62.1430 Y25.4329 
N28290 G01 X62.1774 Y25.4520 
N28300 G01 X62.2112 Y25.4715 
N28310 G01 X63.8874 Y26.4026 
N28320 G01 X63.9214 Y26.4223 
N28330 G01 X63.9262 Y26.4242 
N28340 G01 X63.9642 Y26.4337 
N28350 G01 X64.0021 Y26.4439 
N28360 G01 X64.0047 Y26.4439 
N28370 G01 X64.0465 Y26.4439 
N28380 G01 X64.2778 Y26.4439 
N28390 G01 X64.3585 Y26.4223 
N28400 G01 X64.4309 Y26.3805 
N28410 G01 X64.5182 Y26.2932 
N28420 G01 X64.6816 Y26.2255 
N28430 G01 X64.8584 Y26.2255 
N28440 G01 X65.0218 Y26.2932 
N28450 G01 X65.1473 Y26.4186 
N28460 G01 X65.1595 Y26.4346 
N28470 G01 X65.1700 Y26.4527 
N28480 G01 X65.1848 Y26.4676 
N28490 G01 X65.1976 Y26.4842 
N28500 G01 X65.2143 Y26.4970 
N28510 G01 X65.2291 Y26.5119 
N28520 G01 X65.2473 Y26.5223 
N28530 G01 X65.2639 Y26.5351 
N28540 G01 X65.2833 Y26.5432 
N28550 G01 X65.3015 Y26.5537 
N28560 G01 X65.3218 Y26.5591 
N28570 G01 X65.3412 Y26.5671 
N28580 G01 X65.3620 Y26.5699 
N28590 G01 X65.3822 Y26.5753 
N28600 G01 X65.3979 Y26.5753 
N28610 G01 X65.4797 Y26.6571 
N28620 G01 X65.4797 Y27.3836 
N28630 G01 X65.4691 Y27.4231 
N28640 G01 X65.4691 Y27.4652 
N28650 G01 X65.4691 Y27.5068 
N28660 G01 X65.4794 Y27.5452 
N28670 G01 X65.4797 Y28.3336 
N28680 G01 X65.4691 Y28.3732 
N28690 G01 X65.4691 Y28.4153 
N28700 G01 X65.4691 Y28.4568 
N28710 G01 X65.4794 Y28.4953 
N28720 G01 X65.4797 Y29.2229 
N28730 G01 X65.3979 Y29.3047 
N28740 G01 X65.2498 Y29.3047 
N28750 G01 X65.2290 Y29.3020 
N28760 G01 X65.2082 Y29.3047 
N28770 G01 X65.1872 Y29.3047 
N28780 G01 X65.1669 Y29.3101 
N28790 G01 X65.1461 Y29.3129 
N28800 G01 X65.1267 Y29.3209 
N28810 G01 X65.1065 Y29.3263 
N28820 G01 X65.0883 Y29.3368 
N28830 G01 X64.8486 Y29.4361 
N28840 G01 X64.3403 Y29.4361 
N28850 G01 X64.3194 Y29.4334 
N28860 G01 X64.2986 Y29.4361 
N28870 G01 X64.2777 Y29.4361 
N28880 G01 X64.2574 Y29.4416 
N28890 G01 X64.2365 Y29.4443 
N28900 G01 X64.2172 Y29.4523 
N28910 G01 X64.1970 Y29.4577 
N28920 G01 X64.1787 Y29.4683 
N28930 G01 X64.1593 Y29.4764 
N28940 G01 X64.1427 Y29.4891 
N28950 G01 X64.1246 Y29.4995 
N28960 G01 X64.1097 Y29.5144 
N28970 G01 X64.0930 Y29.5273 
N28980 G01 X64.0803 Y29.5439 
N28990 G01 X64.0655 Y29.5586 
N29000 G01 X64.0630 Y29.5630 
N29010 G01 X63.8669 Y29.7591 
N29020 G01 X63.6288 Y29.8577 
N29030 G01 X58.6022 Y29.8577 
N29040 G01 X58.5959 Y29.8563 
N29050 G01 X58.5605 Y29.8577 
N29060 G01 X58.5251 Y29.8577 
N29070 G01 X58.5188 Y29.8594 
N29080 G01 X58.5123 Y29.8596 
N29090 G01 X58.4897 Y29.8667 
N29100 G01 X58.4321 Y29.8615 
N29110 G01 X58.4180 Y29.8577 
N29120 G01 X58.3906 Y29.8577 
N29130 G01 X58.3633 Y29.8552 
N29140 G01 X58.3490 Y29.8577 
N29150 G01 X58.2912 Y29.8577 
N29160 G01 X58.2692 Y29.8486 
N29170 G01 X58.2628 Y29.8478 
N29180 G01 X58.2567 Y29.8455 
N29190 G01 X58.2330 Y29.8434 
N29200 G01 X58.1819 Y29.8165 
N29210 G01 X58.1703 Y29.8076 
N29220 G01 X58.1450 Y29.7971 
N29230 G01 X58.1207 Y29.7844 
N29240 G01 X58.1065 Y29.7812 
N29250 G01 X58.0531 Y29.7591 
N29260 G01 X58.0363 Y29.7423 
N29270 G01 X58.0307 Y29.7391 
N29280 G01 X58.0259 Y29.7347 
N29290 G01 X58.0049 Y29.7236 
N29300 G01 X57.9679 Y29.6792 
N29310 G01 X57.9606 Y29.6666 
N29320 G01 X57.9413 Y29.6472 
N29330 G01 X57.9237 Y29.6262 
N29340 G01 X57.9118 Y29.6178 
N29350 G01 X57.8709 Y29.5769 
N29360 G01 X57.8618 Y29.5549 
N29370 G01 X57.8579 Y29.5498 
N29380 G01 X57.8551 Y29.5439 
N29390 G01 X57.8325 Y29.5167 
N29400 G01 X57.8109 Y29.4886 
N29410 G01 X57.8058 Y29.4847 
N29420 G01 X55.1505 Y26.2984 
N29430 G01 X55.1433 Y26.2858 
N29440 G01 X55.1239 Y26.2664 
N29450 G01 X55.1063 Y26.2453 
N29460 G01 X55.0944 Y26.2369 
N29470 G01 X55.0841 Y26.2267 
N29480 G01 X55.0604 Y26.2130 
N29490 G01 X55.0380 Y26.1972 
N29500 G01 X55.0244 Y26.1921 
N29510 G01 X55.0117 Y26.1849 
N29520 G01 X54.9853 Y26.1778 
N29530 G01 X54.9596 Y26.1683 
N29540 G01 X54.9451 Y26.1670 
N29550 G01 X54.9310 Y26.1632 
N29560 G01 X54.9036 Y26.1632 
N29570 G01 X54.8763 Y26.1607 
N29580 G01 X54.8620 Y26.1632 
N29590 G01 X54.8474 Y26.1632 
N29600 G01 X54.8209 Y26.1703 
N29610 G01 X54.7939 Y26.1750 
N29620 G01 X54.7807 Y26.1811 
N29630 G01 X54.7666 Y26.1849 
N29640 G01 X54.7429 Y26.1986 
N29650 G01 X54.7180 Y26.2101 
N29660 G01 X54.7069 Y26.2194 
N29670 G01 X54.6942 Y26.2267 
N29680 G01 X54.6749 Y26.2460 
N29690 G01 X54.6538 Y26.2636 
N29700 G01 X54.6454 Y26.2755 
N29710 G01 X54.6351 Y26.2858 
N29720 G01 X54.6214 Y26.3095 
N29730 G01 X54.6056 Y26.3319 
N29740 G01 X54.6006 Y26.3456 
N29750 G01 X54.5933 Y26.3582 
N29760 G01 X54.5862 Y26.3846 
N29770 G01 X54.5768 Y26.4103 
N29780 G01 X54.5755 Y26.4249 
N29790 G01 X54.5717 Y26.4389 
N29800 G01 X54.5717 Y26.4663 
N29810 G01 X54.5692 Y26.4936 
N29820 G01 X54.5717 Y26.5080 
N29830 G01 X54.5717 Y26.9994 
N29840 G01 X54.4012 Y27.6356 
N29850 G01 X54.0719 Y28.2061 
N29860 G01 X53.6061 Y28.6719 
N29870 G01 X53.0356 Y29.0012 
N29880 G01 X52.3994 Y29.1717 
N29890 G01 X51.7406 Y29.1717 
N29900 G01 X51.1044 Y29.0012 
N29910 G01 X50.5339 Y28.6719 
N29920 G01 X50.0681 Y28.2061 
N29930 G01 X49.7388 Y27.6356 
N29940 G01 X49.5683 Y26.9994 
N29950 G01 X49.5683 Y26.3406 
N29960 G01 X49.7388 Y25.7044 
N29970 G01 X50.0681 Y25.1339 
N29980 G01 X50.5339 Y24.6681 
N29990 G01 X51.1044 Y24.3388 
N30000 G01 X51.7406 Y24.1683 
N30010 G01 X52.3993 Y24.1683 
N30020 G01 X52.6752 Y24.2422 
N30030 G01 X52.7009 Y24.2517 
N30040 G01 X52.7154 Y24.2530 
N30050 G01 X52.7295 Y24.2568 
N30060 G01 X52.7569 Y24.2568 
N30070 G01 X52.7842 Y24.2593 
N30080 G01 X52.7986 Y24.2568 
N30090 G01 X52.8131 Y24.2568 
N30100 G01 X52.8396 Y24.2497 
N30110 G01 X52.8666 Y24.2450 
N30120 G01 X52.8798 Y24.2389 
N30130 G01 X52.8939 Y24.2351 
N30140 G01 X52.9176 Y24.2214 
N30150 G01 X52.9425 Y24.2099 
N30160 G01 X52.9537 Y24.2006 
N30170 G01 X52.9663 Y24.1933 
N30180 G01 X52.9856 Y24.1740 
N30190 G01 X53.0067 Y24.1564 
N30200 G01 X53.0151 Y24.1445 
N30210 G01 X53.0254 Y24.1342 
N30220 G01 X53.0391 Y24.1105 
N30230 G01 X53.0549 Y24.0881 
N30240 G01 X53.0599 Y24.0744 
N30250 G01 X53.0672 Y24.0618 
N30260 G01 X53.0743 Y24.0354 
N30270 G01 X53.0837 Y24.0096 
N30280 G01 X53.0850 Y23.9951 
N30290 G01 X53.0888 Y23.9811 
N30300 G01 X53.0888 Y23.9537 
N30310 G01 X53.0913 Y23.9264 
N30320 G01 X53.0888 Y23.9120 
N30330 G01 X53.0888 Y23.8975 
N30340 G01 X53.0817 Y23.8710 
N30350 G01 X53.0771 Y23.8440 
N30360 G01 X53.0710 Y23.8308 
N30370 G01 X53.0672 Y23.8167 
N30380 G01 X53.0535 Y23.7930 
N30390 G01 X53.0420 Y23.7681 
N30400 G01 X53.0327 Y23.7569 
N30410 G01 X53.0254 Y23.7443 
N30420 G01 X53.0060 Y23.7250 
N30430 G01 X51.6179 Y22.0592 
N30440 G01 X51.6106 Y22.0466 
N30450 G01 X51.5913 Y22.0272 
N30460 G01 X51.5737 Y22.0062 
N30470 G01 X51.5618 Y21.9978 
N30480 G01 X51.5209 Y21.9569 
N30490 G01 X51.5118 Y21.9349 
N30500 G01 X51.5079 Y21.9298 
N30510 G01 X51.5051 Y21.9239 
N30520 G01 X51.4899 Y21.9057 
N30530 G01 X51.4727 Y21.8505 
N30540 G01 X51.4708 Y21.8360 
N30550 G01 X51.4603 Y21.8107 
N30560 G01 X51.4522 Y21.7846 
N30570 G01 X51.4444 Y21.7723 
N30580 G01 X51.4223 Y21.7188 
N30590 G01 X51.4223 Y21.6951 
N30600 G01 X51.4206 Y21.6888 
N30610 G01 X51.4204 Y21.6823 
N30620 G01 X51.4133 Y21.6597 
N30630 G01 X51.4185 Y21.6021 
N30640 G01 X51.4223 Y21.5880 
N30650 G01 X51.4223 Y21.5606 
N30660 G01 X51.4248 Y21.5333 
N30670 G01 X51.4223 Y21.5190 
N30680 G01 X51.4223 Y17.9712 
N30690 G00 Z3.0000  
N30700 G00 X52.7811 Y18.7922 
N30710 G01 Z-0.0800 F254   
N30720 G01 X52.7393 Y18.8646 F508   
N30730 G01 X52.7177 Y18.9454 
N30740 G01 X52.7177 Y21.2261 
N30750 G01 X52.7152 Y21.2534 
N30760 G01 X52.7177 Y21.2678 
N30770 G01 X52.7177 Y21.2824 
N30780 G01 X52.7248 Y21.3088 
N30790 G01 X52.7295 Y21.3358 
N30800 G01 X52.7356 Y21.3490 
N30810 G01 X52.7393 Y21.3631 
N30820 G01 X52.7530 Y21.3868 
N30830 G01 X52.7645 Y21.4117 
N30840 G01 X52.7739 Y21.4229 
N30850 G01 X52.7811 Y21.4355 
N30860 G01 X52.8005 Y21.4549 
N30870 G01 X58.6107 Y28.4271 
N30880 G01 X58.6180 Y28.4397 
N30890 G01 X58.6374 Y28.4591 
N30900 G01 X58.6549 Y28.4802 
N30910 G01 X58.6668 Y28.4886 
N30920 G01 X58.6771 Y28.4989 
N30930 G01 X58.7008 Y28.5126 
N30940 G01 X58.7232 Y28.5283 
N30950 G01 X58.7369 Y28.5334 
N30960 G01 X58.7495 Y28.5407 
N30970 G01 X58.7760 Y28.5477 
N30980 G01 X58.8017 Y28.5572 
N30990 G01 X58.8162 Y28.5585 
N31000 G01 X58.8303 Y28.5623 
N31010 G01 X58.8577 Y28.5623 
N31020 G01 X58.8850 Y28.5648 
N31030 G01 X58.8993 Y28.5623 
N31040 G01 X63.2857 Y28.5623 
N31050 G01 X63.3664 Y28.5407 
N31060 G01 X63.4388 Y28.4989 
N31070 G01 X63.5107 Y28.4270 
N31080 G01 X63.7114 Y28.3439 
N31090 G01 X63.7246 Y28.3439 
N31100 G01 X63.8053 Y28.3223 
N31110 G01 X63.8777 Y28.2805 
N31120 G01 X63.9369 Y28.2213 
N31130 G01 X63.9787 Y28.1489 
N31140 G01 X64.0003 Y28.0682 
N31150 G01 X64.0003 Y27.8118 
N31160 G01 X63.9787 Y27.7310 
N31170 G01 X63.9369 Y27.6586 
N31180 G01 X63.8777 Y27.5995 
N31190 G01 X63.8053 Y27.5577 
N31200 G01 X63.7246 Y27.5361 
N31210 G01 X63.7114 Y27.5361 
N31220 G01 X63.6840 Y27.5248 
N31230 G01 X63.6814 Y27.5244 
N31240 G01 X63.6496 Y27.5201 
N31250 G01 X63.6184 Y27.5028 
N31260 G01 X63.6038 Y27.4915 
N31270 G01 X63.5820 Y27.4825 
N31280 G01 X63.5615 Y27.4711 
N31290 G01 X63.5436 Y27.4666 
N31300 G01 X63.5107 Y27.4530 
N31310 G01 X63.4897 Y27.4320 
N31320 G01 X63.4856 Y27.4289 
N31330 G01 X63.4512 Y27.4098 
N31340 G01 X63.4173 Y27.3902 
N31350 G01 X61.3495 Y26.2414 
N31360 G01 X61.3155 Y26.2217 
N31370 G01 X61.3107 Y26.2198 
N31380 G01 X61.2727 Y26.2103 
N31390 G01 X61.2348 Y26.2001 
N31400 G01 X61.2321 Y26.2001 
N31410 G01 X61.1904 Y26.2001 
N31420 G01 X60.6286 Y26.2001 
N31430 G01 X60.1599 Y25.7314 
N31440 G01 X60.1599 Y25.0686 
N31450 G01 X60.6286 Y24.5999 
N31460 G01 X60.9699 Y24.5999 
N31470 G01 X61.0507 Y24.5783 
N31480 G01 X61.1231 Y24.5365 
N31490 G01 X64.1521 Y21.5074 
N31500 G01 X64.2113 Y21.4483 
N31510 G01 X64.2531 Y21.3759 
N31520 G01 X64.2747 Y21.2951 
N31530 G01 X64.2747 Y14.5045 
N31540 G01 X64.2766 Y14.4950 
N31550 G01 X64.2747 Y14.4628 
N31560 G01 X64.2747 Y14.4305 
N31570 G01 X64.2722 Y14.4212 
N31580 G01 X64.2716 Y14.4116 
N31590 G01 X64.2614 Y14.3810 
N31600 G01 X64.2531 Y14.3498 
N31610 G01 X64.2482 Y14.3414 
N31620 G01 X64.2452 Y14.3323 
N31630 G01 X64.2274 Y14.3053 
N31640 G01 X64.2113 Y14.2774 
N31650 G01 X64.2044 Y14.2706 
N31660 G01 X64.1991 Y14.2625 
N31670 G01 X64.1750 Y14.2411 
N31680 G01 X64.1521 Y14.2183 
N31690 G01 X64.1438 Y14.2135 
N31700 G01 X64.1366 Y14.2070 
N31710 G01 X64.1077 Y14.1926 
N31720 G01 X64.0798 Y14.1765 
N31730 G01 X64.0704 Y14.1740 
N31740 G01 X61.1857 Y12.7316 
N31750 G01 X61.1578 Y12.7155 
N31760 G01 X61.1485 Y12.7130 
N31770 G01 X61.1398 Y12.7087 
N31780 G01 X61.1082 Y12.7022 
N31790 G01 X61.0770 Y12.6938 
N31800 G01 X61.0674 Y12.6938 
N31810 G01 X61.0579 Y12.6919 
N31820 G01 X61.0257 Y12.6938 
N31830 G01 X60.9934 Y12.6938 
N31840 G01 X60.9841 Y12.6963 
N31850 G01 X60.9745 Y12.6969 
N31860 G01 X60.9439 Y12.7071 
N31870 G01 X60.9127 Y12.7155 
N31880 G01 X60.9043 Y12.7203 
N31890 G01 X60.8952 Y12.7234 
N31900 G01 X60.8682 Y12.7411 
N31910 G01 X60.8403 Y12.7573 
N31920 G01 X60.8335 Y12.7641 
N31930 G01 X60.8254 Y12.7694 
N31940 G01 X60.8040 Y12.7936 
N31950 G01 X60.6779 Y12.9197 
N31960 G01 X58.9621 Y12.9197 
N31970 G01 X58.8803 Y12.8379 
N31980 G01 X58.8803 Y10.0221 
N31990 G01 X58.9779 Y9.9245  
N32000 G01 X58.9997 Y9.9187  
N32010 G01 X59.0721 Y9.8769  
N32020 G01 X59.1313 Y9.8177  
N32030 G01 X59.1731 Y9.7454  
N32040 G01 X59.1947 Y9.6646  
N32050 G01 X59.1947 Y7.1210  
N32060 G01 X59.1731 Y7.0402  
N32070 G01 X59.1313 Y6.9678  
N32080 G01 X59.0721 Y6.9087  
N32090 G01 X58.9997 Y6.8669  
N32100 G01 X58.9190 Y6.8453  
N32110 G01 X53.6823 Y6.8453  
N32120 G01 X53.6015 Y6.8669  
N32130 G01 X53.5291 Y6.9087  
N32140 G01 X53.3302 Y7.1076  
N32150 G01 X53.0018 Y7.2437  
N32160 G01 X51.1382 Y7.2437  
N32170 G01 X50.8098 Y7.1076  
N32180 G01 X50.6055 Y6.9034  
N32190 G01 X50.5347 Y6.8625  
N32200 G01 X50.4523 Y6.8399  
N32210 G01 X50.3687 Y6.8399  
N32220 G01 X50.2880 Y6.8616  
N32230 G01 X50.2609 Y6.8772  
N32240 G01 X50.2156 Y6.9034  
N32250 G01 X50.1565 Y6.9625  
N32260 G01 X50.1156 Y7.0333  
N32270 G01 X50.0930 Y7.1156  
N32280 G01 X50.0930 Y7.8447  
N32290 G01 X50.0906 Y7.8628  
N32300 G01 X50.0859 Y7.8805  
N32310 G01 X50.0789 Y7.8974  
N32320 G01 X50.0697 Y7.9133  
N32330 G01 X50.0586 Y7.9278  
N32340 G01 X50.0303 Y7.9561  
N32350 G01 X50.0158 Y7.9812  
N32360 G01 X49.9885 Y8.0285  
N32370 G01 X49.9783 Y8.0664  
N32380 G01 X49.9668 Y8.1092  
N32390 G01 X49.9668 Y8.1513  
N32400 G01 X49.9668 Y8.1928  
N32410 G01 X49.9749 Y8.2232  
N32420 G01 X49.9884 Y8.2736  
N32430 G01 X50.0022 Y8.2974  
N32440 G01 X50.0302 Y8.3460  
N32450 G01 X50.0452 Y8.3610  
N32460 G01 X50.0543 Y8.3701  
N32470 G01 X50.0731 Y8.3933  
N32480 G01 X50.0961 Y8.4232  
N32490 G01 X50.0994 Y8.4258  
N32500 G01 X50.1021 Y8.4291  
N32510 G01 X50.1325 Y8.4512  
N32520 G01 X50.1624 Y8.4741  
N32530 G01 X50.1663 Y8.4757  
N32540 G01 X50.1697 Y8.4782  
N32550 G01 X50.2049 Y8.4917  
N32560 G01 X50.2396 Y8.5061  
N32570 G01 X50.2438 Y8.5067  
N32580 G01 X50.2478 Y8.5082  
N32590 G01 X50.2853 Y8.5121  
N32600 G01 X50.3225 Y8.5170  
N32610 G01 X50.3267 Y8.5165  
N32620 G01 X50.3309 Y8.5169  
N32630 G01 X50.3680 Y8.5110  
N32640 G01 X50.4054 Y8.5061  
N32650 G01 X50.4093 Y8.5045  
N32660 G01 X50.4135 Y8.5038  
N32670 G01 X50.4478 Y8.4886  
N32680 G01 X50.4826 Y8.4741  
N32690 G01 X50.4860 Y8.4715  
N32700 G01 X50.4898 Y8.4698  
N32710 G01 X50.5191 Y8.4462  
N32720 G01 X50.5490 Y8.4232  
N32730 G01 X50.5515 Y8.4199  
N32740 G01 X50.5548 Y8.4172  
N32750 G01 X50.5769 Y8.3868  
N32760 G01 X50.5999 Y8.3569  
N32770 G01 X50.6015 Y8.3530  
N32780 G01 X50.6343 Y8.3078  
N32790 G01 X50.7338 Y8.2083  
N32800 G01 X50.8476 Y8.1256  
N32810 G01 X50.9729 Y8.0618  
N32820 G01 X51.1067 Y8.0183  
N32830 G01 X51.2457 Y7.9963  
N32840 G01 X51.7057 Y7.9963  
N32850 G01 X51.7057 Y8.0217  
N32860 G01 X51.2305 Y8.0217  
N32870 G01 X51.0627 Y8.0551  
N32880 G01 X50.9047 Y8.1205  
N32890 G01 X50.7625 Y8.2155  
N32900 G01 X50.6415 Y8.3365  
N32910 G01 X50.5465 Y8.4787  
N32920 G01 X50.4811 Y8.6367  
N32930 G01 X50.4477 Y8.8045  
N32940 G01 X50.4477 Y8.9755  
N32950 G01 X50.4811 Y9.1433  
N32960 G01 X50.5465 Y9.3013  
N32970 G01 X50.6415 Y9.4435  
N32980 G01 X50.7625 Y9.5645  
N32990 G01 X50.9047 Y9.6595  
N33000 G01 X51.0627 Y9.7249  
N33010 G01 X51.2305 Y9.7583  
N33020 G01 X51.7057 Y9.7583  
N33030 G01 X51.7057 Y9.7837  
N33040 G01 X51.2457 Y9.7837  
N33050 G01 X51.1067 Y9.7617  
N33060 G01 X50.9729 Y9.7182  
N33070 G01 X50.8476 Y9.6544  
N33080 G01 X50.7338 Y9.5717  
N33090 G01 X50.6055 Y9.4434  
N33100 G01 X50.5331 Y9.4016  
N33110 G01 X50.4523 Y9.3799  
N33120 G01 X50.3687 Y9.3799  
N33130 G01 X50.3245 Y9.3918  
N33140 G01 X50.2880 Y9.4016  
N33150 G01 X50.2670 Y9.4137  
N33160 G01 X50.2156 Y9.4434  
N33170 G01 X50.1565 Y9.5025  
N33180 G01 X50.1147 Y9.5749  
N33190 G01 X50.0930 Y9.6556  
N33200 G01 X50.0930 Y10.6644 
N33210 G01 X50.1147 Y10.7451 
N33220 G01 X50.1565 Y10.8175 
N33230 G01 X50.2156 Y10.8766 
N33240 G01 X50.2621 Y10.9035 
N33250 G01 X50.2880 Y10.9184 
N33260 G01 X50.3687 Y10.9401 
N33270 G01 X50.4523 Y10.9401 
N33280 G01 X50.5331 Y10.9184 
N33290 G01 X50.6055 Y10.8766 
N33300 G01 X50.8098 Y10.6724 
N33310 G01 X51.1382 Y10.5363 
