( Made using CamBam - http://www.cambam.co.uk )
( Capacitor-v2 3/31/2016 11:29:33 PM )
( T0 : 3.14 )
G21 G90 G64 G40
G0 Z4.0
( T0 : 3.14 )
T0 M6
( Platic Holes 1 )
G61 G17
M3 S10001
G0 X40.905 Y39.0
G1 F151.0 Z-1.0
G2 F201.0 X39.5475 Y38.2162 I-0.905 J0.0
G2 Y39.7838 I0.4525 J0.7838
G2 X40.905 Y39.0 I0.4525 J-0.7838
G1 F151.0 Z-2.0
G2 F201.0 X39.5475 Y38.2162 I-0.905 J0.0
G2 Y39.7838 I0.4525 J0.7838
G2 X40.905 Y39.0 I0.4525 J-0.7838
G1 F151.0 Z-3.0
G2 F201.0 X39.5475 Y38.2162 I-0.905 J0.0
G2 Y39.7838 I0.4525 J0.7838
G2 X40.905 Y39.0 I0.4525 J-0.7838
G0 Z4.0
G0 X62.8728 Y16.1524
G1 F151.0 Z-1.0
G2 F201.0 X63.0475 Y16.2838 I0.6272 J-0.6524
G2 X64.405 Y15.5 I0.4525 J-0.7838
G2 X63.0475 Y14.7162 I-0.905 J0.0
G2 X62.8728 Y16.1524 I0.4525 J0.7838
G1 F151.0 Z-2.0
G2 F201.0 X63.0475 Y16.2838 I0.6272 J-0.6524
G2 X64.405 Y15.5 I0.4525 J-0.7838
G2 X63.0475 Y14.7162 I-0.905 J0.0
G2 X62.8728 Y16.1524 I0.4525 J0.7838
G1 F151.0 Z-3.0
G2 F201.0 X63.0475 Y16.2838 I0.6272 J-0.6524
G2 X64.405 Y15.5 I0.4525 J-0.7838
G2 X63.0475 Y14.7162 I-0.905 J0.0
G2 X62.8728 Y16.1524 I0.4525 J0.7838
G0 Z4.0
G0 X63.4878 Y61.5951
G1 F151.0 Z-1.0
G2 F201.0 X63.0475 Y61.7162 I0.0122 J0.9049
G2 Y63.2838 I0.4525 J0.7838
G2 X64.405 Y62.5 I0.4525 J-0.7838
G2 X63.4878 Y61.5951 I-0.905 J0.0
G1 F151.0 Z-2.0
G2 F201.0 X63.0475 Y61.7162 I0.0122 J0.9049
G2 Y63.2838 I0.4525 J0.7838
G2 X64.405 Y62.5 I0.4525 J-0.7838
G2 X63.4878 Y61.5951 I-0.905 J0.0
G1 F151.0 Z-3.0
G2 F201.0 X63.0475 Y61.7162 I0.0122 J0.9049
G2 Y63.2838 I0.4525 J0.7838
G2 X64.405 Y62.5 I0.4525 J-0.7838
G2 X63.4878 Y61.5951 I-0.905 J0.0
G0 Z4.0
G0 X17.4048 Y62.4826
G1 F151.0 Z-1.0
G2 F201.0 X16.0475 Y61.7162 I-0.9048 J0.0174
G2 Y63.2838 I0.4525 J0.7838
G2 X17.405 Y62.5 I0.4525 J-0.7838
G2 X17.4048 Y62.4826 I-0.905 J0.0
G1 F151.0 Z-2.0
G2 F201.0 X16.0475 Y61.7162 I-0.9048 J0.0174
G2 Y63.2838 I0.4525 J0.7838
G2 X17.405 Y62.5 I0.4525 J-0.7838
G2 X17.4048 Y62.4826 I-0.905 J0.0
G1 F151.0 Z-3.0
G2 F201.0 X16.0475 Y61.7162 I-0.9048 J0.0174
G2 Y63.2838 I0.4525 J0.7838
G2 X17.405 Y62.5 I0.4525 J-0.7838
G2 X17.4048 Y62.4826 I-0.905 J0.0
G0 Z4.0
G0 X16.5174 Y16.4048
G1 F151.0 Z-1.0
G2 F201.0 X17.405 Y15.5 I-0.0174 J-0.9048
G2 X16.0475 Y14.7162 I-0.905 J0.0
G2 Y16.2838 I0.4525 J0.7838
G2 X16.5174 Y16.4048 I0.4525 J-0.7838
G1 F151.0 Z-2.0
G2 F201.0 X17.405 Y15.5 I-0.0174 J-0.9048
G2 X16.0475 Y14.7162 I-0.905 J0.0
G2 Y16.2838 I0.4525 J0.7838
G2 X16.5174 Y16.4048 I0.4525 J-0.7838
G1 F151.0 Z-3.0
G2 F201.0 X17.405 Y15.5 I-0.0174 J-0.9048
G2 X16.0475 Y14.7162 I-0.905 J0.0
G2 Y16.2838 I0.4525 J0.7838
G2 X16.5174 Y16.4048 I0.4525 J-0.7838
( Plastic Holes 2 )
S10001
G0 Z4.0
G0 X39.905 Y112.0
G1 F151.0 Z-1.0
G2 F201.0 X38.5475 Y111.2162 I-0.905 J0.0
G2 Y112.7838 I0.4525 J0.7838
G2 X39.905 Y112.0 I0.4525 J-0.7838
G1 F151.0 Z-2.0
G2 F201.0 X38.5475 Y111.2162 I-0.905 J0.0
G2 Y112.7838 I0.4525 J0.7838
G2 X39.905 Y112.0 I0.4525 J-0.7838
G1 F151.0 Z-3.0
G2 F201.0 X38.5475 Y111.2162 I-0.905 J0.0
G2 Y112.7838 I0.4525 J0.7838
G2 X39.905 Y112.0 I0.4525 J-0.7838
G0 Z4.0
G0 X61.8728 Y89.1524
G1 F151.0 Z-1.0
G2 F201.0 X62.0475 Y89.2838 I0.6272 J-0.6524
G2 X63.405 Y88.5 I0.4525 J-0.7838
G2 X62.0475 Y87.7162 I-0.905 J0.0
G2 X61.8728 Y89.1524 I0.4525 J0.7838
G1 F151.0 Z-2.0
G2 F201.0 X62.0475 Y89.2838 I0.6272 J-0.6524
G2 X63.405 Y88.5 I0.4525 J-0.7838
G2 X62.0475 Y87.7162 I-0.905 J0.0
G2 X61.8728 Y89.1524 I0.4525 J0.7838
G1 F151.0 Z-3.0
G2 F201.0 X62.0475 Y89.2838 I0.6272 J-0.6524
G2 X63.405 Y88.5 I0.4525 J-0.7838
G2 X62.0475 Y87.7162 I-0.905 J0.0
G2 X61.8728 Y89.1524 I0.4525 J0.7838
G0 Z4.0
G0 X62.4878 Y134.5951
G1 F151.0 Z-1.0
G2 F201.0 X62.0475 Y134.7162 I0.0122 J0.9049
G2 Y136.2838 I0.4525 J0.7838
G2 X63.405 Y135.5 I0.4525 J-0.7838
G2 X62.4878 Y134.5951 I-0.905 J0.0
G1 F151.0 Z-2.0
G2 F201.0 X62.0475 Y134.7162 I0.0122 J0.9049
G2 Y136.2838 I0.4525 J0.7838
G2 X63.405 Y135.5 I0.4525 J-0.7838
G2 X62.4878 Y134.5951 I-0.905 J0.0
G1 F151.0 Z-3.0
G2 F201.0 X62.0475 Y134.7162 I0.0122 J0.9049
G2 Y136.2838 I0.4525 J0.7838
G2 X63.405 Y135.5 I0.4525 J-0.7838
G2 X62.4878 Y134.5951 I-0.905 J0.0
G0 Z4.0
G0 X16.4048 Y135.4826
G1 F151.0 Z-1.0
G2 F201.0 X15.0475 Y134.7162 I-0.9048 J0.0174
G2 Y136.2838 I0.4525 J0.7838
G2 X16.405 Y135.5 I0.4525 J-0.7838
G2 X16.4048 Y135.4826 I-0.905 J0.0
G1 F151.0 Z-2.0
G2 F201.0 X15.0475 Y134.7162 I-0.9048 J0.0174
G2 Y136.2838 I0.4525 J0.7838
G2 X16.405 Y135.5 I0.4525 J-0.7838
G2 X16.4048 Y135.4826 I-0.905 J0.0
G1 F151.0 Z-3.0
G2 F201.0 X15.0475 Y134.7162 I-0.9048 J0.0174
G2 Y136.2838 I0.4525 J0.7838
G2 X16.405 Y135.5 I0.4525 J-0.7838
G2 X16.4048 Y135.4826 I-0.905 J0.0
G0 Z4.0
G0 X15.5174 Y89.4048
G1 F151.0 Z-1.0
G2 F201.0 X16.405 Y88.5 I-0.0174 J-0.9048
G2 X15.0475 Y87.7162 I-0.905 J0.0
G2 Y89.2838 I0.4525 J0.7838
G2 X15.5174 Y89.4048 I0.4525 J-0.7838
G1 F151.0 Z-2.0
G2 F201.0 X16.405 Y88.5 I-0.0174 J-0.9048
G2 X15.0475 Y87.7162 I-0.905 J0.0
G2 Y89.2838 I0.4525 J0.7838
G2 X15.5174 Y89.4048 I0.4525 J-0.7838
G1 F151.0 Z-3.0
G2 F201.0 X16.405 Y88.5 I-0.0174 J-0.9048
G2 X15.0475 Y87.7162 I-0.905 J0.0
G2 Y89.2838 I0.4525 J0.7838
G2 X15.5174 Y89.4048 I0.4525 J-0.7838
( Plastic Cutout 1 )
S10001
G0 Z4.0
G0 X8.0 Y5.43
G1 F151.0 Z-1.0
G1 F201.0 X72.0
G3 X73.57 Y7.0 I0.0 J1.57
G1 Y34.43
G1 Y38.0 Z1.0
G1 Y41.57 Z-1.0
G1 Y71.0
G3 X72.0 Y72.57 I-1.57 J0.0
G1 X8.0
G3 X6.43 Y71.0 I0.0 J-1.57
G1 Y41.57
G1 Y38.0 Z1.0
G1 Y34.43 Z-1.0
G1 Y7.0
G3 X8.0 Y5.43 I1.57 J0.0
G1 F151.0 Z-2.0
G1 F201.0 X72.0
G3 X73.57 Y7.0 I0.0 J1.57
G1 Y34.43
G1 Y38.0 Z1.0
G1 Y41.57 Z-2.0
G1 Y71.0
G3 X72.0 Y72.57 I-1.57 J0.0
G1 X8.0
G3 X6.43 Y71.0 I0.0 J-1.57
G1 Y41.57
G1 Y38.0 Z1.0
G1 Y34.43 Z-2.0
G1 Y7.0
G3 X8.0 Y5.43 I1.57 J0.0
G1 F151.0 Z-3.0
G1 F201.0 X72.0
G3 X73.57 Y7.0 I0.0 J1.57
G1 Y34.43
G1 Y38.0 Z1.0
G1 Y41.57 Z-3.0
G1 Y71.0
G3 X72.0 Y72.57 I-1.57 J0.0
G1 X8.0
G3 X6.43 Y71.0 I0.0 J-1.57
G1 Y41.57
G1 Y38.0 Z1.0
G1 Y34.43 Z-3.0
G1 Y7.0
G3 X8.0 Y5.43 I1.57 J0.0
( Plastic Cutout 2 )
S10001
G0 Z4.0
G0 X7.0 Y78.43
G1 F151.0 Z-1.0
G1 F201.0 X71.0
G3 X72.57 Y80.0 I0.0 J1.57
G1 Y107.43
G1 Y111.0 Z1.0
G1 Y114.57 Z-1.0
G1 Y144.0
G3 X71.0 Y145.57 I-1.57 J0.0
G1 X7.0
G3 X5.43 Y144.0 I0.0 J-1.57
G1 Y114.57
G1 Y111.0 Z1.0
G1 Y107.43 Z-1.0
G1 Y80.0
G3 X7.0 Y78.43 I1.57 J0.0
G1 F151.0 Z-2.0
G1 F201.0 X71.0
G3 X72.57 Y80.0 I0.0 J1.57
G1 Y107.43
G1 Y111.0 Z1.0
G1 Y114.57 Z-2.0
G1 Y144.0
G3 X71.0 Y145.57 I-1.57 J0.0
G1 X7.0
G3 X5.43 Y144.0 I0.0 J-1.57
G1 Y114.57
G1 Y111.0 Z1.0
G1 Y107.43 Z-2.0
G1 Y80.0
G3 X7.0 Y78.43 I1.57 J0.0
G1 F151.0 Z-3.0
G1 F201.0 X71.0
G3 X72.57 Y80.0 I0.0 J1.57
G1 Y107.43
G1 Y111.0 Z1.0
G1 Y114.57 Z-3.0
G1 Y144.0
G3 X71.0 Y145.57 I-1.57 J0.0
G1 X7.0
G3 X5.43 Y144.0 I0.0 J-1.57
G1 Y114.57
G1 Y111.0 Z1.0
G1 Y107.43 Z-3.0
G1 Y80.0
G3 X7.0 Y78.43 I1.57 J0.0
G0 Z4.0
M5
M30
