( Made using CamBam - http://www.cambam.co.uk )
( Capacitor 3/19/2016 1:16:06 PM )
( T0 : 3.14 )
G21 G90 G64 G40
G0 Z3.0
( T0 : 3.14 )
T0 M6
( Washer holes )
G61 G17
M3 S1000
G0 X15.805 Y101.0
G1 F300.0 Z0.5
G2 F800.0 X14.5975 Y100.3028 Z-0.1667 I-0.805 J0.0
G2 Y101.6972 Z-0.8333 I0.4025 J0.6972
G2 X15.805 Y101.0 Z-1.5 I0.4025 J-0.6972
G2 X14.5975 Y100.3028 I-0.805 J0.0
G2 Y101.6972 I0.4025 J0.6972
G2 X15.805 Y101.0 I0.4025 J-0.6972
G0 Z3.0
G0 X15.0288 Y122.6955
G1 F300.0 Z0.5
G2 F800.0 X14.5975 Y122.8028 Z0.3219 I-0.0288 J0.8045
G2 Y124.1972 Z-0.3447 I0.4025 J0.6972
G2 X15.805 Y123.5 Z-1.0114 I0.4025 J-0.6972
G2 X15.0288 Y122.6955 Z-1.5 I-0.805 J0.0
G2 X14.5975 Y122.8028 I-0.0288 J0.8045
G2 Y124.1972 I0.4025 J0.6972
G2 X15.805 Y123.5 I0.4025 J-0.6972
G2 X15.0288 Y122.6955 I-0.805 J0.0
G0 Z3.0
G0 X15.001 Y145.195
G1 F300.0 Z0.5
G2 F800.0 X14.5975 Y145.3028 Z0.3329 I-0.001 J0.805
G2 Y146.6972 Z-0.3337 I0.4025 J0.6972
G2 X15.805 Y146.0 Z-1.0004 I0.4025 J-0.6972
G2 X15.001 Y145.195 Z-1.5 I-0.805 J0.0
G2 X14.5975 Y145.3028 I-0.001 J0.805
G2 Y146.6972 I0.4025 J0.6972
G2 X15.805 Y146.0 I0.4025 J-0.6972
G2 X15.001 Y145.195 I-0.805 J0.0
G0 Z3.0
G0 X37.6955 Y145.9724
G1 F300.0 Z0.5
G2 F800.0 X38.0975 Y146.6972 Z0.1558 I0.8045 J0.0276
G2 X39.305 Y146.0 Z-0.5109 I0.4025 J-0.6972
G2 X38.0975 Y145.3028 Z-1.1776 I-0.805 J0.0
G2 X37.6955 Y145.9724 Z-1.5 I0.4025 J0.6972
G2 X38.0975 Y146.6972 I0.8045 J0.0276
G2 X39.305 Y146.0 I0.4025 J-0.6972
G2 X38.0975 Y145.3028 I-0.805 J0.0
G2 X37.6955 Y145.9724 I0.4025 J0.6972
G0 Z3.0
G0 X38.4712 Y124.3045
G1 F300.0 Z0.5
G2 F800.0 X39.305 Y123.5 Z-0.0114 I0.0288 J-0.8045
G2 X38.0975 Y122.8028 Z-0.6781 I-0.805 J0.0
G2 Y124.1972 Z-1.3447 I0.4025 J0.6972
G2 X38.4712 Y124.3045 Z-1.5 I0.4025 J-0.6972
G2 X39.305 Y123.5 I0.0288 J-0.8045
G2 X38.0975 Y122.8028 I-0.805 J0.0
G2 Y124.1972 I0.4025 J0.6972
G2 X38.4712 Y124.3045 I0.4025 J-0.6972
G0 Z3.0
G0 X38.499 Y101.805
G1 F300.0 Z0.5
G2 F800.0 X39.305 Y101.0 Z-0.0004 I0.001 J-0.805
G2 X38.0975 Y100.3028 Z-0.6671 I-0.805 J0.0
G2 Y101.6972 Z-1.3337 I0.4025 J0.6972
G2 X38.499 Y101.805 Z-1.5 I0.4025 J-0.6972
G2 X39.305 Y101.0 I0.001 J-0.805
G2 X38.0975 Y100.3028 I-0.805 J0.0
G2 Y101.6972 I0.4025 J0.6972
G2 X38.499 Y101.805 I0.4025 J-0.6972
G0 Z3.0
G0 X61.1955 Y101.0276
G1 F300.0 Z0.5
G2 F800.0 X61.5975 Y101.6972 Z0.1776 I0.8045 J-0.0276
G2 X62.805 Y101.0 Z-0.4891 I0.4025 J-0.6972
G2 X61.5975 Y100.3028 Z-1.1558 I-0.805 J0.0
G2 X61.1955 Y101.0276 Z-1.5 I0.4025 J0.6972
G2 X61.5975 Y101.6972 I0.8045 J-0.0276
G2 X62.805 Y101.0 I0.4025 J-0.6972
G2 X61.5975 Y100.3028 I-0.805 J0.0
G2 X61.1955 Y101.0276 I0.4025 J0.6972
G0 Z3.0
G0 X61.9712 Y122.6955
G1 F300.0 Z0.5
G2 F800.0 X61.5975 Y122.8028 Z0.3447 I0.0288 J0.8045
G2 Y124.1972 Z-0.3219 I0.4025 J0.6972
G2 X62.805 Y123.5 Z-0.9886 I0.4025 J-0.6972
G2 X61.9712 Y122.6955 Z-1.5 I-0.805 J0.0
G2 X61.5975 Y122.8028 I0.0288 J0.8045
G2 Y124.1972 I0.4025 J0.6972
G2 X62.805 Y123.5 I0.4025 J-0.6972
G2 X61.9712 Y122.6955 I-0.805 J0.0
G0 Z3.0
G0 X83.6955 Y123.4713
G1 F300.0 Z0.5
G2 F800.0 X84.0975 Y124.1972 Z0.1553 I0.8045 J0.0287
G2 X85.305 Y123.5 Z-0.5114 I0.4025 J-0.6972
G2 X84.0975 Y122.8028 Z-1.178 I-0.805 J0.0
G2 X83.6955 Y123.4713 Z-1.5 I0.4025 J0.6972
G2 X84.0975 Y124.1972 I0.8045 J0.0287
G2 X85.305 Y123.5 I0.4025 J-0.6972
G2 X84.0975 Y122.8028 I-0.805 J0.0
G2 X83.6955 Y123.4713 I0.4025 J0.6972
G0 Z3.0
G0 X84.4712 Y101.8045
G1 F300.0 Z0.5
G2 F800.0 X85.305 Y101.0 Z-0.0114 I0.0288 J-0.8045
G2 X84.0975 Y100.3028 Z-0.6781 I-0.805 J0.0
G2 Y101.6972 Z-1.3447 I0.4025 J0.6972
G2 X84.4712 Y101.8045 Z-1.5 I0.4025 J-0.6972
G2 X85.305 Y101.0 I0.0288 J-0.8045
G2 X84.0975 Y100.3028 I-0.805 J0.0
G2 Y101.6972 I0.4025 J0.6972
G2 X84.4712 Y101.8045 I0.4025 J-0.6972
G0 Z3.0
G0 X105.6955 Y101.0294
G1 F300.0 Z0.5
G2 F800.0 X106.0975 Y101.6972 Z0.1783 I0.8045 J-0.0294
G2 X107.305 Y101.0 Z-0.4884 I0.4025 J-0.6972
G2 X106.0975 Y100.3028 Z-1.155 I-0.805 J0.0
G2 X105.6955 Y101.0294 Z-1.5 I0.4025 J0.6972
G2 X106.0975 Y101.6972 I0.8045 J-0.0294
G2 X107.305 Y101.0 I0.4025 J-0.6972
G2 X106.0975 Y100.3028 I-0.805 J0.0
G2 X105.6955 Y101.0294 I0.4025 J0.6972
G0 Z3.0
G0 X106.9524 Y79.8036
G1 F300.0 Z0.5
G2 F800.0 X107.805 Y79.0 Z-0.0188 I0.0476 J-0.8036
G2 X106.5975 Y78.3028 Z-0.6855 I-0.805 J0.0
G2 Y79.6972 Z-1.3522 I0.4025 J0.6972
G2 X106.9524 Y79.8036 Z-1.5 I0.4025 J-0.6972
G2 X107.805 Y79.0 I0.0476 J-0.8036
G2 X106.5975 Y78.3028 I-0.805 J0.0
G2 Y79.6972 I0.4025 J0.6972
G2 X106.9524 Y79.8036 I0.4025 J-0.6972
G0 Z3.0
G0 X85.8045 Y79.0294
G1 F300.0 Z0.5
G2 F800.0 X85.805 Y79.0 Z0.4884 I-0.8045 J-0.0294
G2 X84.5975 Y78.3028 Z-0.1783 I-0.805 J0.0
G2 Y79.6972 Z-0.845 I0.4025 J0.6972
G2 X85.8045 Y79.0294 Z-1.5 I0.4025 J-0.6972
G2 X85.805 Y79.0 I-0.8045 J-0.0294
G2 X84.5975 Y78.3028 I-0.805 J0.0
G2 Y79.6972 I0.4025 J0.6972
G2 X85.8045 Y79.0294 I0.4025 J-0.6972
G0 Z3.0
G0 X85.0287 Y57.3045
G1 F300.0 Z0.5
G2 F800.0 X85.805 Y56.5 Z0.0114 I-0.0287 J-0.8045
G2 X84.5975 Y55.8028 Z-0.6553 I-0.805 J0.0
G2 Y57.1972 Z-1.322 I0.4025 J0.6972
G2 X85.0287 Y57.3045 Z-1.5 I0.4025 J-0.6972
G2 X85.805 Y56.5 I-0.0287 J-0.8045
G2 X84.5975 Y55.8028 I-0.805 J0.0
G2 Y57.1972 I0.4025 J0.6972
G2 X85.0287 Y57.3045 I0.4025 J-0.6972
G0 Z3.0
G0 X106.1955 Y56.5295
G1 F300.0 Z0.5
G2 F800.0 X106.5975 Y57.1972 Z0.1783 I0.8045 J-0.0295
G2 X107.805 Y56.5 Z-0.4884 I0.4025 J-0.6972
G2 X106.5975 Y55.8028 Z-1.155 I-0.805 J0.0
G2 X106.1955 Y56.5295 Z-1.5 I0.4025 J0.6972
G2 X106.5975 Y57.1972 I0.8045 J-0.0295
G2 X107.805 Y56.5 I0.4025 J-0.6972
G2 X106.5975 Y55.8028 I-0.805 J0.0
G2 X106.1955 Y56.5295 I0.4025 J0.6972
G0 Z3.0
G0 X106.9713 Y34.8045
G1 F300.0 Z0.5
G2 F800.0 X107.805 Y34.0 Z-0.0114 I0.0287 J-0.8045
G2 X106.5975 Y33.3028 Z-0.678 I-0.805 J0.0
G2 Y34.6972 Z-1.3447 I0.4025 J0.6972
G2 X106.9713 Y34.8045 Z-1.5 I0.4025 J-0.6972
G2 X107.805 Y34.0 I0.0287 J-0.8045
G2 X106.5975 Y33.3028 I-0.805 J0.0
G2 Y34.6972 I0.4025 J0.6972
G2 X106.9713 Y34.8045 I0.4025 J-0.6972
G0 Z3.0
G0 X106.9989 Y13.805
G1 F300.0 Z0.5
G2 F800.0 X107.805 Y13.0 Z-0.0004 I0.0011 J-0.805
G2 X106.5975 Y12.3028 Z-0.6671 I-0.805 J0.0
G2 Y13.6972 Z-1.3338 I0.4025 J0.6972
G2 X106.9989 Y13.805 Z-1.5 I0.4025 J-0.6972
G2 X107.805 Y13.0 I0.0011 J-0.805
G2 X106.5975 Y12.3028 I-0.805 J0.0
G2 Y13.6972 I0.4025 J0.6972
G2 X106.9989 Y13.805 I0.4025 J-0.6972
G0 Z3.0
G0 X85.8045 Y13.0294
G1 F300.0 Z0.5
G2 F800.0 X85.805 Y13.0 Z0.4884 I-0.8045 J-0.0294
G2 X84.5975 Y12.3028 Z-0.1783 I-0.805 J0.0
G2 Y13.6972 Z-0.845 I0.4025 J0.6972
G2 X85.8045 Y13.0294 Z-1.5 I0.4025 J-0.6972
G2 X85.805 Y13.0 I-0.8045 J-0.0294
G2 X84.5975 Y12.3028 I-0.805 J0.0
G2 Y13.6972 I0.4025 J0.6972
G2 X85.8045 Y13.0294 I0.4025 J-0.6972
G0 Z3.0
G0 X85.0309 Y33.1956
G1 F300.0 Z0.5
G2 F800.0 X84.5975 Y33.3028 Z0.3211 I-0.0309 J0.8044
G2 Y34.6972 Z-0.3455 I0.4025 J0.6972
G2 X85.805 Y34.0 Z-1.0122 I0.4025 J-0.6972
G2 X85.0309 Y33.1956 Z-1.5 I-0.805 J0.0
G2 X84.5975 Y33.3028 I-0.0309 J0.8044
G2 Y34.6972 I0.4025 J0.6972
G2 X85.805 Y34.0 I0.4025 J-0.6972
G2 X85.0309 Y33.1956 I-0.805 J0.0
G0 Z3.0
G0 X106.3138 Y122.7168
G1 F300.0 Z0.5
G2 F800.0 X106.0975 Y122.8028 Z0.4076 I0.1862 J0.7832
G2 Y124.1972 Z-0.259 I0.4025 J0.6972
G2 X107.305 Y123.5 Z-0.9257 I0.4025 J-0.6972
G2 X106.3138 Y122.7168 Z-1.5 I-0.805 J0.0
G2 X106.0975 Y122.8028 I0.1862 J0.7832
G2 Y124.1972 I0.4025 J0.6972
G2 X107.305 Y123.5 I0.4025 J-0.6972
G2 X106.3138 Y122.7168 I-0.805 J0.0
G0 Z3.0
G0 X106.4936 Y145.195
G1 F300.0 Z0.5
G2 F800.0 X106.0975 Y145.3028 Z0.3359 I0.0064 J0.805
G2 Y146.6972 Z-0.3308 I0.4025 J0.6972
G2 X107.305 Y146.0 Z-0.9975 I0.4025 J-0.6972
G2 X106.4936 Y145.195 Z-1.5 I-0.805 J0.0
G2 X106.0975 Y145.3028 I0.0064 J0.805
G2 Y146.6972 I0.4025 J0.6972
G2 X107.305 Y146.0 I0.4025 J-0.6972
G2 X106.4936 Y145.195 I-0.805 J0.0
G0 Z3.0
G0 X85.3045 Y145.9706
G1 F300.0 Z0.5
G2 F800.0 X84.0975 Y145.3028 Z-0.155 I-0.8045 J0.0294
G2 Y146.6972 Z-0.8217 I0.4025 J0.6972
G2 X85.305 Y146.0 Z-1.4884 I0.4025 J-0.6972
G2 X85.3045 Y145.9706 Z-1.5 I-0.805 J0.0
G2 X84.0975 Y145.3028 I-0.8045 J0.0294
G2 Y146.6972 I0.4025 J0.6972
G2 X85.305 Y146.0 I0.4025 J-0.6972
G2 X85.3045 Y145.9706 I-0.805 J0.0
G0 Z3.0
G0 X62.805 Y145.999
G1 F300.0 Z0.5
G2 F800.0 X61.5975 Y145.3028 Z-0.1663 I-0.805 J0.001
G2 Y146.6972 Z-0.8329 I0.4025 J0.6972
G2 X62.805 Y146.0 Z-1.4996 I0.4025 J-0.6972
G2 Y145.999 Z-1.5 I-0.805 J0.0
G2 X61.5975 Y145.3028 I-0.805 J0.001
G2 Y146.6972 I0.4025 J0.6972
G2 X62.805 Y146.0 I0.4025 J-0.6972
G2 Y145.999 I-0.805 J0.0
( Rotor Hole )
S1000
G0 Z3.0
G0 X38.805 Y58.0
G1 F300.0 Z0.5
G2 F800.0 X37.5975 Y57.3028 Z-0.1667 I-0.805 J0.0
G2 Y58.6972 Z-0.8333 I0.4025 J0.6972
G2 X38.805 Y58.0 Z-1.5 I0.4025 J-0.6972
G2 X37.5975 Y57.3028 I-0.805 J0.0
G2 Y58.6972 I0.4025 J0.6972
G2 X38.805 Y58.0 I0.4025 J-0.6972
( Stator Holes )
S1000
G0 Z3.0
G0 X61.5984 Y23.299
G1 F300.0 Z0.5
G2 F800.0 X62.305 Y22.5 Z0.039 I-0.0984 J-0.799
G2 X61.0975 Y21.8028 Z-0.6277 I-0.805 J0.0
G2 X60.701 Y22.4016 Z-0.922 I0.4025 J0.6972
G2 X61.0975 Y23.1972 Z-1.2943 I0.799 J0.0984
G2 X61.5984 Y23.299 Z-1.5 I0.4025 J-0.6972
G2 X62.305 Y22.5 I-0.0984 J-0.799
G2 X61.0975 Y21.8028 I-0.805 J0.0
G2 X60.701 Y22.4016 I0.4025 J0.6972
G2 X61.0975 Y23.1972 I0.799 J0.0984
G2 X61.5984 Y23.299 I0.4025 J-0.6972
G0 Z3.0
G0 X15.3049 Y22.5137
G1 F300.0 Z0.5
G2 F800.0 X15.305 Y22.5 Z0.4946 I-0.8049 J-0.0137
G2 X15.299 Y22.4016 Z0.4556 I-0.805 J0.0
G2 X14.0975 Y21.8028 Z-0.1721 I-0.799 J0.0984
G2 Y23.1972 Z-0.8387 I0.4025 J0.6972
G2 X14.4016 Y23.299 Z-0.9664 I0.4025 J-0.6972
G2 X15.3049 Y22.5137 Z-1.5 I0.0984 J-0.799
G2 X15.305 Y22.5 I-0.8049 J-0.0137
G2 X15.299 Y22.4016 I-0.805 J0.0
G2 X14.0975 Y21.8028 I-0.799 J0.0984
G2 Y23.1972 I0.4025 J0.6972
G2 X14.4016 Y23.299 I0.4025 J-0.6972
G2 X15.3049 Y22.5137 I0.0984 J-0.799
( Cutout washers )
S1000
G0 Z3.0
G0 X23.57 Y146.0
G1 F300.0 Z0.5
G3 F800.0 X10.715 Y153.4218 Z-0.1667 I-8.57 J0.0
G3 Y138.5782 Z-0.8333 I4.285 J-7.4218
G3 X23.57 Y146.0 Z-1.5 I4.285 J7.4218
G3 X10.715 Y153.4218 I-8.57 J0.0
G3 Y138.5782 I4.285 J-7.4218
G3 X23.57 Y146.0 I4.285 J7.4218
G0 Z3.0
G0 X29.93
G1 F300.0 Z0.5
G3 F800.0 X34.215 Y138.5782 Z0.1667 I8.57 J0.0
G3 X47.07 Y146.0 Z-0.5 I4.285 J7.4218
G3 X34.215 Y153.4218 Z-1.1667 I-8.57 J0.0
G3 X29.93 Y146.0 Z-1.5 I4.285 J-7.4218
G3 X34.215 Y138.5782 I8.57 J0.0
G3 X47.07 Y146.0 I4.285 J7.4218
G3 X34.215 Y153.4218 I-8.57 J0.0
G3 X29.93 Y146.0 I4.285 J-7.4218
G0 Z3.0
G0 X35.4496 Y131.5087
G1 F300.0 Z0.5
G3 F800.0 X34.215 Y130.9218 Z0.4492 I3.0504 J-8.0087
G3 Y116.0782 Z-0.2175 I4.285 J-7.4218
G3 X47.07 Y123.5 Z-0.8842 I4.285 J7.4218
G3 X35.4496 Y131.5087 Z-1.5 I-8.57 J0.0
G3 X34.215 Y130.9218 I3.0504 J-8.0087
G3 Y116.0782 I4.285 J-7.4218
G3 X47.07 Y123.5 I4.285 J7.4218
G3 X35.4496 Y131.5087 I-8.57 J0.0
G0 Z3.0
G0 X22.9799 Y126.6252
G1 F300.0 Z0.5
G3 F800.0 X10.715 Y130.9218 Z-0.0479 I-7.9799 J-3.1252
G3 Y116.0782 Z-0.7145 I4.285 J-7.4218
G3 X23.57 Y123.5 Z-1.3812 I4.285 J7.4218
G3 X22.9799 Y126.6252 Z-1.5 I-8.57 J0.0
G3 X10.715 Y130.9218 I-7.9799 J-3.1252
G3 Y116.0782 I4.285 J-7.4218
G3 X23.57 Y123.5 I4.285 J7.4218
G3 X22.9799 Y126.6252 I-8.57 J0.0
G0 Z3.0
G0 X17.5481 Y109.1824
G1 F300.0 Z0.5
G3 F800.0 X10.715 Y108.4218 Z0.2372 I-2.5481 J-8.1824
G3 Y93.5782 Z-0.4294 I4.285 J-7.4218
G3 X23.57 Y101.0 Z-1.0961 I4.285 J7.4218
G3 X17.5481 Y109.1824 Z-1.5 I-8.57 J0.0
G3 X10.715 Y108.4218 I-2.5481 J-8.1824
G3 Y93.5782 I4.285 J-7.4218
G3 X23.57 Y101.0 I4.285 J7.4218
G3 X17.5481 Y109.1824 I-8.57 J0.0
G0 Z3.0
G0 X30.5172 Y104.1176
G1 F300.0 Z0.5
G3 F800.0 X34.215 Y93.5782 Z0.0482 I7.9828 J-3.1176
G3 X47.07 Y101.0 Z-0.6185 I4.285 J7.4218
G3 X34.215 Y108.4218 Z-1.2852 I-8.57 J0.0
G3 X30.5172 Y104.1176 Z-1.5 I4.285 J-7.4218
G3 X34.215 Y93.5782 I7.9828 J-3.1176
G3 X47.07 Y101.0 I4.285 J7.4218
G3 X34.215 Y108.4218 I-8.57 J0.0
G3 X30.5172 Y104.1176 I4.285 J-7.4218
G0 Z3.0
G0 X53.4717 Y101.8445
G1 F300.0 Z0.5
G3 F800.0 X57.715 Y93.5782 Z0.1352 I8.5283 J-0.8445
G3 X70.57 Y101.0 Z-0.5314 I4.285 J7.4218
G3 X57.715 Y108.4218 Z-1.1981 I-8.57 J0.0
G3 X53.4717 Y101.8445 Z-1.5 I4.285 J-7.4218
G3 X57.715 Y93.5782 I8.5283 J-0.8445
G3 X70.57 Y101.0 I4.285 J7.4218
G3 X57.715 Y108.4218 I-8.57 J0.0
G3 X53.4717 Y101.8445 I4.285 J-7.4218
G0 Z3.0
G0 X58.8597 Y115.5261
G1 F300.0 Z0.5
G3 F800.0 X70.57 Y123.5 Z-0.1194 I3.1403 J7.9739
G3 X57.715 Y130.9218 Z-0.7861 I-8.57 J0.0
G3 Y116.0782 Z-1.4528 I4.285 J-7.4218
G3 X58.8597 Y115.5261 Z-1.5 I4.285 J7.4218
G3 X70.57 Y123.5 I3.1403 J7.9739
G3 X57.715 Y130.9218 I-8.57 J0.0
G3 Y116.0782 I4.285 J-7.4218
G3 X58.8597 Y115.5261 I4.285 J7.4218
G0 Z3.0
G0 X76.3166 Y120.955
G1 F300.0 Z0.5
G3 F800.0 X80.215 Y116.0782 Z0.2626 I8.1834 J2.545
G3 X93.07 Y123.5 Z-0.404 I4.285 J7.4218
G3 X80.215 Y130.9218 Z-1.0707 I-8.57 J0.0
G3 X76.3166 Y120.955 Z-1.5 I4.285 J-7.4218
G3 X80.215 Y116.0782 I8.1834 J2.545
G3 X93.07 Y123.5 I4.285 J7.4218
G3 X80.215 Y130.9218 I-8.57 J0.0
G3 X76.3166 Y120.955 I4.285 J-7.4218
G0 Z3.0
G0 X81.2483 Y108.9292
G1 F300.0 Z0.5
G3 F800.0 X80.215 Y108.4218 Z0.4572 I3.2517 J-7.9292
G3 Y93.5782 Z-0.2095 I4.285 J-7.4218
G3 X93.07 Y101.0 Z-0.8761 I4.285 J7.4218
G3 X81.2483 Y108.9292 Z-1.5 I-8.57 J0.0
G3 X80.215 Y108.4218 I3.2517 J-7.9292
G3 Y93.5782 I4.285 J-7.4218
G3 X93.07 Y101.0 I4.285 J7.4218
G3 X81.2483 Y108.9292 I-8.57 J0.0
G0 Z3.0
G0 X98.3236 Y103.5674
G1 F300.0 Z0.5
G3 F800.0 X102.215 Y93.5782 Z0.0698 I8.1764 J-2.5674
G3 X115.07 Y101.0 Z-0.5968 I4.285 J7.4218
G3 X102.215 Y108.4218 Z-1.2635 I-8.57 J0.0
G3 X98.3236 Y103.5674 Z-1.5 I4.285 J-7.4218
G3 X102.215 Y93.5782 I8.1764 J-2.5674
G3 X115.07 Y101.0 I4.285 J7.4218
G3 X102.215 Y108.4218 I-8.57 J0.0
G3 X98.3236 Y103.5674 I4.285 J-7.4218
G0 Z3.0
G0 X103.2476 Y115.5712
G1 F300.0 Z0.5
G3 F800.0 X115.07 Y123.5 Z-0.1239 I3.2524 J7.9288
G3 X102.215 Y130.9218 Z-0.7906 I-8.57 J0.0
G3 Y116.0782 Z-1.4572 I4.285 J-7.4218
G3 X103.2476 Y115.5712 Z-1.5 I4.285 J7.4218
G3 X115.07 Y123.5 I3.2524 J7.9288
G3 X102.215 Y130.9218 I-8.57 J0.0
G3 Y116.0782 I4.285 J-7.4218
G3 X103.2476 Y115.5712 I4.285 J7.4218
G0 Z3.0
G0 X105.5892 Y137.4785
G1 F300.0 Z0.5
G3 F800.0 X115.07 Y146.0 Z-0.0339 I0.9108 J8.5215
G3 X102.215 Y153.4218 Z-0.7006 I-8.57 J0.0
G3 Y138.5782 Z-1.3672 I4.285 J-7.4218
G3 X105.5892 Y137.4785 Z-1.5 I4.285 J7.4218
G3 X115.07 Y146.0 I0.9108 J8.5215
G3 X102.215 Y153.4218 I-8.57 J0.0
G3 Y138.5782 I4.285 J-7.4218
G3 X105.5892 Y137.4785 I4.285 J7.4218
G0 Z3.0
G0 X92.4459 Y142.7893
G1 F300.0 Z0.5
G3 F800.0 X93.07 Y146.0 Z0.3778 I-7.9459 J3.2107
G3 X80.215 Y153.4218 Z-0.2889 I-8.57 J0.0
G3 Y138.5782 Z-0.9556 I4.285 J-7.4218
G3 X92.4459 Y142.7893 Z-1.5 I4.285 J7.4218
G3 X93.07 Y146.0 I-7.9459 J3.2107
G3 X80.215 Y153.4218 I-8.57 J0.0
G3 Y138.5782 I4.285 J-7.4218
G3 X92.4459 Y142.7893 I4.285 J7.4218
G0 Z3.0
G0 X70.5227 Y145.1012
G1 F300.0 Z0.5
G3 F800.0 X70.57 Y146.0 Z0.4666 I-8.5227 J0.8988
G3 X57.715 Y153.4218 Z-0.2001 I-8.57 J0.0
G3 Y138.5782 Z-0.8668 I4.285 J-7.4218
G3 X70.5227 Y145.1012 Z-1.5 I4.285 J7.4218
G3 X70.57 Y146.0 I-8.5227 J0.8988
G3 X57.715 Y153.4218 I-8.57 J0.0
G3 Y138.5782 I4.285 J-7.4218
G3 X70.5227 Y145.1012 I4.285 J7.4218
G0 Z3.0
G0 X83.1665 Y87.3716
G1 F300.0 Z0.5
G3 F800.0 X80.715 Y86.4218 Z0.402 I1.8335 J-8.3716
G3 Y71.5782 Z-0.2647 I4.285 J-7.4218
G3 X93.57 Y79.0 Z-0.9314 I4.285 J7.4218
G3 X83.1665 Y87.3716 Z-1.5 I-8.57 J0.0
G3 X80.715 Y86.4218 I1.8335 J-8.3716
G3 Y71.5782 I4.285 J-7.4218
G3 X93.57 Y79.0 I4.285 J7.4218
G3 X83.1665 Y87.3716 I-8.57 J0.0
G0 Z3.0
G0 X98.9143 Y81.8401
G1 F300.0 Z0.5
G3 F800.0 X102.715 Y71.5782 Z0.0591 I8.0857 J-2.8401
G3 X115.57 Y79.0 Z-0.6075 I4.285 J7.4218
G3 X102.715 Y86.4218 Z-1.2742 I-8.57 J0.0
G3 X98.9143 Y81.8401 Z-1.5 I4.285 J-7.4218
G3 X102.715 Y71.5782 I8.0857 J-2.8401
G3 X115.57 Y79.0 I4.285 J7.4218
G3 X102.715 Y86.4218 I-8.57 J0.0
G3 X98.9143 Y81.8401 I4.285 J-7.4218
G0 Z3.0
G0 X104.3948 Y64.6644
G1 F300.0 Z0.5
G3 F800.0 X102.715 Y63.9218 Z0.4317 I2.6052 J-8.1644
G3 Y49.0782 Z-0.235 I4.285 J-7.4218
G3 X115.57 Y56.5 Z-0.9017 I4.285 J7.4218
G3 X104.3948 Y64.6644 Z-1.5 I-8.57 J0.0
G3 X102.715 Y63.9218 I2.6052 J-8.1644
G3 Y49.0782 I4.285 J-7.4218
G3 X115.57 Y56.5 I4.285 J7.4218
G3 X104.3948 Y64.6644 I-8.57 J0.0
G0 Z3.0
G0 X92.8987 Y59.825
G1 F300.0 Z0.5
G3 F800.0 X80.715 Y63.9218 Z-0.0398 I-7.8987 J-3.325
G3 Y49.0782 Z-0.7065 I4.285 J-7.4218
G3 X93.57 Y56.5 Z-1.3732 I4.285 J7.4218
G3 X92.8987 Y59.825 Z-1.5 I-8.57 J0.0
G3 X80.715 Y63.9218 I-7.8987 J-3.325
G3 Y49.0782 I4.285 J-7.4218
G3 X93.57 Y56.5 I4.285 J7.4218
G3 X92.8987 Y59.825 I-8.57 J0.0
G0 Z3.0
G0 X87.5065 Y42.1952
G1 F300.0 Z0.5
G3 F800.0 X80.715 Y41.4218 Z0.2389 I-2.5065 J-8.1952
G3 Y26.5782 Z-0.4278 I4.285 J-7.4218
G3 X93.57 Y34.0 Z-1.0945 I4.285 J7.4218
G3 X87.5065 Y42.1952 Z-1.5 I-8.57 J0.0
G3 X80.715 Y41.4218 I-2.5065 J-8.1952
G3 Y26.5782 I4.285 J-7.4218
G3 X93.57 Y34.0 I4.285 J7.4218
G3 X87.5065 Y42.1952 I-8.57 J0.0
G0 Z3.0
G0 X99.0998 Y37.3213
G1 F300.0 Z0.5
G3 F800.0 X102.715 Y26.5782 Z0.04 I7.9002 J-3.3213
G3 X115.57 Y34.0 Z-0.6267 I4.285 J7.4218
G3 X102.715 Y41.4218 Z-1.2933 I-8.57 J0.0
G3 X99.0998 Y37.3213 Z-1.5 I4.285 J-7.4218
G3 X102.715 Y26.5782 I7.9002 J-3.3213
G3 X115.57 Y34.0 I4.285 J7.4218
G3 X102.715 Y41.4218 I-8.57 J0.0
G3 X99.0998 Y37.3213 I4.285 J-7.4218
G0 Z3.0
G0 X104.3524 Y21.1508
G1 F300.0 Z0.5
G3 F800.0 X102.715 Y20.4218 Z0.4333 I2.6476 J-8.1508
G3 Y5.5782 Z-0.2334 I4.285 J-7.4218
G3 X115.57 Y13.0 Z-0.9 I4.285 J7.4218
G3 X104.3524 Y21.1508 Z-1.5 I-8.57 J0.0
G3 X102.715 Y20.4218 I2.6476 J-8.1508
G3 Y5.5782 I4.285 J-7.4218
G3 X115.57 Y13.0 I4.285 J7.4218
G3 X104.3524 Y21.1508 I-8.57 J0.0
G0 Z3.0
G0 X92.8981 Y16.3265
G1 F300.0 Z0.5
G3 F800.0 X80.715 Y20.4218 Z-0.0398 I-7.8981 J-3.3265
G3 Y5.5782 Z-0.7064 I4.285 J-7.4218
G3 X93.57 Y13.0 Z-1.3731 I4.285 J7.4218
G3 X92.8981 Y16.3265 Z-1.5 I-8.57 J0.0
G3 X80.715 Y20.4218 I-7.8981 J-3.3265
G3 Y5.5782 I4.285 J-7.4218
G3 X93.57 Y13.0 I4.285 J7.4218
G3 X92.8981 Y16.3265 I-8.57 J0.0
( Rotor )
S1000
G0 Z3.0
G0 X64.57 Y58.0
G1 F300.0 Z0.5
G3 F800.0 X24.715 Y81.0103 Z-0.2659 I-26.57 J0.0
G3 X11.43 Y58.0 Z-0.6488 I13.285 J-23.0103
G3 X13.0 Y56.43 Z-0.6827 I1.57 J0.0
G1 X29.575 Z-0.9109
G3 X46.425 Z-1.2379 I8.425 J1.57
G1 X63.0 Z-1.4661
G3 X64.57 Y58.0 Z-1.5 I0.0 J1.57
G3 X24.715 Y81.0103 I-26.57 J0.0
G3 X11.43 Y58.0 I13.285 J-23.0103
G3 X13.0 Y56.43 I1.57 J0.0
G1 X29.575
G3 X46.425 I8.425 J1.57
G1 X63.0
G3 X64.57 Y58.0 I0.0 J1.57
( Stator )
S1000
G0 Z3.0
G0 X6.0 Y6.43
G1 F300.0 Z0.5
G1 F800.0 X70.0 Z-0.105
G3 X71.57 Y8.0 Z-0.1283 I0.0 J1.57
G1 Y40.0 Z-0.4308
G3 X70.0 Y41.57 Z-0.4541 I-1.57 J0.0
G1 X69.8277 Z-0.4558
G1 X63.0 Z-0.5203
G1 X46.5 Z-0.6763
G3 X44.93 Y40.0 Z-0.6996 I0.0 J-1.57
G2 X34.535 Y33.9984 Z-0.8368 I-6.93 J0.0
G2 X31.07 Y40.0 Z-0.9054 I3.465 J6.0016
G3 X29.5 Y41.57 Z-0.9287 I-1.57 J0.0
G1 X13.0 Z-1.0847
G1 X6.1723 Z-1.1492
G1 X6.0 Z-1.1509
G3 X4.43 Y40.0 Z-1.1742 I0.0 J-1.57
G1 Y8.0 Z-1.4767
G3 X6.0 Y6.43 Z-1.5 I1.57 J0.0
G1 X70.0
G3 X71.57 Y8.0 I0.0 J1.57
G1 Y40.0
G3 X70.0 Y41.57 I-1.57 J0.0
G1 X69.8277
G1 X63.0
G1 X46.5
G3 X44.93 Y40.0 I0.0 J-1.57
G2 X34.535 Y33.9984 I-6.93 J0.0
G2 X31.07 Y40.0 I3.465 J6.0016
G3 X29.5 Y41.57 I-1.57 J0.0
G1 X13.0
G1 X6.1723
G1 X6.0
G3 X4.43 Y40.0 I0.0 J-1.57
G1 Y8.0
G3 X6.0 Y6.43 I1.57 J0.0
G0 Z3.0
M5
M30
