( Made using CamBam - http://www.cambam.co.uk )
( Capacitor 3/19/2016 12:48:50 PM )
( T0 : 3.14 )
G21 G90 G64 G40
G0 Z3.0
( T0 : 3.14 )
T0 M6
( Platic Holes 1 )
G61 G17
M3 S1000
G0 X40.805 Y39.0
G1 F300.0 Z0.0
G2 F800.0 X39.5975 Y38.3028 Z-0.6667 I-0.805 J0.0
G2 Y39.6972 Z-1.3333 I0.4025 J0.6972
G2 X40.805 Y39.0 Z-2.0 I0.4025 J-0.6972
G2 X39.5975 Y38.3028 Z-2.3333 I-0.805 J0.0
G2 Y39.6972 Z-2.6667 I0.4025 J0.6972
G2 X40.805 Y39.0 Z-3.0 I0.4025 J-0.6972
G2 X39.5975 Y38.3028 I-0.805 J0.0
G2 Y39.6972 I0.4025 J0.6972
G2 X40.805 Y39.0 I0.4025 J-0.6972
G0 Z3.0
G0 X62.9408 Y16.0791
G1 F300.0 Z0.0
G2 F800.0 X63.0975 Y16.1972 Z-0.0778 I0.5592 J-0.5791
G2 X64.305 Y15.5 Z-0.7445 I0.4025 J-0.6972
G2 X63.0975 Y14.8028 Z-1.4111 I-0.805 J0.0
G2 X62.9408 Y16.0791 Z-2.0 I0.4025 J0.6972
G2 X63.0975 Y16.1972 Z-2.0389 I0.5592 J-0.5791
G2 X64.305 Y15.5 Z-2.3722 I0.4025 J-0.6972
G2 X63.0975 Y14.8028 Z-2.7056 I-0.805 J0.0
G2 X62.9408 Y16.0791 Z-3.0 I0.4025 J0.6972
G2 X63.0975 Y16.1972 I0.5592 J-0.5791
G2 X64.305 Y15.5 I0.4025 J-0.6972
G2 X63.0975 Y14.8028 I-0.805 J0.0
G2 X62.9408 Y16.0791 I0.4025 J0.6972
G0 Z3.0
G0 X63.4903 Y61.6951
G1 F300.0 Z0.0
G2 F800.0 X63.0975 Y61.8028 Z-0.1628 I0.0097 J0.8049
G2 Y63.1972 Z-0.8295 I0.4025 J0.6972
G2 X64.305 Y62.5 Z-1.4962 I0.4025 J-0.6972
G2 X63.4903 Y61.6951 Z-2.0 I-0.805 J0.0
G2 X63.0975 Y61.8028 Z-2.0814 I0.0097 J0.8049
G2 Y63.1972 Z-2.4147 I0.4025 J0.6972
G2 X64.305 Y62.5 Z-2.7481 I0.4025 J-0.6972
G2 X63.4903 Y61.6951 Z-3.0 I-0.805 J0.0
G2 X63.0975 Y61.8028 I0.0097 J0.8049
G2 Y63.1972 I0.4025 J0.6972
G2 X64.305 Y62.5 I0.4025 J-0.6972
G2 X63.4903 Y61.6951 I-0.805 J0.0
G0 Z3.0
G0 X17.3049 Y62.4862
G1 F300.0 Z0.0
G2 F800.0 X16.0975 Y61.8028 Z-0.6612 I-0.8049 J0.0138
G2 Y63.1972 Z-1.3279 I0.4025 J0.6972
G2 X17.305 Y62.5 Z-1.9945 I0.4025 J-0.6972
G2 X17.3049 Y62.4862 Z-2.0 I-0.805 J0.0
G2 X16.0975 Y61.8028 Z-2.3306 I-0.8049 J0.0138
G2 Y63.1972 Z-2.6639 I0.4025 J0.6972
G2 X17.305 Y62.5 Z-2.9973 I0.4025 J-0.6972
G2 X17.3049 Y62.4862 Z-3.0 I-0.805 J0.0
G2 X16.0975 Y61.8028 I-0.8049 J0.0138
G2 Y63.1972 I0.4025 J0.6972
G2 X17.305 Y62.5 I0.4025 J-0.6972
G2 X17.3049 Y62.4862 I-0.805 J0.0
G0 Z3.0
G0 X16.5138 Y16.3049
G1 F300.0 Z0.0
G2 F800.0 X17.305 Y15.5 Z-0.4945 I-0.0138 J-0.8049
G2 X16.0975 Y14.8028 Z-1.1612 I-0.805 J0.0
G2 Y16.1972 Z-1.8279 I0.4025 J0.6972
G2 X16.5138 Y16.3049 Z-2.0 I0.4025 J-0.6972
G2 X17.305 Y15.5 Z-2.2473 I-0.0138 J-0.8049
G2 X16.0975 Y14.8028 Z-2.5806 I-0.805 J0.0
G2 Y16.1972 Z-2.9139 I0.4025 J0.6972
G2 X16.5138 Y16.3049 Z-3.0 I0.4025 J-0.6972
G2 X17.305 Y15.5 I-0.0138 J-0.8049
G2 X16.0975 Y14.8028 I-0.805 J0.0
G2 Y16.1972 I0.4025 J0.6972
G2 X16.5138 Y16.3049 I0.4025 J-0.6972
( Plastic Holes 2 )
S1000
G0 Z3.0
G0 X40.805 Y110.0
G1 F300.0 Z0.0
G2 F800.0 X39.5975 Y109.3028 Z-0.6667 I-0.805 J0.0
G2 Y110.6972 Z-1.3333 I0.4025 J0.6972
G2 X40.805 Y110.0 Z-2.0 I0.4025 J-0.6972
G2 X39.5975 Y109.3028 Z-2.3333 I-0.805 J0.0
G2 Y110.6972 Z-2.6667 I0.4025 J0.6972
G2 X40.805 Y110.0 Z-3.0 I0.4025 J-0.6972
G2 X39.5975 Y109.3028 I-0.805 J0.0
G2 Y110.6972 I0.4025 J0.6972
G2 X40.805 Y110.0 I0.4025 J-0.6972
G0 Z3.0
G0 X62.9408 Y87.0791
G1 F300.0 Z0.0
G2 F800.0 X63.0975 Y87.1972 Z-0.0778 I0.5592 J-0.5791
G2 X64.305 Y86.5 Z-0.7445 I0.4025 J-0.6972
G2 X63.0975 Y85.8028 Z-1.4111 I-0.805 J0.0
G2 X62.9408 Y87.0791 Z-2.0 I0.4025 J0.6972
G2 X63.0975 Y87.1972 Z-2.0389 I0.5592 J-0.5791
G2 X64.305 Y86.5 Z-2.3722 I0.4025 J-0.6972
G2 X63.0975 Y85.8028 Z-2.7056 I-0.805 J0.0
G2 X62.9408 Y87.0791 Z-3.0 I0.4025 J0.6972
G2 X63.0975 Y87.1972 I0.5592 J-0.5791
G2 X64.305 Y86.5 I0.4025 J-0.6972
G2 X63.0975 Y85.8028 I-0.805 J0.0
G2 X62.9408 Y87.0791 I0.4025 J0.6972
G0 Z3.0
G0 X63.4903 Y132.6951
G1 F300.0 Z0.0
G2 F800.0 X63.0975 Y132.8028 Z-0.1628 I0.0097 J0.8049
G2 Y134.1972 Z-0.8295 I0.4025 J0.6972
G2 X64.305 Y133.5 Z-1.4962 I0.4025 J-0.6972
G2 X63.4903 Y132.6951 Z-2.0 I-0.805 J0.0
G2 X63.0975 Y132.8028 Z-2.0814 I0.0097 J0.8049
G2 Y134.1972 Z-2.4147 I0.4025 J0.6972
G2 X64.305 Y133.5 Z-2.7481 I0.4025 J-0.6972
G2 X63.4903 Y132.6951 Z-3.0 I-0.805 J0.0
G2 X63.0975 Y132.8028 I0.0097 J0.8049
G2 Y134.1972 I0.4025 J0.6972
G2 X64.305 Y133.5 I0.4025 J-0.6972
G2 X63.4903 Y132.6951 I-0.805 J0.0
G0 Z3.0
G0 X17.3049 Y133.4862
G1 F300.0 Z0.0
G2 F800.0 X16.0975 Y132.8028 Z-0.6612 I-0.8049 J0.0138
G2 Y134.1972 Z-1.3279 I0.4025 J0.6972
G2 X17.305 Y133.5 Z-1.9945 I0.4025 J-0.6972
G2 X17.3049 Y133.4862 Z-2.0 I-0.805 J0.0
G2 X16.0975 Y132.8028 Z-2.3306 I-0.8049 J0.0138
G2 Y134.1972 Z-2.6639 I0.4025 J0.6972
G2 X17.305 Y133.5 Z-2.9973 I0.4025 J-0.6972
G2 X17.3049 Y133.4862 Z-3.0 I-0.805 J0.0
G2 X16.0975 Y132.8028 I-0.8049 J0.0138
G2 Y134.1972 I0.4025 J0.6972
G2 X17.305 Y133.5 I0.4025 J-0.6972
G2 X17.3049 Y133.4862 I-0.805 J0.0
G0 Z3.0
G0 X16.5138 Y87.3049
G1 F300.0 Z0.0
G2 F800.0 X17.305 Y86.5 Z-0.4945 I-0.0138 J-0.8049
G2 X16.0975 Y85.8028 Z-1.1612 I-0.805 J0.0
G2 Y87.1972 Z-1.8279 I0.4025 J0.6972
G2 X16.5138 Y87.3049 Z-2.0 I0.4025 J-0.6972
G2 X17.305 Y86.5 Z-2.2473 I-0.0138 J-0.8049
G2 X16.0975 Y85.8028 Z-2.5806 I-0.805 J0.0
G2 Y87.1972 Z-2.9139 I0.4025 J0.6972
G2 X16.5138 Y87.3049 Z-3.0 I0.4025 J-0.6972
G2 X17.305 Y86.5 I-0.0138 J-0.8049
G2 X16.0975 Y85.8028 I-0.805 J0.0
G2 Y87.1972 I0.4025 J0.6972
G2 X16.5138 Y87.3049 I0.4025 J-0.6972
( Plastic Cutout 1 )
S1000
G0 Z3.0
G0 X8.0 Y5.43
G1 F300.0 Z0.0
G1 F800.0 X72.0 Z-0.4814
G3 X73.57 Y7.0 Z-0.5 I0.0 J1.57
G1 Y71.0 Z-0.9814
G3 X72.0 Y72.57 Z-1.0 I-1.57 J0.0
G1 X8.0 Z-1.4814
G3 X6.43 Y71.0 Z-1.5 I0.0 J-1.57
G1 Y7.0 Z-1.9814
G3 X8.0 Y5.43 Z-2.0 I1.57 J0.0
G1 X72.0 Z-2.2407
G3 X73.57 Y7.0 Z-2.25 I0.0 J1.57
G1 Y71.0 Z-2.4907
G3 X72.0 Y72.57 Z-2.5 I-1.57 J0.0
G1 X8.0 Z-2.7407
G3 X6.43 Y71.0 Z-2.75 I0.0 J-1.57
G1 Y7.0 Z-2.9907
G3 X8.0 Y5.43 Z-3.0 I1.57 J0.0
G1 X72.0
G3 X73.57 Y7.0 I0.0 J1.57
G1 Y71.0
G3 X72.0 Y72.57 I-1.57 J0.0
G1 X8.0
G3 X6.43 Y71.0 I0.0 J-1.57
G1 Y7.0
G3 X8.0 Y5.43 I1.57 J0.0
( Plastic Cutout 2 )
S1000
G0 Z3.0
G0 Y76.43
G1 F300.0 Z0.0
G1 F800.0 X72.0 Z-0.4814
G3 X73.57 Y78.0 Z-0.5 I0.0 J1.57
G1 Y142.0 Z-0.9814
G3 X72.0 Y143.57 Z-1.0 I-1.57 J0.0
G1 X8.0 Z-1.4814
G3 X6.43 Y142.0 Z-1.5 I0.0 J-1.57
G1 Y78.0 Z-1.9814
G3 X8.0 Y76.43 Z-2.0 I1.57 J0.0
G1 X72.0 Z-2.2407
G3 X73.57 Y78.0 Z-2.25 I0.0 J1.57
G1 Y142.0 Z-2.4907
G3 X72.0 Y143.57 Z-2.5 I-1.57 J0.0
G1 X8.0 Z-2.7407
G3 X6.43 Y142.0 Z-2.75 I0.0 J-1.57
G1 Y78.0 Z-2.9907
G3 X8.0 Y76.43 Z-3.0 I1.57 J0.0
G1 X72.0
G3 X73.57 Y78.0 I0.0 J1.57
G1 Y142.0
G3 X72.0 Y143.57 I-1.57 J0.0
G1 X8.0
G3 X6.43 Y142.0 I0.0 J-1.57
G1 Y78.0
G3 X8.0 Y76.43 I1.57 J0.0
G0 Z3.0
M5
M30
