( Made using CamBam - http://www.cambam.co.uk )
( Capacitor 3/19/2016 11:40:51 AM )
( T0 : 3.0 )
G21 G90 G64 G40
G0 Z3.0
( T0 : 3.0 )
T0 M6
( Washer holes )
G61 G17
M3 S1000
G0 X15.875 Y101.0
G1 F300.0 Z0.5
G2 F800.0 X14.5625 Y100.2422 Z-0.1667 I-0.875 J0.0
G2 Y101.7578 Z-0.8333 I0.4375 J0.7578
G2 X15.875 Y101.0 Z-1.5 I0.4375 J-0.7578
G2 X14.5625 Y100.2422 I-0.875 J0.0
G2 Y101.7578 I0.4375 J0.7578
G2 X15.875 Y101.0 I0.4375 J-0.7578
G0 Z3.0
G0 X15.034 Y122.6257
G1 F300.0 Z0.5
G2 F800.0 X14.5625 Y122.7422 Z0.321 I-0.034 J0.8743
G2 Y124.2578 Z-0.3457 I0.4375 J0.7578
G2 X15.875 Y123.5 Z-1.0124 I0.4375 J-0.7578
G2 X15.034 Y122.6257 Z-1.5 I-0.875 J0.0
G2 X14.5625 Y122.7422 I-0.034 J0.8743
G2 Y124.2578 I0.4375 J0.7578
G2 X15.875 Y123.5 I0.4375 J-0.7578
G2 X15.034 Y122.6257 I-0.875 J0.0
G0 Z3.0
G0 X15.0013 Y145.125
G1 F300.0 Z0.5
G2 F800.0 X14.5625 Y145.2422 Z0.3329 I-0.0013 J0.875
G2 Y146.7578 Z-0.3338 I0.4375 J0.7578
G2 X15.875 Y146.0 Z-1.0005 I0.4375 J-0.7578
G2 X15.0013 Y145.125 Z-1.5 I-0.875 J0.0
G2 X14.5625 Y145.2422 I-0.0013 J0.875
G2 Y146.7578 I0.4375 J0.7578
G2 X15.875 Y146.0 I0.4375 J-0.7578
G2 X15.0013 Y145.125 I-0.875 J0.0
G0 Z3.0
G0 X37.6256 Y145.9674
G1 F300.0 Z0.5
G2 F800.0 X38.0625 Y146.7578 Z0.1548 I0.8744 J0.0326
G2 X39.375 Y146.0 Z-0.5118 I0.4375 J-0.7578
G2 X38.0625 Y145.2422 Z-1.1785 I-0.875 J0.0
G2 X37.6256 Y145.9674 Z-1.5 I0.4375 J0.7578
G2 X38.0625 Y146.7578 I0.8744 J0.0326
G2 X39.375 Y146.0 I0.4375 J-0.7578
G2 X38.0625 Y145.2422 I-0.875 J0.0
G2 X37.6256 Y145.9674 I0.4375 J0.7578
G0 Z3.0
G0 X38.466 Y124.3743
G1 F300.0 Z0.5
G2 F800.0 X39.375 Y123.5 Z-0.0124 I0.034 J-0.8743
G2 X38.0625 Y122.7422 Z-0.679 I-0.875 J0.0
G2 Y124.2578 Z-1.3457 I0.4375 J0.7578
G2 X38.466 Y124.3743 Z-1.5 I0.4375 J-0.7578
G2 X39.375 Y123.5 I0.034 J-0.8743
G2 X38.0625 Y122.7422 I-0.875 J0.0
G2 Y124.2578 I0.4375 J0.7578
G2 X38.466 Y124.3743 I0.4375 J-0.7578
G0 Z3.0
G0 X38.4987 Y101.875
G1 F300.0 Z0.5
G2 F800.0 X39.375 Y101.0 Z-0.0005 I0.0013 J-0.875
G2 X38.0625 Y100.2422 Z-0.6671 I-0.875 J0.0
G2 Y101.7578 Z-1.3338 I0.4375 J0.7578
G2 X38.4987 Y101.875 Z-1.5 I0.4375 J-0.7578
G2 X39.375 Y101.0 I0.0013 J-0.875
G2 X38.0625 Y100.2422 I-0.875 J0.0
G2 Y101.7578 I0.4375 J0.7578
G2 X38.4987 Y101.875 I0.4375 J-0.7578
G0 Z3.0
G0 X61.1256 Y101.0326
G1 F300.0 Z0.5
G2 F800.0 X61.5625 Y101.7578 Z0.1785 I0.8744 J-0.0326
G2 X62.875 Y101.0 Z-0.4882 I0.4375 J-0.7578
G2 X61.5625 Y100.2422 Z-1.1548 I-0.875 J0.0
G2 X61.1256 Y101.0326 Z-1.5 I0.4375 J0.7578
G2 X61.5625 Y101.7578 I0.8744 J-0.0326
G2 X62.875 Y101.0 I0.4375 J-0.7578
G2 X61.5625 Y100.2422 I-0.875 J0.0
G2 X61.1256 Y101.0326 I0.4375 J0.7578
G0 Z3.0
G0 X61.966 Y122.6257
G1 F300.0 Z0.5
G2 F800.0 X61.5625 Y122.7422 Z0.3457 I0.034 J0.8743
G2 Y124.2578 Z-0.321 I0.4375 J0.7578
G2 X62.875 Y123.5 Z-0.9876 I0.4375 J-0.7578
G2 X61.966 Y122.6257 Z-1.5 I-0.875 J0.0
G2 X61.5625 Y122.7422 I0.034 J0.8743
G2 Y124.2578 I0.4375 J0.7578
G2 X62.875 Y123.5 I0.4375 J-0.7578
G2 X61.966 Y122.6257 I-0.875 J0.0
G0 Z3.0
G0 X83.6257 Y123.4661
G1 F300.0 Z0.5
G2 F800.0 X84.0625 Y124.2578 Z0.1543 I0.8743 J0.0339
G2 X85.375 Y123.5 Z-0.5123 I0.4375 J-0.7578
G2 X84.0625 Y122.7422 Z-1.179 I-0.875 J0.0
G2 X83.6257 Y123.4661 Z-1.5 I0.4375 J0.7578
G2 X84.0625 Y124.2578 I0.8743 J0.0339
G2 X85.375 Y123.5 I0.4375 J-0.7578
G2 X84.0625 Y122.7422 I-0.875 J0.0
G2 X83.6257 Y123.4661 I0.4375 J0.7578
G0 Z3.0
G0 X84.466 Y101.8743
G1 F300.0 Z0.5
G2 F800.0 X85.375 Y101.0 Z-0.0124 I0.034 J-0.8743
G2 X84.0625 Y100.2422 Z-0.679 I-0.875 J0.0
G2 Y101.7578 Z-1.3457 I0.4375 J0.7578
G2 X84.466 Y101.8743 Z-1.5 I0.4375 J-0.7578
G2 X85.375 Y101.0 I0.034 J-0.8743
G2 X84.0625 Y100.2422 I-0.875 J0.0
G2 Y101.7578 I0.4375 J0.7578
G2 X84.466 Y101.8743 I0.4375 J-0.7578
G0 Z3.0
G0 X105.6257 Y101.0347
G1 F300.0 Z0.5
G2 F800.0 X106.0625 Y101.7578 Z0.1793 I0.8743 J-0.0347
G2 X107.375 Y101.0 Z-0.4874 I0.4375 J-0.7578
G2 X106.0625 Y100.2422 Z-1.154 I-0.875 J0.0
G2 X105.6257 Y101.0347 Z-1.5 I0.4375 J0.7578
G2 X106.0625 Y101.7578 I0.8743 J-0.0347
G2 X107.375 Y101.0 I0.4375 J-0.7578
G2 X106.0625 Y100.2422 I-0.875 J0.0
G2 X105.6257 Y101.0347 I0.4375 J0.7578
G0 Z3.0
G0 X106.9455 Y79.8733
G1 F300.0 Z0.5
G2 F800.0 X107.875 Y79.0 Z-0.0198 I0.0545 J-0.8733
G2 X106.5625 Y78.2422 Z-0.6865 I-0.875 J0.0
G2 Y79.7578 Z-1.3532 I0.4375 J0.7578
G2 X106.9455 Y79.8733 Z-1.5 I0.4375 J-0.7578
G2 X107.875 Y79.0 I0.0545 J-0.8733
G2 X106.5625 Y78.2422 I-0.875 J0.0
G2 Y79.7578 I0.4375 J0.7578
G2 X106.9455 Y79.8733 I0.4375 J-0.7578
G0 Z3.0
G0 X85.8743 Y79.0348
G1 F300.0 Z0.5
G2 F800.0 X85.875 Y79.0 Z0.4873 I-0.8743 J-0.0348
G2 X84.5625 Y78.2422 Z-0.1793 I-0.875 J0.0
G2 Y79.7578 Z-0.846 I0.4375 J0.7578
G2 X85.8743 Y79.0348 Z-1.5 I0.4375 J-0.7578
G2 X85.875 Y79.0 I-0.8743 J-0.0348
G2 X84.5625 Y78.2422 I-0.875 J0.0
G2 Y79.7578 I0.4375 J0.7578
G2 X85.8743 Y79.0348 I0.4375 J-0.7578
G0 Z3.0
G0 X85.0339 Y57.3743
G1 F300.0 Z0.5
G2 F800.0 X85.875 Y56.5 Z0.0123 I-0.0339 J-0.8743
G2 X84.5625 Y55.7422 Z-0.6543 I-0.875 J0.0
G2 Y57.2578 Z-1.321 I0.4375 J0.7578
G2 X85.0339 Y57.3743 Z-1.5 I0.4375 J-0.7578
G2 X85.875 Y56.5 I-0.0339 J-0.8743
G2 X84.5625 Y55.7422 I-0.875 J0.0
G2 Y57.2578 I0.4375 J0.7578
G2 X85.0339 Y57.3743 I0.4375 J-0.7578
G0 Z3.0
G0 X106.1257 Y56.5348
G1 F300.0 Z0.5
G2 F800.0 X106.5625 Y57.2578 Z0.1793 I0.8743 J-0.0348
G2 X107.875 Y56.5 Z-0.4873 I0.4375 J-0.7578
G2 X106.5625 Y55.7422 Z-1.154 I-0.875 J0.0
G2 X106.1257 Y56.5348 Z-1.5 I0.4375 J0.7578
G2 X106.5625 Y57.2578 I0.8743 J-0.0348
G2 X107.875 Y56.5 I0.4375 J-0.7578
G2 X106.5625 Y55.7422 I-0.875 J0.0
G2 X106.1257 Y56.5348 I0.4375 J0.7578
G0 Z3.0
G0 X106.9661 Y34.8743
G1 F300.0 Z0.5
G2 F800.0 X107.875 Y34.0 Z-0.0123 I0.0339 J-0.8743
G2 X106.5625 Y33.2422 Z-0.679 I-0.875 J0.0
G2 Y34.7578 Z-1.3457 I0.4375 J0.7578
G2 X106.9661 Y34.8743 Z-1.5 I0.4375 J-0.7578
G2 X107.875 Y34.0 I0.0339 J-0.8743
G2 X106.5625 Y33.2422 I-0.875 J0.0
G2 Y34.7578 I0.4375 J0.7578
G2 X106.9661 Y34.8743 I0.4375 J-0.7578
G0 Z3.0
G0 X106.9986 Y13.875
G1 F300.0 Z0.5
G2 F800.0 X107.875 Y13.0 Z-0.0005 I0.0014 J-0.875
G2 X106.5625 Y12.2422 Z-0.6672 I-0.875 J0.0
G2 Y13.7578 Z-1.3338 I0.4375 J0.7578
G2 X106.9986 Y13.875 Z-1.5 I0.4375 J-0.7578
G2 X107.875 Y13.0 I0.0014 J-0.875
G2 X106.5625 Y12.2422 I-0.875 J0.0
G2 Y13.7578 I0.4375 J0.7578
G2 X106.9986 Y13.875 I0.4375 J-0.7578
G0 Z3.0
G0 X85.8743 Y13.0348
G1 F300.0 Z0.5
G2 F800.0 X85.875 Y13.0 Z0.4873 I-0.8743 J-0.0348
G2 X84.5625 Y12.2422 Z-0.1793 I-0.875 J0.0
G2 Y13.7578 Z-0.846 I0.4375 J0.7578
G2 X85.8743 Y13.0348 Z-1.5 I0.4375 J-0.7578
G2 X85.875 Y13.0 I-0.8743 J-0.0348
G2 X84.5625 Y12.2422 I-0.875 J0.0
G2 Y13.7578 I0.4375 J0.7578
G2 X85.8743 Y13.0348 I0.4375 J-0.7578
G0 Z3.0
G0 X85.0365 Y33.1258
G1 F300.0 Z0.5
G2 F800.0 X84.5625 Y33.2422 Z0.3201 I-0.0365 J0.8742
G2 Y34.7578 Z-0.3466 I0.4375 J0.7578
G2 X85.875 Y34.0 Z-1.0133 I0.4375 J-0.7578
G2 X85.0365 Y33.1258 Z-1.5 I-0.875 J0.0
G2 X84.5625 Y33.2422 I-0.0365 J0.8742
G2 Y34.7578 I0.4375 J0.7578
G2 X85.875 Y34.0 I0.4375 J-0.7578
G2 X85.0365 Y33.1258 I-0.875 J0.0
G0 Z3.0
G0 X106.2978 Y122.6487
G1 F300.0 Z0.5
G2 F800.0 X106.0625 Y122.7422 Z0.4076 I0.2022 J0.8513
G2 Y124.2578 Z-0.2591 I0.4375 J0.7578
G2 X107.375 Y123.5 Z-0.9258 I0.4375 J-0.7578
G2 X106.2978 Y122.6487 Z-1.5 I-0.875 J0.0
G2 X106.0625 Y122.7422 I0.2022 J0.8513
G2 Y124.2578 I0.4375 J0.7578
G2 X107.375 Y123.5 I0.4375 J-0.7578
G2 X106.2978 Y122.6487 I-0.875 J0.0
G0 Z3.0
G0 X106.4924 Y145.125
G1 F300.0 Z0.5
G2 F800.0 X106.0625 Y145.2422 Z0.3361 I0.0076 J0.875
G2 Y146.7578 Z-0.3306 I0.4375 J0.7578
G2 X107.375 Y146.0 Z-0.9972 I0.4375 J-0.7578
G2 X106.4924 Y145.125 Z-1.5 I-0.875 J0.0
G2 X106.0625 Y145.2422 I0.0076 J0.875
G2 Y146.7578 I0.4375 J0.7578
G2 X107.375 Y146.0 I0.4375 J-0.7578
G2 X106.4924 Y145.125 I-0.875 J0.0
G0 Z3.0
G0 X85.3743 Y145.9652
G1 F300.0 Z0.5
G2 F800.0 X84.0625 Y145.2422 Z-0.154 I-0.8743 J0.0348
G2 Y146.7578 Z-0.8207 I0.4375 J0.7578
G2 X85.375 Y146.0 Z-1.4873 I0.4375 J-0.7578
G2 X85.3743 Y145.9652 Z-1.5 I-0.875 J0.0
G2 X84.0625 Y145.2422 I-0.8743 J0.0348
G2 Y146.7578 I0.4375 J0.7578
G2 X85.375 Y146.0 I0.4375 J-0.7578
G2 X85.3743 Y145.9652 I-0.875 J0.0
G0 Z3.0
G0 X62.875 Y145.9987
G1 F300.0 Z0.5
G2 F800.0 X61.5625 Y145.2422 Z-0.1662 I-0.875 J0.0013
G2 Y146.7578 Z-0.8329 I0.4375 J0.7578
G2 X62.875 Y146.0 Z-1.4995 I0.4375 J-0.7578
G2 Y145.9987 Z-1.5 I-0.875 J0.0
G2 X61.5625 Y145.2422 I-0.875 J0.0013
G2 Y146.7578 I0.4375 J0.7578
G2 X62.875 Y146.0 I0.4375 J-0.7578
G2 Y145.9987 I-0.875 J0.0
( Rotor Hole )
S1000
G0 Z3.0
G0 X38.875 Y58.0
G1 F300.0 Z0.5
G2 F800.0 X37.5625 Y57.2422 Z-0.1667 I-0.875 J0.0
G2 Y58.7578 Z-0.8333 I0.4375 J0.7578
G2 X38.875 Y58.0 Z-1.5 I0.4375 J-0.7578
G2 X37.5625 Y57.2422 I-0.875 J0.0
G2 Y58.7578 I0.4375 J0.7578
G2 X38.875 Y58.0 I0.4375 J-0.7578
( Stator Holes )
S1000
G0 Z3.0
G0 X61.607 Y23.3684
G1 F300.0 Z0.5
G2 F800.0 X62.375 Y22.5 Z0.039 I-0.107 J-0.8684
G2 X61.0625 Y21.7422 Z-0.6277 I-0.875 J0.0
G2 X60.6316 Y22.393 Z-0.922 I0.4375 J0.7578
G2 X61.0625 Y23.2578 Z-1.2943 I0.8684 J0.107
G2 X61.607 Y23.3684 Z-1.5 I0.4375 J-0.7578
G2 X62.375 Y22.5 I-0.107 J-0.8684
G2 X61.0625 Y21.7422 I-0.875 J0.0
G2 X60.6316 Y22.393 I0.4375 J0.7578
G2 X61.0625 Y23.2578 I0.8684 J0.107
G2 X61.607 Y23.3684 I0.4375 J-0.7578
G0 Z3.0
G0 X15.3749 Y22.5161
G1 F300.0 Z0.5
G2 F800.0 X15.375 Y22.5 Z0.4941 I-0.8749 J-0.0161
G2 X15.3684 Y22.393 Z0.4551 I-0.875 J0.0
G2 X14.0625 Y21.7422 Z-0.1725 I-0.8684 J0.107
G2 Y23.2578 Z-0.8392 I0.4375 J0.7578
G2 X14.393 Y23.3684 Z-0.9669 I0.4375 J-0.7578
G2 X15.3749 Y22.5161 Z-1.5 I0.107 J-0.8684
G2 X15.375 Y22.5 I-0.8749 J-0.0161
G2 X15.3684 Y22.393 I-0.875 J0.0
G2 X14.0625 Y21.7422 I-0.8684 J0.107
G2 Y23.2578 I0.4375 J0.7578
G2 X14.393 Y23.3684 I0.4375 J-0.7578
G2 X15.3749 Y22.5161 I0.107 J-0.8684
( Cutout washers )
S1000
G0 Z3.0
G0 X23.5 Y146.0
G1 F300.0 Z0.5
G3 F800.0 X10.75 Y153.3612 Z-0.1667 I-8.5 J0.0
G3 Y138.6388 Z-0.8333 I4.25 J-7.3612
G3 X23.5 Y146.0 Z-1.5 I4.25 J7.3612
G3 X10.75 Y153.3612 I-8.5 J0.0
G3 Y138.6388 I4.25 J-7.3612
G3 X23.5 Y146.0 I4.25 J7.3612
G0 Z3.0
G0 X30.0
G1 F300.0 Z0.5
G3 F800.0 X34.25 Y138.6388 Z0.1667 I8.5 J0.0
G3 X47.0 Y146.0 Z-0.5 I4.25 J7.3612
G3 X34.25 Y153.3612 Z-1.1667 I-8.5 J0.0
G3 X30.0 Y146.0 Z-1.5 I4.25 J-7.3612
G3 X34.25 Y138.6388 I8.5 J0.0
G3 X47.0 Y146.0 I4.25 J7.3612
G3 X34.25 Y153.3612 I-8.5 J0.0
G3 X30.0 Y146.0 I4.25 J-7.3612
G0 Z3.0
G0 X35.4961 Y131.4515
G1 F300.0 Z0.5
G3 F800.0 X34.25 Y130.8612 Z0.4483 I3.0039 J-7.9515
G3 Y116.1388 Z-0.2184 I4.25 J-7.3612
G3 X47.0 Y123.5 Z-0.885 I4.25 J7.3612
G3 X35.4961 Y131.4515 Z-1.5 I-8.5 J0.0
G3 X34.25 Y130.8612 I3.0039 J-7.9515
G3 Y116.1388 I4.25 J-7.3612
G3 X47.0 Y123.5 I4.25 J7.3612
G3 X35.4961 Y131.4515 I-8.5 J0.0
G0 Z3.0
G0 X22.9245 Y126.5743
G1 F300.0 Z0.5
G3 F800.0 X10.75 Y130.8612 Z-0.0489 I-7.9245 J-3.0743
G3 Y116.1388 Z-0.7155 I4.25 J-7.3612
G3 X23.5 Y123.5 Z-1.3822 I4.25 J7.3612
G3 X22.9245 Y126.5743 Z-1.5 I-8.5 J0.0
G3 X10.75 Y130.8612 I-7.9245 J-3.0743
G3 Y116.1388 I4.25 J-7.3612
G3 X23.5 Y123.5 I4.25 J7.3612
G3 X22.9245 Y126.5743 I-8.5 J0.0
G0 Z3.0
G0 X17.5158 Y109.1192
G1 F300.0 Z0.5
G3 F800.0 X10.75 Y108.3612 Z0.2377 I-2.5158 J-8.1192
G3 Y93.6388 Z-0.429 I4.25 J-7.3612
G3 X23.5 Y101.0 Z-1.0956 I4.25 J7.3612
G3 X17.5158 Y109.1192 Z-1.5 I-8.5 J0.0
G3 X10.75 Y108.3612 I-2.5158 J-8.1192
G3 Y93.6388 I4.25 J-7.3612
G3 X23.5 Y101.0 I4.25 J7.3612
G3 X17.5158 Y109.1192 I-8.5 J0.0
G0 Z3.0
G0 X30.5727 Y104.0672
G1 F300.0 Z0.5
G3 F800.0 X34.25 Y93.6388 Z0.0492 I7.9273 J-3.0672
G3 X47.0 Y101.0 Z-0.6175 I4.25 J7.3612
G3 X34.25 Y108.3612 Z-1.2842 I-8.5 J0.0
G3 X30.5727 Y104.0672 Z-1.5 I4.25 J-7.3612
G3 X34.25 Y93.6388 I7.9273 J-3.0672
G3 X47.0 Y101.0 I4.25 J7.3612
G3 X34.25 Y108.3612 I-8.5 J0.0
G3 X30.5727 Y104.0672 I4.25 J-7.3612
G0 Z3.0
G0 X53.5402 Y101.8257
G1 F300.0 Z0.5
G3 F800.0 X57.75 Y93.6388 Z0.1357 I8.4598 J-0.8257
G3 X70.5 Y101.0 Z-0.531 I4.25 J7.3612
G3 X57.75 Y108.3612 Z-1.1976 I-8.5 J0.0
G3 X53.5402 Y101.8257 Z-1.5 I4.25 J-7.3612
G3 X57.75 Y93.6388 I8.4598 J-0.8257
G3 X70.5 Y101.0 I4.25 J7.3612
G3 X57.75 Y108.3612 I-8.5 J0.0
G3 X53.5402 Y101.8257 I4.25 J-7.3612
G0 Z3.0
G0 X58.9094 Y115.5818
G1 F300.0 Z0.5
G3 F800.0 X70.5 Y123.5 Z-0.1185 I3.0906 J7.9182
G3 X57.75 Y130.8612 Z-0.7851 I-8.5 J0.0
G3 Y116.1388 Z-1.4518 I4.25 J-7.3612
G3 X58.9094 Y115.5818 Z-1.5 I4.25 J7.3612
G3 X70.5 Y123.5 I3.0906 J7.9182
G3 X57.75 Y130.8612 I-8.5 J0.0
G3 Y116.1388 I4.25 J-7.3612
G3 X58.9094 Y115.5818 I4.25 J7.3612
G0 Z3.0
G0 X76.3798 Y120.9875
G1 F300.0 Z0.5
G3 F800.0 X80.25 Y116.1388 Z0.2622 I8.1202 J2.5125
G3 X93.0 Y123.5 Z-0.4045 I4.25 J7.3612
G3 X80.25 Y130.8612 Z-1.0711 I-8.5 J0.0
G3 X76.3798 Y120.9875 Z-1.5 I4.25 J-7.3612
G3 X80.25 Y116.1388 I8.1202 J2.5125
G3 X93.0 Y123.5 I4.25 J7.3612
G3 X80.25 Y130.8612 I-8.5 J0.0
G3 X76.3798 Y120.9875 I4.25 J-7.3612
G0 Z3.0
G0 X81.3007 Y108.8749
G1 F300.0 Z0.5
G3 F800.0 X80.25 Y108.3612 Z0.4562 I3.1993 J-7.8749
G3 Y93.6388 Z-0.2105 I4.25 J-7.3612
G3 X93.0 Y101.0 Z-0.8772 I4.25 J7.3612
G3 X81.3007 Y108.8749 Z-1.5 I-8.5 J0.0
G3 X80.25 Y108.3612 I3.1993 J-7.8749
G3 Y93.6388 I4.25 J-7.3612
G3 X93.0 Y101.0 I4.25 J7.3612
G3 X81.3007 Y108.8749 I-8.5 J0.0
G0 Z3.0
G0 X98.3869 Y103.5354
G1 F300.0 Z0.5
G3 F800.0 X102.25 Y93.6388 Z0.0703 I8.1131 J-2.5354
G3 X115.0 Y101.0 Z-0.5964 I4.25 J7.3612
G3 X102.25 Y108.3612 Z-1.2631 I-8.5 J0.0
G3 X98.3869 Y103.5354 Z-1.5 I4.25 J-7.3612
G3 X102.25 Y93.6388 I8.1131 J-2.5354
G3 X115.0 Y101.0 I4.25 J7.3612
G3 X102.25 Y108.3612 I-8.5 J0.0
G3 X98.3869 Y103.5354 I4.25 J-7.3612
G0 Z3.0
G0 X103.3 Y115.6254
G1 F300.0 Z0.5
G3 F800.0 X115.0 Y123.5 Z-0.1229 I3.2 J7.8746
G3 X102.25 Y130.8612 Z-0.7895 I-8.5 J0.0
G3 Y116.1388 Z-1.4562 I4.25 J-7.3612
G3 X103.3 Y115.6254 Z-1.5 I4.25 J7.3612
G3 X115.0 Y123.5 I3.2 J7.8746
G3 X102.25 Y130.8612 I-8.5 J0.0
G3 Y116.1388 I4.25 J-7.3612
G3 X103.3 Y115.6254 I4.25 J7.3612
G0 Z3.0
G0 X105.6094 Y137.5468
G1 F300.0 Z0.5
G3 F800.0 X115.0 Y146.0 Z-0.0334 I0.8906 J8.4532
G3 X102.25 Y153.3612 Z-0.7001 I-8.5 J0.0
G3 Y138.6388 Z-1.3667 I4.25 J-7.3612
G3 X105.6094 Y137.5468 Z-1.5 I4.25 J7.3612
G3 X115.0 Y146.0 I0.8906 J8.4532
G3 X102.25 Y153.3612 I-8.5 J0.0
G3 Y138.6388 I4.25 J-7.3612
G3 X105.6094 Y137.5468 I4.25 J7.3612
G0 Z3.0
G0 X92.3908 Y142.8401
G1 F300.0 Z0.5
G3 F800.0 X93.0 Y146.0 Z0.3788 I-7.8908 J3.1599
G3 X80.25 Y153.3612 Z-0.2879 I-8.5 J0.0
G3 Y138.6388 Z-0.9546 I4.25 J-7.3612
G3 X92.3908 Y142.8401 Z-1.5 I4.25 J7.3612
G3 X93.0 Y146.0 I-7.8908 J3.1599
G3 X80.25 Y153.3612 I-8.5 J0.0
G3 Y138.6388 I4.25 J-7.3612
G3 X92.3908 Y142.8401 I4.25 J7.3612
G0 Z3.0
G0 X70.4544 Y145.121
G1 F300.0 Z0.5
G3 F800.0 X70.5 Y146.0 Z0.467 I-8.4544 J0.879
G3 X57.75 Y153.3612 Z-0.1996 I-8.5 J0.0
G3 Y138.6388 Z-0.8663 I4.25 J-7.3612
G3 X70.4544 Y145.121 Z-1.5 I4.25 J7.3612
G3 X70.5 Y146.0 I-8.4544 J0.879
G3 X57.75 Y153.3612 I-8.5 J0.0
G3 Y138.6388 I4.25 J-7.3612
G3 X70.4544 Y145.121 I4.25 J7.3612
G0 Z3.0
G0 X83.1738 Y87.3015
G1 F300.0 Z0.5
G3 F800.0 X80.75 Y86.3612 Z0.4023 I1.8262 J-8.3015
G3 Y71.6388 Z-0.2644 I4.25 J-7.3612
G3 X93.5 Y79.0 Z-0.9311 I4.25 J7.3612
G3 X83.1738 Y87.3015 Z-1.5 I-8.5 J0.0
G3 X80.75 Y86.3612 I1.8262 J-8.3015
G3 Y71.6388 I4.25 J-7.3612
G3 X93.5 Y79.0 I4.25 J7.3612
G3 X83.1738 Y87.3015 I-8.5 J0.0
G0 Z3.0
G0 X98.9733 Y81.7967
G1 F300.0 Z0.5
G3 F800.0 X102.75 Y71.6388 Z0.0599 I8.0267 J-2.7967
G3 X115.5 Y79.0 Z-0.6067 I4.25 J7.3612
G3 X102.75 Y86.3612 Z-1.2734 I-8.5 J0.0
G3 X98.9733 Y81.7967 Z-1.5 I4.25 J-7.3612
G3 X102.75 Y71.6388 I8.0267 J-2.7967
G3 X115.5 Y79.0 I4.25 J7.3612
G3 X102.75 Y86.3612 I-8.5 J0.0
G3 X98.9733 Y81.7967 I4.25 J-7.3612
G0 Z3.0
G0 X104.4292 Y64.6019
G1 F300.0 Z0.5
G3 F800.0 X102.75 Y63.8612 Z0.4311 I2.5708 J-8.1019
G3 Y49.1388 Z-0.2355 I4.25 J-7.3612
G3 X115.5 Y56.5 Z-0.9022 I4.25 J7.3612
G3 X104.4292 Y64.6019 Z-1.5 I-8.5 J0.0
G3 X102.75 Y63.8612 I2.5708 J-8.1019
G3 Y49.1388 I4.25 J-7.3612
G3 X115.5 Y56.5 I4.25 J7.3612
G3 X104.4292 Y64.6019 I-8.5 J0.0
G0 Z3.0
G0 X92.8452 Y59.7714
G1 F300.0 Z0.5
G3 F800.0 X80.75 Y63.8612 Z-0.0409 I-7.8452 J-3.2714
G3 Y49.1388 Z-0.7076 I4.25 J-7.3612
G3 X93.5 Y56.5 Z-1.3742 I4.25 J7.3612
G3 X92.8452 Y59.7714 Z-1.5 I-8.5 J0.0
G3 X80.75 Y63.8612 I-7.8452 J-3.2714
G3 Y49.1388 I4.25 J-7.3612
G3 X93.5 Y56.5 I4.25 J7.3612
G3 X92.8452 Y59.7714 I-8.5 J0.0
G0 Z3.0
G0 X87.4754 Y42.1316
G1 F300.0 Z0.5
G3 F800.0 X80.75 Y41.3612 Z0.2393 I-2.4754 J-8.1316
G3 Y26.6388 Z-0.4274 I4.25 J-7.3612
G3 X93.5 Y34.0 Z-1.0941 I4.25 J7.3612
G3 X87.4754 Y42.1316 Z-1.5 I-8.5 J0.0
G3 X80.75 Y41.3612 I-2.4754 J-8.1316
G3 Y26.6388 I4.25 J-7.3612
G3 X93.5 Y34.0 I4.25 J7.3612
G3 X87.4754 Y42.1316 I-8.5 J0.0
G0 Z3.0
G0 X99.1533 Y37.268
G1 F300.0 Z0.5
G3 F800.0 X102.75 Y26.6388 Z0.0411 I7.8467 J-3.268
G3 X115.5 Y34.0 Z-0.6256 I4.25 J7.3612
G3 X102.75 Y41.3612 Z-1.2923 I-8.5 J0.0
G3 X99.1533 Y37.268 Z-1.5 I4.25 J-7.3612
G3 X102.75 Y26.6388 I7.8467 J-3.268
G3 X115.5 Y34.0 I4.25 J7.3612
G3 X102.75 Y41.3612 I-8.5 J0.0
G3 X99.1533 Y37.268 I4.25 J-7.3612
G0 Z3.0
G0 X104.385 Y21.0877
G1 F300.0 Z0.5
G3 F800.0 X102.75 Y20.3612 Z0.4329 I2.615 J-8.0877
G3 Y5.6388 Z-0.2338 I4.25 J-7.3612
G3 X115.5 Y13.0 Z-0.9005 I4.25 J7.3612
G3 X104.385 Y21.0877 Z-1.5 I-8.5 J0.0
G3 X102.75 Y20.3612 I2.615 J-8.0877
G3 Y5.6388 I4.25 J-7.3612
G3 X115.5 Y13.0 I4.25 J7.3612
G3 X104.385 Y21.0877 I-8.5 J0.0
G0 Z3.0
G0 X92.8446 Y16.2729
G1 F300.0 Z0.5
G3 F800.0 X80.75 Y20.3612 Z-0.0409 I-7.8446 J-3.2729
G3 Y5.6388 Z-0.7075 I4.25 J-7.3612
G3 X93.5 Y13.0 Z-1.3742 I4.25 J7.3612
G3 X92.8446 Y16.2729 Z-1.5 I-8.5 J0.0
G3 X80.75 Y20.3612 I-7.8446 J-3.2729
G3 Y5.6388 I4.25 J-7.3612
G3 X93.5 Y13.0 I4.25 J7.3612
G3 X92.8446 Y16.2729 I-8.5 J0.0
( Rotor )
S1000
G0 Z3.0
G0 X64.5 Y58.0
G1 F300.0 Z0.5
G3 F800.0 X24.75 Y80.9497 Z-0.266 I-26.5 J0.0
G3 X11.5 Y58.0 Z-0.6489 I13.25 J-22.9497
G3 X13.0 Y56.5 Z-0.6815 I1.5 J0.0
G1 X29.6334 Z-0.911
G3 X46.3666 Z-1.2379 I8.3666 J1.5
G1 X63.0 Z-1.4675
G3 X64.5 Y58.0 Z-1.5 I0.0 J1.5
G3 X24.75 Y80.9497 I-26.5 J0.0
G3 X11.5 Y58.0 I13.25 J-22.9497
G3 X13.0 Y56.5 I1.5 J0.0
G1 X29.6334
G3 X46.3666 I8.3666 J1.5
G1 X63.0
G3 X64.5 Y58.0 I0.0 J1.5
( Stator )
S1000
G0 Z3.0
G0 X6.0 Y6.5
G1 F300.0 Z0.5
G1 F800.0 X70.0 Z-0.1063
G3 X71.5 Y8.0 Z-0.1286 I0.0 J1.5
G1 Y40.0 Z-0.4317
G3 X70.0 Y41.5 Z-0.454 I-1.5 J0.0
G1 X69.8277 Z-0.4557
G1 X63.0 Z-0.5204
G1 X46.5 Z-0.6767
G3 X45.0 Y40.0 Z-0.699 I0.0 J-1.5
G2 X34.5 Y33.9378 Z-0.8379 I-7.0 J0.0
G2 X31.0 Y40.0 Z-0.9073 I3.5 J6.0622
G3 X29.5 Y41.5 Z-0.9296 I-1.5 J0.0
G1 X13.0 Z-1.0859
G1 X6.1723 Z-1.1506
G1 X6.0 Z-1.1522
G3 X4.5 Y40.0 Z-1.1745 I0.0 J-1.5
G1 Y8.0 Z-1.4777
G3 X6.0 Y6.5 Z-1.5 I1.5 J0.0
G1 X70.0
G3 X71.5 Y8.0 I0.0 J1.5
G1 Y40.0
G3 X70.0 Y41.5 I-1.5 J0.0
G1 X69.8277
G1 X63.0
G1 X46.5
G3 X45.0 Y40.0 I0.0 J-1.5
G2 X34.5 Y33.9378 I-7.0 J0.0
G2 X31.0 Y40.0 I3.5 J6.0622
G3 X29.5 Y41.5 I-1.5 J0.0
G1 X13.0
G1 X6.1723
G1 X6.0
G3 X4.5 Y40.0 I0.0 J-1.5
G1 Y8.0
G3 X6.0 Y6.5 I1.5 J0.0
G0 Z3.0
M5
M30
