( Made using CamBam - http://www.cambam.co.uk )
( Capacitor 3/19/2016 1:19:29 PM )
( T0 : 3.14 )
G21 G90 G64 G40
G0 Z4.0
( T0 : 3.14 )
T0 M6
( Platic Holes 1 )
G61 G17
M3 S1000
G0 X38.805 Y40.0
G1 F300.0 Z0.0
G2 F800.0 X37.5975 Y39.3028 Z-0.3333 I-0.805 J0.0
G2 Y40.6972 Z-0.6667 I0.4025 J0.6972
G2 X38.805 Y40.0 Z-1.0 I0.4025 J-0.6972
G2 X37.5975 Y39.3028 Z-1.3333 I-0.805 J0.0
G2 Y40.6972 Z-1.6667 I0.4025 J0.6972
G2 X38.805 Y40.0 Z-2.0 I0.4025 J-0.6972
G2 X37.5975 Y39.3028 Z-2.3333 I-0.805 J0.0
G2 Y40.6972 Z-2.6667 I0.4025 J0.6972
G2 X38.805 Y40.0 Z-3.0 I0.4025 J-0.6972
G2 X37.5975 Y39.3028 I-0.805 J0.0
G2 Y40.6972 I0.4025 J0.6972
G2 X38.805 Y40.0 I0.4025 J-0.6972
G0 Z4.0
G0 X60.9408 Y17.0791
G1 F300.0 Z0.0
G2 F800.0 X61.0975 Y17.1972 Z-0.0389 I0.5592 J-0.5791
G2 X62.305 Y16.5 Z-0.3722 I0.4025 J-0.6972
G2 X61.0975 Y15.8028 Z-0.7056 I-0.805 J0.0
G2 X60.9408 Y17.0791 Z-1.0 I0.4025 J0.6972
G2 X61.0975 Y17.1972 Z-1.0389 I0.5592 J-0.5791
G2 X62.305 Y16.5 Z-1.3722 I0.4025 J-0.6972
G2 X61.0975 Y15.8028 Z-1.7056 I-0.805 J0.0
G2 X60.9408 Y17.0791 Z-2.0 I0.4025 J0.6972
G2 X61.0975 Y17.1972 Z-2.0389 I0.5592 J-0.5791
G2 X62.305 Y16.5 Z-2.3722 I0.4025 J-0.6972
G2 X61.0975 Y15.8028 Z-2.7056 I-0.805 J0.0
G2 X60.9408 Y17.0791 Z-3.0 I0.4025 J0.6972
G2 X61.0975 Y17.1972 I0.5592 J-0.5791
G2 X62.305 Y16.5 I0.4025 J-0.6972
G2 X61.0975 Y15.8028 I-0.805 J0.0
G2 X60.9408 Y17.0791 I0.4025 J0.6972
G0 Z4.0
G0 X61.4903 Y62.6951
G1 F300.0 Z0.0
G2 F800.0 X61.0975 Y62.8028 Z-0.0814 I0.0097 J0.8049
G2 Y64.1972 Z-0.4147 I0.4025 J0.6972
G2 X62.305 Y63.5 Z-0.7481 I0.4025 J-0.6972
G2 X61.4903 Y62.6951 Z-1.0 I-0.805 J0.0
G2 X61.0975 Y62.8028 Z-1.0814 I0.0097 J0.8049
G2 Y64.1972 Z-1.4147 I0.4025 J0.6972
G2 X62.305 Y63.5 Z-1.7481 I0.4025 J-0.6972
G2 X61.4903 Y62.6951 Z-2.0 I-0.805 J0.0
G2 X61.0975 Y62.8028 Z-2.0814 I0.0097 J0.8049
G2 Y64.1972 Z-2.4147 I0.4025 J0.6972
G2 X62.305 Y63.5 Z-2.7481 I0.4025 J-0.6972
G2 X61.4903 Y62.6951 Z-3.0 I-0.805 J0.0
G2 X61.0975 Y62.8028 I0.0097 J0.8049
G2 Y64.1972 I0.4025 J0.6972
G2 X62.305 Y63.5 I0.4025 J-0.6972
G2 X61.4903 Y62.6951 I-0.805 J0.0
G0 Z4.0
G0 X15.3049 Y63.4862
G1 F300.0 Z0.0
G2 F800.0 X14.0975 Y62.8028 Z-0.3306 I-0.8049 J0.0138
G2 Y64.1972 Z-0.6639 I0.4025 J0.6972
G2 X15.305 Y63.5 Z-0.9973 I0.4025 J-0.6972
G2 X15.3049 Y63.4862 Z-1.0 I-0.805 J0.0
G2 X14.0975 Y62.8028 Z-1.3306 I-0.8049 J0.0138
G2 Y64.1972 Z-1.6639 I0.4025 J0.6972
G2 X15.305 Y63.5 Z-1.9973 I0.4025 J-0.6972
G2 X15.3049 Y63.4862 Z-2.0 I-0.805 J0.0
G2 X14.0975 Y62.8028 Z-2.3306 I-0.8049 J0.0138
G2 Y64.1972 Z-2.6639 I0.4025 J0.6972
G2 X15.305 Y63.5 Z-2.9973 I0.4025 J-0.6972
G2 X15.3049 Y63.4862 Z-3.0 I-0.805 J0.0
G2 X14.0975 Y62.8028 I-0.8049 J0.0138
G2 Y64.1972 I0.4025 J0.6972
G2 X15.305 Y63.5 I0.4025 J-0.6972
G2 X15.3049 Y63.4862 I-0.805 J0.0
G0 Z4.0
G0 X14.5138 Y17.3049
G1 F300.0 Z0.0
G2 F800.0 X15.305 Y16.5 Z-0.2473 I-0.0138 J-0.8049
G2 X14.0975 Y15.8028 Z-0.5806 I-0.805 J0.0
G2 Y17.1972 Z-0.9139 I0.4025 J0.6972
G2 X14.5138 Y17.3049 Z-1.0 I0.4025 J-0.6972
G2 X15.305 Y16.5 Z-1.2473 I-0.0138 J-0.8049
G2 X14.0975 Y15.8028 Z-1.5806 I-0.805 J0.0
G2 Y17.1972 Z-1.9139 I0.4025 J0.6972
G2 X14.5138 Y17.3049 Z-2.0 I0.4025 J-0.6972
G2 X15.305 Y16.5 Z-2.2473 I-0.0138 J-0.8049
G2 X14.0975 Y15.8028 Z-2.5806 I-0.805 J0.0
G2 Y17.1972 Z-2.9139 I0.4025 J0.6972
G2 X14.5138 Y17.3049 Z-3.0 I0.4025 J-0.6972
G2 X15.305 Y16.5 I-0.0138 J-0.8049
G2 X14.0975 Y15.8028 I-0.805 J0.0
G2 Y17.1972 I0.4025 J0.6972
G2 X14.5138 Y17.3049 I0.4025 J-0.6972
( Plastic Holes 2 )
S1000
G0 Z4.0
G0 X38.805 Y111.0
G1 F300.0 Z0.0
G2 F800.0 X37.5975 Y110.3028 Z-0.3333 I-0.805 J0.0
G2 Y111.6972 Z-0.6667 I0.4025 J0.6972
G2 X38.805 Y111.0 Z-1.0 I0.4025 J-0.6972
G2 X37.5975 Y110.3028 Z-1.3333 I-0.805 J0.0
G2 Y111.6972 Z-1.6667 I0.4025 J0.6972
G2 X38.805 Y111.0 Z-2.0 I0.4025 J-0.6972
G2 X37.5975 Y110.3028 Z-2.3333 I-0.805 J0.0
G2 Y111.6972 Z-2.6667 I0.4025 J0.6972
G2 X38.805 Y111.0 Z-3.0 I0.4025 J-0.6972
G2 X37.5975 Y110.3028 I-0.805 J0.0
G2 Y111.6972 I0.4025 J0.6972
G2 X38.805 Y111.0 I0.4025 J-0.6972
G0 Z4.0
G0 X60.9408 Y88.0791
G1 F300.0 Z0.0
G2 F800.0 X61.0975 Y88.1972 Z-0.0389 I0.5592 J-0.5791
G2 X62.305 Y87.5 Z-0.3722 I0.4025 J-0.6972
G2 X61.0975 Y86.8028 Z-0.7056 I-0.805 J0.0
G2 X60.9408 Y88.0791 Z-1.0 I0.4025 J0.6972
G2 X61.0975 Y88.1972 Z-1.0389 I0.5592 J-0.5791
G2 X62.305 Y87.5 Z-1.3722 I0.4025 J-0.6972
G2 X61.0975 Y86.8028 Z-1.7056 I-0.805 J0.0
G2 X60.9408 Y88.0791 Z-2.0 I0.4025 J0.6972
G2 X61.0975 Y88.1972 Z-2.0389 I0.5592 J-0.5791
G2 X62.305 Y87.5 Z-2.3722 I0.4025 J-0.6972
G2 X61.0975 Y86.8028 Z-2.7056 I-0.805 J0.0
G2 X60.9408 Y88.0791 Z-3.0 I0.4025 J0.6972
G2 X61.0975 Y88.1972 I0.5592 J-0.5791
G2 X62.305 Y87.5 I0.4025 J-0.6972
G2 X61.0975 Y86.8028 I-0.805 J0.0
G2 X60.9408 Y88.0791 I0.4025 J0.6972
G0 Z4.0
G0 X61.4903 Y133.6951
G1 F300.0 Z0.0
G2 F800.0 X61.0975 Y133.8028 Z-0.0814 I0.0097 J0.8049
G2 Y135.1972 Z-0.4147 I0.4025 J0.6972
G2 X62.305 Y134.5 Z-0.7481 I0.4025 J-0.6972
G2 X61.4903 Y133.6951 Z-1.0 I-0.805 J0.0
G2 X61.0975 Y133.8028 Z-1.0814 I0.0097 J0.8049
G2 Y135.1972 Z-1.4147 I0.4025 J0.6972
G2 X62.305 Y134.5 Z-1.7481 I0.4025 J-0.6972
G2 X61.4903 Y133.6951 Z-2.0 I-0.805 J0.0
G2 X61.0975 Y133.8028 Z-2.0814 I0.0097 J0.8049
G2 Y135.1972 Z-2.4147 I0.4025 J0.6972
G2 X62.305 Y134.5 Z-2.7481 I0.4025 J-0.6972
G2 X61.4903 Y133.6951 Z-3.0 I-0.805 J0.0
G2 X61.0975 Y133.8028 I0.0097 J0.8049
G2 Y135.1972 I0.4025 J0.6972
G2 X62.305 Y134.5 I0.4025 J-0.6972
G2 X61.4903 Y133.6951 I-0.805 J0.0
G0 Z4.0
G0 X15.3049 Y134.4862
G1 F300.0 Z0.0
G2 F800.0 X14.0975 Y133.8028 Z-0.3306 I-0.8049 J0.0138
G2 Y135.1972 Z-0.6639 I0.4025 J0.6972
G2 X15.305 Y134.5 Z-0.9973 I0.4025 J-0.6972
G2 X15.3049 Y134.4862 Z-1.0 I-0.805 J0.0
G2 X14.0975 Y133.8028 Z-1.3306 I-0.8049 J0.0138
G2 Y135.1972 Z-1.6639 I0.4025 J0.6972
G2 X15.305 Y134.5 Z-1.9973 I0.4025 J-0.6972
G2 X15.3049 Y134.4862 Z-2.0 I-0.805 J0.0
G2 X14.0975 Y133.8028 Z-2.3306 I-0.8049 J0.0138
G2 Y135.1972 Z-2.6639 I0.4025 J0.6972
G2 X15.305 Y134.5 Z-2.9973 I0.4025 J-0.6972
G2 X15.3049 Y134.4862 Z-3.0 I-0.805 J0.0
G2 X14.0975 Y133.8028 I-0.8049 J0.0138
G2 Y135.1972 I0.4025 J0.6972
G2 X15.305 Y134.5 I0.4025 J-0.6972
G2 X15.3049 Y134.4862 I-0.805 J0.0
G0 Z4.0
G0 X14.5138 Y88.3049
G1 F300.0 Z0.0
G2 F800.0 X15.305 Y87.5 Z-0.2473 I-0.0138 J-0.8049
G2 X14.0975 Y86.8028 Z-0.5806 I-0.805 J0.0
G2 Y88.1972 Z-0.9139 I0.4025 J0.6972
G2 X14.5138 Y88.3049 Z-1.0 I0.4025 J-0.6972
G2 X15.305 Y87.5 Z-1.2473 I-0.0138 J-0.8049
G2 X14.0975 Y86.8028 Z-1.5806 I-0.805 J0.0
G2 Y88.1972 Z-1.9139 I0.4025 J0.6972
G2 X14.5138 Y88.3049 Z-2.0 I0.4025 J-0.6972
G2 X15.305 Y87.5 Z-2.2473 I-0.0138 J-0.8049
G2 X14.0975 Y86.8028 Z-2.5806 I-0.805 J0.0
G2 Y88.1972 Z-2.9139 I0.4025 J0.6972
G2 X14.5138 Y88.3049 Z-3.0 I0.4025 J-0.6972
G2 X15.305 Y87.5 I-0.0138 J-0.8049
G2 X14.0975 Y86.8028 I-0.805 J0.0
G2 Y88.1972 I0.4025 J0.6972
G2 X14.5138 Y88.3049 I0.4025 J-0.6972
( Plastic Cutout 1 )
S1000
G0 Z4.0
G0 X6.0 Y6.43
G1 F300.0 Z0.0
G1 F800.0 X70.0 Z-0.2407
G3 X71.57 Y8.0 Z-0.25 I0.0 J1.57
G1 Y72.0 Z-0.4907
G3 X70.0 Y73.57 Z-0.5 I-1.57 J0.0
G1 X6.0 Z-0.7407
G3 X4.43 Y72.0 Z-0.75 I0.0 J-1.57
G1 Y8.0 Z-0.9907
G3 X6.0 Y6.43 Z-1.0 I1.57 J0.0
G1 X70.0 Z-1.2407
G3 X71.57 Y8.0 Z-1.25 I0.0 J1.57
G1 Y72.0 Z-1.4907
G3 X70.0 Y73.57 Z-1.5 I-1.57 J0.0
G1 X6.0 Z-1.7407
G3 X4.43 Y72.0 Z-1.75 I0.0 J-1.57
G1 Y8.0 Z-1.9907
G3 X6.0 Y6.43 Z-2.0 I1.57 J0.0
G1 X70.0 Z-2.2407
G3 X71.57 Y8.0 Z-2.25 I0.0 J1.57
G1 Y72.0 Z-2.4907
G3 X70.0 Y73.57 Z-2.5 I-1.57 J0.0
G1 X6.0 Z-2.7407
G3 X4.43 Y72.0 Z-2.75 I0.0 J-1.57
G1 Y8.0 Z-2.9907
G3 X6.0 Y6.43 Z-3.0 I1.57 J0.0
G1 X70.0
G3 X71.57 Y8.0 I0.0 J1.57
G1 Y72.0
G3 X70.0 Y73.57 I-1.57 J0.0
G1 X6.0
G3 X4.43 Y72.0 I0.0 J-1.57
G1 Y8.0
G3 X6.0 Y6.43 I1.57 J0.0
( Plastic Cutout 2 )
S1000
G0 Z4.0
G0 Y77.43
G1 F300.0 Z0.0
G1 F800.0 X70.0 Z-0.2407
G3 X71.57 Y79.0 Z-0.25 I0.0 J1.57
G1 Y143.0 Z-0.4907
G3 X70.0 Y144.57 Z-0.5 I-1.57 J0.0
G1 X6.0 Z-0.7407
G3 X4.43 Y143.0 Z-0.75 I0.0 J-1.57
G1 Y79.0 Z-0.9907
G3 X6.0 Y77.43 Z-1.0 I1.57 J0.0
G1 X70.0 Z-1.2407
G3 X71.57 Y79.0 Z-1.25 I0.0 J1.57
G1 Y143.0 Z-1.4907
G3 X70.0 Y144.57 Z-1.5 I-1.57 J0.0
G1 X6.0 Z-1.7407
G3 X4.43 Y143.0 Z-1.75 I0.0 J-1.57
G1 Y79.0 Z-1.9907
G3 X6.0 Y77.43 Z-2.0 I1.57 J0.0
G1 X70.0 Z-2.2407
G3 X71.57 Y79.0 Z-2.25 I0.0 J1.57
G1 Y143.0 Z-2.4907
G3 X70.0 Y144.57 Z-2.5 I-1.57 J0.0
G1 X6.0 Z-2.7407
G3 X4.43 Y143.0 Z-2.75 I0.0 J-1.57
G1 Y79.0 Z-2.9907
G3 X6.0 Y77.43 Z-3.0 I1.57 J0.0
G1 X70.0
G3 X71.57 Y79.0 I0.0 J1.57
G1 Y143.0
G3 X70.0 Y144.57 I-1.57 J0.0
G1 X6.0
G3 X4.43 Y143.0 I0.0 J-1.57
G1 Y79.0
G3 X6.0 Y77.43 I1.57 J0.0
G0 Z4.0
M5
M30
