( Made using CamBam - http://www.cambam.co.uk )
( Capacitor-v2 3/22/2016 10:14:06 PM )
( T0 : 3.14 )
G21 G90 G64 G40
G0 Z3.0
( T0 : 3.14 )
T0 M6
( Washer holes-inside )
G61 G17
M3 S10001
G0 X71.905 Y117.0
G1 F302.0 Z-0.5
G2 F301.0 X70.5475 Y116.2162 I-0.905 J0.0
G2 Y117.7838 I0.4525 J0.7838
G2 X71.905 Y117.0 I0.4525 J-0.7838
( Washer holes-outside )
S10001
G0 Z3.0
G0 X79.57
G1 F302.0 Z-0.5
G3 F301.0 X66.715 Y124.4218 I-8.57 J0.0
G3 X62.8244 Y119.57 I4.285 J-7.4218
G0 Z1.5
G3 Y114.43 I8.1756 J-2.57
G1 F302.0 Z-0.5
G3 F301.0 X66.715 Y109.5782 I8.1756 J2.57
G3 X79.57 Y117.0 I4.285 J7.4218
( Rotor 2 Hole )
S10001
G0 Z3.0
G0 X35.905 Y89.0
G1 F302.0 Z-0.5
G2 F301.0 X34.5475 Y88.2162 I-0.905 J0.0
G2 Y89.7838 I0.4525 J0.7838
G2 X35.905 Y89.0 I0.4525 J-0.7838
( Rotor 2 )
S10001
G0 Z3.0
G0 X61.57
G1 F302.0 Z-0.5
G3 F301.0 X21.715 Y112.0103 I-26.57 J0.0
G3 X8.43 Y89.0 I13.285 J-23.0103
G3 X10.0 Y87.43 I1.57 J0.0
G1 X15.43
G0 Z1.5
G1 X20.57
G1 F302.0 Z-0.5
G1 F301.0 X26.575
G3 X43.425 I8.425 J1.57
G1 X51.43
G0 Z1.5
G1 X56.57
G1 F302.0 Z-0.5
G1 F301.0 X60.0
G3 X61.57 Y89.0 I0.0 J1.57
( Rotor 3 Hole )
S10001
G0 Z3.0
G0 X35.905 Y146.0
G1 F302.0 Z-0.5
G2 F301.0 X34.5475 Y145.2162 I-0.905 J0.0
G2 Y146.7838 I0.4525 J0.7838
G2 X35.905 Y146.0 I0.4525 J-0.7838
( Rotor 3 )
S10001
G0 Z3.0
G0 X8.43
G1 F302.0 Z-0.5
G3 F301.0 X48.285 Y122.9897 I26.57 J0.0
G3 X61.57 Y146.0 I-13.285 J23.0103
G3 X60.0 Y147.57 I-1.57 J0.0
G1 X56.57
G0 Z1.5
G1 X51.43
G1 F302.0 Z-0.5
G1 F301.0 X43.425
G3 X26.575 I-8.425 J-1.57
G1 X18.57
G0 Z1.5
G1 X13.43
G1 F302.0 Z-0.5
G1 F301.0 X10.0
G3 X8.43 Y146.0 I0.0 J-1.57
( Stator 2 Holes )
S10001
G0 Z3.0
G0 X56.405 Y15.5
G1 F302.0 Z-0.5
G2 F301.0 X55.0475 Y14.7162 I-0.905 J0.0
G2 Y16.2838 I0.4525 J0.7838
G2 X56.405 Y15.5 I0.4525 J-0.7838
G0 Z3.0
G0 X55.5174 Y61.5952
G1 F302.0 Z-0.5
G2 F301.0 X55.0475 Y61.7162 I-0.0174 J0.9048
G2 Y63.2838 I0.4525 J0.7838
G2 X56.405 Y62.5 I0.4525 J-0.7838
G2 X55.5174 Y61.5952 I-0.905 J0.0
( Stator 2 )
S10001
G0 Z3.0
G0 X45.43 Y71.0
G1 F302.0 Z-0.5
G1 F301.0 Y7.0
G3 X47.0 Y5.43 I1.57 J0.0
G1 X70.43
G0 Z1.5
G1 X75.57
G1 F302.0 Z-0.5
G1 F301.0 X79.0
G3 X80.57 Y7.0 I0.0 J1.57
G1 Y7.1723
G1 Y14.0
G1 Y30.5
G3 X79.0 Y32.07 I-1.57 J0.0
G2 X72.9984 Y42.465 I0.0 J6.93
G2 X79.0 Y45.93 I6.0016 J-3.465
G3 X80.57 Y47.5 I0.0 J1.57
G1 Y64.0
G1 Y70.8277
G1 Y71.0
G3 X79.0 Y72.57 I-1.57 J0.0
G1 X75.57
G0 Z1.5
G1 X70.43
G1 F302.0 Z-0.5
G1 F301.0 X47.0
G3 X45.43 Y71.0 I0.0 J-1.57
( Stator 3 Holes )
S10001
G0 Z3.0
G0 X17.405 Y15.5
G1 F302.0 Z-0.5
G2 F301.0 X16.0475 Y14.7162 I-0.905 J0.0
G2 Y16.2838 I0.4525 J0.7838
G2 X17.405 Y15.5 I0.4525 J-0.7838
G0 Z3.0
G0 X16.5174 Y61.5952
G1 F302.0 Z-0.5
G2 F301.0 X16.0475 Y61.7162 I-0.0174 J0.9048
G2 Y63.2838 I0.4525 J0.7838
G2 X17.405 Y62.5 I0.4525 J-0.7838
G2 X16.5174 Y61.5952 I-0.905 J0.0
( Stator 3 )
S10001
G0 Z3.0
G0 X6.43 Y71.0
G1 F302.0 Z-0.5
G1 F301.0 Y7.0
G3 X8.0 Y5.43 I1.57 J0.0
G1 X32.43
G0 Z1.5
G1 X37.57
G1 F302.0 Z-0.5
G1 F301.0 X40.0
G3 X41.57 Y7.0 I0.0 J1.57
G1 Y7.1723
G1 Y14.0
G1 Y30.5
G3 X40.0 Y32.07 I-1.57 J0.0
G2 X33.9984 Y42.465 I0.0 J6.93
G2 X40.0 Y45.93 I6.0016 J-3.465
G3 X41.57 Y47.5 I0.0 J1.57
G1 Y64.0
G1 Y70.8277
G1 Y71.0
G3 X40.0 Y72.57 I-1.57 J0.0
G1 X36.57
G0 Z1.5
G1 X31.43
G1 F302.0 Z-0.5
G1 F301.0 X8.0
G3 X6.43 Y71.0 I0.0 J-1.57
G0 Z3.0
M5
M30
