( Made using CamBam - http://www.cambam.co.uk )
( Capacitor-v2 3/31/2016 11:56:16 PM )
( T0 : 3.14 )
G21 G90 G64 G40
G0 Z3.0
( T0 : 3.14 )
T0 M6
( Washer holes-inside )
G61 G17
M3 S10001
G0 X83.905 Y117.0
G1 F26.0 Z-0.25
G2 F201.0 X82.5475 Y116.2162 I-0.905 J0.0
G2 Y117.7838 I0.4525 J0.7838
G2 X83.905 Y117.0 I0.4525 J-0.7838
G1 F26.0 Z-0.5
G2 F201.0 X82.5475 Y116.2162 I-0.905 J0.0
G2 Y117.7838 I0.4525 J0.7838
G2 X83.905 Y117.0 I0.4525 J-0.7838
( Washer holes-outside )
S10001
G0 Z3.0
G0 X91.57
G1 F26.0 Z-0.25
G3 F201.0 X78.715 Y124.4218 I-8.57 J0.0
G3 X74.8244 Y119.57 I4.285 J-7.4218
G0 Z1.5
G3 Y114.43 I8.1756 J-2.57
G1 F26.0 Z-0.25
G3 F201.0 X78.715 Y109.5782 I8.1756 J2.57
G3 X91.57 Y117.0 I4.285 J7.4218
G1 F26.0 Z-0.5
G3 F201.0 X78.715 Y124.4218 I-8.57 J0.0
G3 X74.8244 Y119.57 I4.285 J-7.4218
G0 Z1.5
G3 Y114.43 I8.1756 J-2.57
G1 F26.0 Z-0.5
G3 F201.0 X78.715 Y109.5782 I8.1756 J2.57
G3 X91.57 Y117.0 I4.285 J7.4218
( Rotor 2 Hole )
S10001
G0 Z3.0
G0 X47.905 Y89.0
G1 F26.0 Z-0.25
G2 F201.0 X46.5475 Y88.2162 I-0.905 J0.0
G2 Y89.7838 I0.4525 J0.7838
G2 X47.905 Y89.0 I0.4525 J-0.7838
G1 F26.0 Z-0.5
G2 F201.0 X46.5475 Y88.2162 I-0.905 J0.0
G2 Y89.7838 I0.4525 J0.7838
G2 X47.905 Y89.0 I0.4525 J-0.7838
( Rotor 2 )
S10001
G0 Z3.0
G0 X73.57
G1 F26.0 Z-0.25
G3 F201.0 X33.715 Y112.0103 I-26.57 J0.0
G3 X20.43 Y89.0 I13.285 J-23.0103
G3 X22.0 Y87.43 I1.57 J0.0
G1 X27.43
G0 Z1.5
G1 X32.57
G1 F26.0 Z-0.25
G1 F201.0 X38.575
G3 X55.425 I8.425 J1.57
G1 X63.43
G0 Z1.5
G1 X68.57
G1 F26.0 Z-0.25
G1 F201.0 X72.0
G3 X73.57 Y89.0 I0.0 J1.57
G1 F26.0 Z-0.5
G3 F201.0 X33.715 Y112.0103 I-26.57 J0.0
G3 X20.43 Y89.0 I13.285 J-23.0103
G3 X22.0 Y87.43 I1.57 J0.0
G1 X27.43
G0 Z1.5
G1 X32.57
G1 F26.0 Z-0.5
G1 F201.0 X38.575
G3 X55.425 I8.425 J1.57
G1 X63.43
G0 Z1.5
G1 X68.57
G1 F26.0 Z-0.5
G1 F201.0 X72.0
G3 X73.57 Y89.0 I0.0 J1.57
( Rotor 3 Hole )
S10001
G0 Z3.0
G0 X47.905 Y146.0
G1 F26.0 Z-0.25
G2 F201.0 X46.5475 Y145.2162 I-0.905 J0.0
G2 Y146.7838 I0.4525 J0.7838
G2 X47.905 Y146.0 I0.4525 J-0.7838
G1 F26.0 Z-0.5
G2 F201.0 X46.5475 Y145.2162 I-0.905 J0.0
G2 Y146.7838 I0.4525 J0.7838
G2 X47.905 Y146.0 I0.4525 J-0.7838
( Rotor 3 )
S10001
G0 Z3.0
G0 X20.43
G1 F26.0 Z-0.25
G3 F201.0 X60.285 Y122.9897 I26.57 J0.0
G3 X73.57 Y146.0 I-13.285 J23.0103
G3 X72.0 Y147.57 I-1.57 J0.0
G1 X68.57
G0 Z1.5
G1 X63.43
G1 F26.0 Z-0.25
G1 F201.0 X55.425
G3 X38.575 I-8.425 J-1.57
G1 X30.57
G0 Z1.5
G1 X25.43
G1 F26.0 Z-0.25
G1 F201.0 X22.0
G3 X20.43 Y146.0 I0.0 J-1.57
G1 F26.0 Z-0.5
G3 F201.0 X60.285 Y122.9897 I26.57 J0.0
G3 X73.57 Y146.0 I-13.285 J23.0103
G3 X72.0 Y147.57 I-1.57 J0.0
G1 X68.57
G0 Z1.5
G1 X63.43
G1 F26.0 Z-0.5
G1 F201.0 X55.425
G3 X38.575 I-8.425 J-1.57
G1 X30.57
G0 Z1.5
G1 X25.43
G1 F26.0 Z-0.5
G1 F201.0 X22.0
G3 X20.43 Y146.0 I0.0 J-1.57
( Stator 2 Holes )
S10001
G0 Z3.0
G0 X67.405 Y15.5
G1 F26.0 Z-0.25
G2 F201.0 X66.0475 Y14.7162 I-0.905 J0.0
G2 Y16.2838 I0.4525 J0.7838
G2 X67.405 Y15.5 I0.4525 J-0.7838
G1 F26.0 Z-0.5
G2 F201.0 X66.0475 Y14.7162 I-0.905 J0.0
G2 Y16.2838 I0.4525 J0.7838
G2 X67.405 Y15.5 I0.4525 J-0.7838
G0 Z3.0
G0 X66.5174 Y61.5952
G1 F26.0 Z-0.25
G2 F201.0 X66.0475 Y61.7162 I-0.0174 J0.9048
G2 Y63.2838 I0.4525 J0.7838
G2 X67.405 Y62.5 I0.4525 J-0.7838
G2 X66.5174 Y61.5952 I-0.905 J0.0
G1 F26.0 Z-0.5
G2 F201.0 X66.0475 Y61.7162 I-0.0174 J0.9048
G2 Y63.2838 I0.4525 J0.7838
G2 X67.405 Y62.5 I0.4525 J-0.7838
G2 X66.5174 Y61.5952 I-0.905 J0.0
( Stator 2 )
S10001
G0 Z3.0
G0 X56.43 Y71.0
G1 F26.0 Z-0.25
G1 F201.0 Y7.0
G3 X58.0 Y5.43 I1.57 J0.0
G1 X90.0
G3 X91.57 Y7.0 I0.0 J1.57
G1 Y7.1723
G1 Y12.43
G0 Z1.5
G1 Y14.0
G1 Y17.57
G1 F26.0 Z-0.25
G1 F201.0 Y30.5
G3 X90.0 Y32.07 I-1.57 J0.0
G2 X83.9984 Y42.465 I0.0 J6.93
G2 X90.0 Y45.93 I6.0016 J-3.465
G3 X91.57 Y47.5 I0.0 J1.57
G1 Y60.43
G0 Z1.5
G1 Y64.0
G1 Y65.57
G1 F26.0 Z-0.25
G1 F201.0 Y70.8277
G1 Y71.0
G3 X90.0 Y72.57 I-1.57 J0.0
G1 X58.0
G3 X56.43 Y71.0 I0.0 J-1.57
G1 F26.0 Z-0.5
G1 F201.0 Y7.0
G3 X58.0 Y5.43 I1.57 J0.0
G1 X90.0
G3 X91.57 Y7.0 I0.0 J1.57
G1 Y7.1723
G1 Y12.43
G0 Z1.5
G1 Y14.0
G1 Y17.57
G1 F26.0 Z-0.5
G1 F201.0 Y30.5
G3 X90.0 Y32.07 I-1.57 J0.0
G2 X83.9984 Y42.465 I0.0 J6.93
G2 X90.0 Y45.93 I6.0016 J-3.465
G3 X91.57 Y47.5 I0.0 J1.57
G1 Y60.43
G0 Z1.5
G1 Y64.0
G1 Y65.57
G1 F26.0 Z-0.5
G1 F201.0 Y70.8277
G1 Y71.0
G3 X90.0 Y72.57 I-1.57 J0.0
G1 X58.0
G3 X56.43 Y71.0 I0.0 J-1.57
( Stator 3 Holes )
S10001
G0 Z3.0
G0 X17.405 Y15.5
G1 F26.0 Z-0.25
G2 F201.0 X16.0475 Y14.7162 I-0.905 J0.0
G2 Y16.2838 I0.4525 J0.7838
G2 X17.405 Y15.5 I0.4525 J-0.7838
G1 F26.0 Z-0.5
G2 F201.0 X16.0475 Y14.7162 I-0.905 J0.0
G2 Y16.2838 I0.4525 J0.7838
G2 X17.405 Y15.5 I0.4525 J-0.7838
G0 Z3.0
G0 X16.5174 Y61.5952
G1 F26.0 Z-0.25
G2 F201.0 X16.0475 Y61.7162 I-0.0174 J0.9048
G2 Y63.2838 I0.4525 J0.7838
G2 X17.405 Y62.5 I0.4525 J-0.7838
G2 X16.5174 Y61.5952 I-0.905 J0.0
G1 F26.0 Z-0.5
G2 F201.0 X16.0475 Y61.7162 I-0.0174 J0.9048
G2 Y63.2838 I0.4525 J0.7838
G2 X17.405 Y62.5 I0.4525 J-0.7838
G2 X16.5174 Y61.5952 I-0.905 J0.0
( Stator 3 )
S10001
G0 Z3.0
G0 X6.43 Y71.0
G1 F26.0 Z-0.25
G1 F201.0 Y7.0
G3 X8.0 Y5.43 I1.57 J0.0
G1 X40.0
G3 X41.57 Y7.0 I0.0 J1.57
G1 Y7.1723
G1 Y13.43
G0 Z1.5
G1 Y14.0
G1 Y18.57
G1 F26.0 Z-0.25
G1 F201.0 Y30.5
G3 X40.0 Y32.07 I-1.57 J0.0
G2 X33.9984 Y42.465 I0.0 J6.93
G2 X40.0 Y45.93 I6.0016 J-3.465
G3 X41.57 Y47.5 I0.0 J1.57
G1 Y60.43
G0 Z1.5
G1 Y64.0
G1 Y65.57
G1 F26.0 Z-0.25
G1 F201.0 Y70.8277
G1 Y71.0
G3 X40.0 Y72.57 I-1.57 J0.0
G1 X8.0
G3 X6.43 Y71.0 I0.0 J-1.57
G1 F26.0 Z-0.5
G1 F201.0 Y7.0
G3 X8.0 Y5.43 I1.57 J0.0
G1 X40.0
G3 X41.57 Y7.0 I0.0 J1.57
G1 Y7.1723
G1 Y13.43
G0 Z1.5
G1 Y14.0
G1 Y18.57
G1 F26.0 Z-0.5
G1 F201.0 Y30.5
G3 X40.0 Y32.07 I-1.57 J0.0
G2 X33.9984 Y42.465 I0.0 J6.93
G2 X40.0 Y45.93 I6.0016 J-3.465
G3 X41.57 Y47.5 I0.0 J1.57
G1 Y60.43
G0 Z1.5
G1 Y64.0
G1 Y65.57
G1 F26.0 Z-0.5
G1 F201.0 Y70.8277
G1 Y71.0
G3 X40.0 Y72.57 I-1.57 J0.0
G1 X8.0
G3 X6.43 Y71.0 I0.0 J-1.57
G0 Z3.0
M5
M30
