N00000 (.../pcb-gcode-3.6.2.4/pcb-gcode.ulp)
N00010 (Copyright 2005 - 2012 by John Johnson)
N00020 (See readme.txt for licensing terms.)
N00030 (This file generated from the board:)
N00040 (.../Q-Berry2/BreakOut/14 pin sop.brd)
N00050 (Current profile is .../pcb-gcode-3.6.2.4/profiles/emc.pp  )
N00060 (This file generated 3/30/2015 6:36:00 PM)
N00070 (Settings from pcb-machine.h)
N00080 (spindle on time = 3.0000)
N00090 (tool change at 0.0000 0.0000 -10.0000 )
N00100 (feed rate xy = F0.00  )
N00110 (feed rate z  = F0.00  )
N00120 (Z Axis Settings)
N00130 (  High     Up        Down     Drill)
N00140 (-10.0000 	-60.0000 	-65.0000 	-67.0000 )
N00150 (Settings from pcb-defaults.h)
N00160 (isolate min = 0.0254)
N00170 (isolate max = 0.5080)
N00180 (isolate step = 0.1270)
N00190 (Generated top outlines, top drill, top stencil, bottom outlines, bottom drill, bottom stencil)
N00200 (Unit of measure: mm)
N00210 (Metric Mode)
N00220 G21
N00230 (Absolute Coordinates)
N00240 G90
N00250 S24000
N00260 G00 Z-10.0000 
N00270 G00 X0.0000 Y0.0000 
N00280 M03
N00290 G04 P3.000000
N00300 G00 Z-60.0000 
N00310 G00 X60.5438 Y10.1562 
N00320 G01 Z-65.0000 F584.20 
N00330 G01 X59.0962 Y10.1562 F558.80 
N00340 G01 X59.0962 Y12.7038 
N00350 G01 X60.5438 Y12.7038 
N00360 G01 X60.5438 Y10.1562 
N00370 G01 X59.0962 Y10.1562 
N00380 G00 Z-60.0000 
N00390 G00 X57.7438 Y10.1562 
N00400 G01 Z-65.0000 F584.20 
N00410 G01 X56.2962 Y10.1562 F558.80 
N00420 G01 X56.2962 Y12.7038 
N00430 G01 X57.7438 Y12.7038 
N00440 G01 X57.7438 Y10.1562 
N00450 G01 X56.2962 Y10.1562 
N00460 G00 Z-60.0000 
N00470 G00 X25.1460 Y14.3764 
N00480 G01 Z-65.0000 F584.20 
N00490 G01 X25.6540 Y14.3764 F558.80 
N00500 G01 X25.6540 Y12.4968 
N00510 G01 X25.1460 Y12.4968 
N00520 G01 X25.1460 Y14.3764 
N00530 G01 X25.6540 Y14.3764 
N00540 G00 Z-60.0000 
N00550 G00 X26.4160 Y14.3764 
N00560 G01 Z-65.0000 F584.20 
N00570 G01 X26.9240 Y14.3764 F558.80 
N00580 G01 X26.9240 Y12.4968 
N00590 G01 X26.4160 Y12.4968 
N00600 G01 X26.4160 Y14.3764 
N00610 G01 X26.9240 Y14.3764 
N00620 G00 Z-60.0000 
N00630 G00 X27.6860 Y14.3764 
N00640 G01 Z-65.0000 F584.20 
N00650 G01 X28.1940 Y14.3764 F558.80 
N00660 G01 X28.1940 Y12.4968 
N00670 G01 X27.6860 Y12.4968 
N00680 G01 X27.6860 Y14.3764 
N00690 G01 X28.1940 Y14.3764 
N00700 G00 Z-60.0000 
N00710 G00 X28.9560 Y14.3764 
N00720 G01 Z-65.0000 F584.20 
N00730 G01 X29.4640 Y14.3764 F558.80 
N00740 G01 X29.4640 Y12.4968 
N00750 G01 X28.9560 Y12.4968 
N00760 G01 X28.9560 Y14.3764 
N00770 G01 X29.4640 Y14.3764 
N00780 G00 Z-60.0000 
N00790 G00 X30.2260 Y14.3764 
N00800 G01 Z-65.0000 F584.20 
N00810 G01 X30.7340 Y14.3764 F558.80 
N00820 G01 X30.7340 Y12.4968 
N00830 G01 X30.2260 Y12.4968 
N00840 G01 X30.2260 Y14.3764 
N00850 G01 X30.7340 Y14.3764 
N00860 G00 Z-60.0000 
N00870 G00 X31.4960 Y14.3764 
N00880 G01 Z-65.0000 F584.20 
N00890 G01 X32.0040 Y14.3764 F558.80 
N00900 G01 X32.0040 Y12.4968 
N00910 G01 X31.4960 Y12.4968 
N00920 G01 X31.4960 Y14.3764 
N00930 G01 X32.0040 Y14.3764 
N00940 G00 Z-60.0000 
N00950 G00 X32.7660 Y14.3764 
N00960 G01 Z-65.0000 F584.20 
N00970 G01 X33.2740 Y14.3764 F558.80 
N00980 G01 X33.2740 Y12.4968 
N00990 G01 X32.7660 Y12.4968 
N01000 G01 X32.7660 Y14.3764 
N01010 G01 X33.2740 Y14.3764 
N01020 G00 Z-60.0000 
N01030 G00 X32.7660 Y20.5232 
N01040 G01 Z-65.0000 F584.20 
N01050 G01 X33.2740 Y20.5232 F558.80 
N01060 G01 X33.2740 Y18.6436 
N01070 G01 X32.7660 Y18.6436 
N01080 G01 X32.7660 Y20.5232 
N01090 G01 X33.2740 Y20.5232 
N01100 G00 Z-60.0000 
N01110 G00 X31.4960 Y20.5232 
N01120 G01 Z-65.0000 F584.20 
N01130 G01 X32.0040 Y20.5232 F558.80 
N01140 G01 X32.0040 Y18.6436 
N01150 G01 X31.4960 Y18.6436 
N01160 G01 X31.4960 Y20.5232 
N01170 G01 X32.0040 Y20.5232 
N01180 G00 Z-60.0000 
N01190 G00 X30.2260 Y20.5232 
N01200 G01 Z-65.0000 F584.20 
N01210 G01 X30.7340 Y20.5232 F558.80 
N01220 G01 X30.7340 Y18.6436 
N01230 G01 X30.2260 Y18.6436 
N01240 G01 X30.2260 Y20.5232 
N01250 G01 X30.7340 Y20.5232 
N01260 G00 Z-60.0000 
N01270 G00 X28.9560 Y20.5232 
N01280 G01 Z-65.0000 F584.20 
N01290 G01 X29.4640 Y20.5232 F558.80 
N01300 G01 X29.4640 Y18.6436 
N01310 G01 X28.9560 Y18.6436 
N01320 G01 X28.9560 Y20.5232 
N01330 G01 X29.4640 Y20.5232 
N01340 G00 Z-60.0000 
N01350 G00 X27.6860 Y20.5232 
N01360 G01 Z-65.0000 F584.20 
N01370 G01 X28.1940 Y20.5232 F558.80 
N01380 G01 X28.1940 Y18.6436 
N01390 G01 X27.6860 Y18.6436 
N01400 G01 X27.6860 Y20.5232 
N01410 G01 X28.1940 Y20.5232 
N01420 G00 Z-60.0000 
N01430 G00 X26.4160 Y20.5232 
N01440 G01 Z-65.0000 F584.20 
N01450 G01 X26.9240 Y20.5232 F558.80 
N01460 G01 X26.9240 Y18.6436 
N01470 G01 X26.4160 Y18.6436 
N01480 G01 X26.4160 Y20.5232 
N01490 G01 X26.9240 Y20.5232 
N01500 G00 Z-60.0000 
N01510 G00 X25.1460 Y20.5232 
N01520 G01 Z-65.0000 F584.20 
N01530 G01 X25.6540 Y20.5232 F558.80 
N01540 G01 X25.6540 Y18.6436 
N01550 G01 X25.1460 Y18.6436 
N01560 G01 X25.1460 Y20.5232 
N01570 G01 X25.6540 Y20.5232 
N01580 G00 Z-60.0000 
N01590 G00 X51.8162 Y18.4538 
N01600 G01 Z-65.0000 F584.20 
N01610 G01 X52.9638 Y18.4538 F558.80 
N01620 G01 X52.9638 Y17.1062 
N01630 G01 X51.8162 Y17.1062 
N01640 G01 X51.8162 Y18.4538 
N01650 G01 X52.9638 Y18.4538 
N01660 G00 Z-60.0000 
N01670 G00 X53.7162 Y18.4538 
N01680 G01 Z-65.0000 F584.20 
N01690 G01 X54.8638 Y18.4538 F558.80 
N01700 G01 X54.8638 Y17.1062 
N01710 G01 X53.7162 Y17.1062 
N01720 G01 X53.7162 Y18.4538 
N01730 G01 X54.8638 Y18.4538 
N01740 G00 Z-60.0000 
N01750 G00 X67.5638 Y20.9162 
N01760 G01 Z-65.0000 F584.20 
N01770 G01 X66.4162 Y20.9162 F558.80 
N01780 G01 X66.4162 Y22.2638 
N01790 G01 X67.5638 Y22.2638 
N01800 G01 X67.5638 Y20.9162 
N01810 G01 X66.4162 Y20.9162 
N01820 G00 Z-60.0000 
N01830 G00 X65.6638 Y20.9162 
N01840 G01 Z-65.0000 F584.20 
N01850 G01 X64.5162 Y20.9162 F558.80 
N01860 G01 X64.5162 Y22.2638 
N01870 G01 X65.6638 Y22.2638 
N01880 G01 X65.6638 Y20.9162 
N01890 G01 X64.5162 Y20.9162 
N01900 G00 Z-60.0000 
N01910 G00 X9.9862 Y7.6738 
N01920 G01 Z-65.0000 F584.20 
N01930 G01 X10.3338 Y7.6738 F558.80 
N01940 G01 X10.3338 Y6.8262 
N01950 G01 X9.9862 Y6.8262 
N01960 G01 X9.9862 Y7.6738 
N01970 G01 X10.3338 Y7.6738 
N01980 G00 Z-60.0000 
N01990 G00 X9.3362 Y5.8738 
N02000 G01 Z-65.0000 F584.20 
N02010 G01 X9.6838 Y5.8738 F558.80 
N02020 G01 X9.6838 Y5.0262 
N02030 G01 X9.3362 Y5.0262 
N02040 G01 X9.3362 Y5.8738 
N02050 G01 X9.6838 Y5.8738 
N02060 G00 Z-60.0000 
N02070 G00 X10.6362 Y5.8738 
N02080 G01 Z-65.0000 F584.20 
N02090 G01 X10.9838 Y5.8738 F558.80 
N02100 G01 X10.9838 Y5.0262 
N02110 G01 X10.6362 Y5.0262 
N02120 G01 X10.6362 Y5.8738 
N02130 G01 X10.9838 Y5.8738 
N02140 G00 Z-60.0000 
N02150 G00 X66.8162 Y26.7912 
N02160 G01 Z-65.0000 F584.20 
N02170 G01 X66.8162 Y27.1888 F558.80 
N02180 G01 X67.8638 Y27.1888 
N02190 G01 X67.8638 Y26.7912 
N02200 G01 X66.8162 Y26.7912 
N02210 G01 X66.8162 Y27.1888 
N02220 G00 Z-60.0000 
N02230 G00 X66.8162 Y27.7412 
N02240 G01 Z-65.0000 F584.20 
N02250 G01 X66.8162 Y28.1388 F558.80 
N02260 G01 X67.8638 Y28.1388 
N02270 G01 X67.8638 Y27.7412 
N02280 G01 X66.8162 Y27.7412 
N02290 G01 X66.8162 Y28.1388 
N02300 G00 Z-60.0000 
N02310 G00 X66.8162 Y28.6912 
N02320 G01 Z-65.0000 F584.20 
N02330 G01 X66.8162 Y29.0888 F558.80 
N02340 G01 X67.8638 Y29.0888 
N02350 G01 X67.8638 Y28.6912 
N02360 G01 X66.8162 Y28.6912 
N02370 G01 X66.8162 Y29.0888 
N02380 G00 Z-60.0000 
N02390 G00 X64.2162 Y28.6912 
N02400 G01 Z-65.0000 F584.20 
N02410 G01 X64.2162 Y29.0888 F558.80 
N02420 G01 X65.2638 Y29.0888 
N02430 G01 X65.2638 Y28.6912 
N02440 G01 X64.2162 Y28.6912 
N02450 G01 X64.2162 Y29.0888 
N02460 G00 Z-60.0000 
N02470 G00 X64.2162 Y27.7412 
N02480 G01 Z-65.0000 F584.20 
N02490 G01 X64.2162 Y28.1388 F558.80 
N02500 G01 X65.2638 Y28.1388 
N02510 G01 X65.2638 Y27.7412 
N02520 G01 X64.2162 Y27.7412 
N02530 G01 X64.2162 Y28.1388 
N02540 G00 Z-60.0000 
N02550 G00 X64.2162 Y26.7912 
N02560 G01 Z-65.0000 F584.20 
N02570 G01 X64.2162 Y27.1888 F558.80 
N02580 G01 X65.2638 Y27.1888 
N02590 G01 X65.2638 Y26.7912 
N02600 G01 X64.2162 Y26.7912 
N02610 G01 X64.2162 Y27.1888 
N02620 G00 Z-60.0000 
N02630 G00 Z-10.0000 
N02640 M05
N02650 M02
